/* XPM */
static char *b29c88a69fa343caab1b3b2778aac333nRSmQabnQ4tyCx6F[] = {
/* columns rows colors chars-per-pixel */
"117 126 256 2 ",
"   c #100B09",
".  c #1A0D0B",
"X  c #1A120D",
"o  c #161717",
"O  c #1C1714",
"+  c #290606",
"@  c #380806",
"#  c #28140C",
"$  c #37160C",
"%  c #331A0E",
"&  c #330E14",
"*  c #291915",
"=  c #341D13",
"-  c #381C16",
";  c #29221D",
":  c #372319",
">  c #3B231B",
",  c #2A1E26",
"<  c #292924",
"1  c #352623",
"2  c #3C2B23",
"3  c #343531",
"4  c #480907",
"5  c #580909",
"6  c #47130D",
"7  c #56140C",
"8  c #460D19",
"9  c #461914",
"0  c #5A1913",
"q  c #680408",
"w  c #77020B",
"e  c #66150D",
"r  c #6B0F11",
"t  c #790714",
"y  c #661A14",
"u  c #761617",
"i  c #45261B",
"p  c #57241A",
"a  c #4D311D",
"s  c #67241A",
"d  c #78251A",
"f  c #6F301D",
"g  c #561926",
"h  c #442D23",
"j  c #492B25",
"k  c #552B24",
"l  c #453125",
"z  c #49352A",
"x  c #4B352B",
"c  c #573428",
"v  c #54352B",
"b  c #533B2D",
"n  c #5C3B2C",
"m  c #4B3933",
"M  c #593734",
"N  c #543D32",
"B  c #5B3D32",
"V  c #692B24",
"C  c #782924",
"Z  c #65382B",
"A  c #783528",
"S  c #653C34",
"D  c #783933",
"F  c #3C4238",
"G  c #4E4335",
"H  c #5C4234",
"J  c #5A4539",
"K  c #654733",
"L  c #684536",
"P  c #63463A",
"I  c #644A3C",
"U  c #6B4B3C",
"Y  c #76483A",
"T  c #78523E",
"R  c #463D44",
"E  c #594F48",
"W  c #674D42",
"Q  c #784C43",
"!  c #6D5244",
"~  c #695549",
"^  c #735444",
"/  c #785646",
"(  c #745B4C",
")  c #7C5C4C",
"_  c #685B53",
"`  c #7A5D51",
"'  c #7A634C",
"]  c #6B6458",
"[  c #756252",
"{  c #7B6354",
"}  c #7B6A5A",
"|  c #746D65",
" . c #7C7468",
".. c #880717",
"X. c #97061A",
"o. c #881619",
"O. c #921218",
"+. c #A7051D",
"@. c #89281C",
"#. c #AE361E",
"$. c #980922",
"%. c #951724",
"&. c #A80925",
"*. c #B70928",
"=. c #A61728",
"-. c #B9152F",
";. c #873729",
":. c #8F322D",
">. c #97372A",
",. c #B02F30",
"<. c #A63A35",
"1. c #C90A2E",
"2. c #D90B34",
"3. c #C71736",
"4. c #D7173B",
"5. c #E51039",
"6. c #CA2A39",
"7. c #874739",
"8. c #974739",
"9. c #94503B",
"0. c #AF4C37",
"q. c #A74639",
"w. c #B64839",
"e. c #CB4A38",
"r. c #E45C3B",
"t. c #A6364C",
"y. c #D81B41",
"u. c #E71A44",
"i. c #F7154A",
"p. c #D42E45",
"a. c #E82649",
"s. c #EF2D50",
"d. c #F82955",
"f. c #F83659",
"g. c #F23C63",
"h. c #854B43",
"j. c #875948",
"k. c #845C4B",
"l. c #965949",
"z. c #8F5950",
"x. c #A84C44",
"c. c #A85648",
"v. c #B4524A",
"b. c #B95649",
"n. c #87634D",
"m. c #95634E",
"M. c #846353",
"N. c #8A6553",
"B. c #846C54",
"V. c #8C6B55",
"C. c #856659",
"Z. c #836B5C",
"A. c #8B6C5A",
"S. c #976957",
"D. c #936C5A",
"F. c #88745A",
"G. c #8B745B",
"H. c #97745D",
"J. c #A86857",
"K. c #B86758",
"L. c #A7755D",
"P. c #B47159",
"I. c #AC4267",
"U. c #876E61",
"Y. c #956E61",
"T. c #847364",
"R. c #8B7868",
"E. c #967764",
"W. c #9C7C6C",
"Q. c #8C7D72",
"!. c #997E71",
"~. c #A67965",
"^. c #AF7369",
"/. c #B77965",
"(. c #C65949",
"). c #D0524C",
"_. c #EA5255",
"`. c #C86757",
"'. c #D26A53",
"]. c #D66857",
"[. c #E66855",
"{. c #DD5566",
"}. c #CA7267",
"|. c #D87665",
" X c #E67867",
".X c #8F8069",
"XX c #99836A",
"oX c #8A8579",
"OX c #978678",
"+X c #A7846C",
"@X c #B58569",
"#X c #A68875",
"$X c #B68B76",
"%X c #A9937C",
"&X c #B7937C",
"*X c #C99074",
"=X c #E39276",
"-X c #8D8C82",
";X c #998E83",
":X c #979389",
">X c #999991",
",X c #A79788",
"<X c #B59A86",
"1X c #AC9A90",
"2X c #BAA38B",
"3X c #AAA498",
"4X c #B5AB98",
"5X c #B8A898",
"6X c #B6ADA3",
"7X c #B2AEA6",
"8X c #BAB3A7",
"9X c #C99A88",
"0X c #E49691",
"qX c #CCA98F",
"wX c #DBAA86",
"eX c #C5AB96",
"rX c #C7B39B",
"tX c #E4B18B",
"yX c #C6B7A7",
"uX c #C9B3A7",
"iX c #CBBCAC",
"pX c #D3BCA8",
"aX c #C8BDB2",
"sX c #BEC0B3",
"dX c #CCC2AD",
"fX c #D5C4AC",
"gX c #CDC2B3",
"hX c #CDC6B8",
"jX c #D3C5B3",
"kX c #D4C8B7",
"lX c #DACBB4",
"zX c #D4CBBB",
"xX c #DACDBB",
"cX c #DCD2B7",
"vX c #D5D2BD",
"bX c #DDD1BD",
"nX c #E4C8B3",
"mX c #E2D5BD",
"MX c #CBC9C1",
"NX c #D7CDC2",
"BX c #DCD3C3",
"VX c #DBD5C7",
"CX c #E2D5C4",
"ZX c #E5DAC5",
"AX c #E4DBCB",
"SX c #E9DBC9",
"DX c #E7DDD2",
"FX c #F2DFD2",
"GX c #ECE2C7",
"HX c #ECE3CD",
"JX c #ECE4D3",
"KX c #ECE6D8",
"LX c #F5ECD7",
"PX c #F3EAD8",
"IX c #F5EDE2",
"UX c #FAF4E5",
/* pixels */
"o o o o o o o F 8XBXvXvXvXvXvXvXvXvXvXvXvXvXvXvXvXvXvXvXgXpX9X/.J.J.7.S.~.^ ~ M M B / Q v x x W M N W _ ! / U S P v x W U S v x h j z.S.Y m.^.J.^.*X9X8XsXaXhXhXMXNXNXNXzXgX8X8X4X,XoXQ.R.R.Q.E.!.P E.$X@X@X@X$X@X$XW.3 o o o o o o o o o ",
"o o o o o o E zXvXvXvXvXvXvXvXvXvXvXvXBXvXBXvXvXvXvXvXvXpX9X^.J.J.l.l.j./ ( ( W h x I W B W N ~ C.` ` ` ~ M U M v v 2 v Q W v j v - h.*XJ.J.^.J.J.K.9XiXzXhXgXyXyX6X3X,X%XXX_ T.U.U.T.E.!.+X#X~.+X[ ~.$X+X~.@X@X@X@X#X#XE o o o o o o o o ",
"o o o o o | BXvXvXvXvXvXvXvXvXvXvXvXvXvXvXvXvXBXvXzXvXfX$X/.J.h.J.l.z.U M J !.( > l N M x W ~ ` C.C.[ ~ W N B W B x l h B j.k.Q k - v h./.^.^.P.J.l./.<X<X#X+X~.~.~.~.L.L.E.C.#X+X#X+X!.!.W.+XW.W.) ~.@X~.~.#X@X$X+X+X!.,XG o o o o o o o ",
"o o o o  .vXvXvXvXvXvXvXvXvXvXvXvXvXvXvXvXvXvXvXbXvXvX<XJ.^.h.j.S.m.h.M h x W m 2 2 l l 2 J ! U.E.C.( W I H b B L M x x x S j.k.v h h j j.}.*X/.^.J.J.J.P.P.@X@X@X@X@X@X@X~.B.!.W.W.W.W.!.!.!.W.W.( ~.+X+X+X#X$X@X@X+X!.#XZ.E o o o o o o ",
"o o o oXBXvXvXvXvXvXvXvXvXvXvXvXvXvXvXvXBXBXvXBXvXkXpXL.m.z.Y j.S.j.U h 2 1 j 2 2 2 1 2 2 x ^ Z.` ^ ) ^ ^ L S n n S v j 1 B Q / v - 2 > k z.^././.J.J.P./.@X@X/.@X/.@X/.~.E.{ !.!.W.!.W.!.XXXXW.!.^ ~.@X+X$X+X~.@X+X+XOXOX( !._ o o o o o ",
"o o oXvXvXvXvXvXvXvXvXvXvXvXvXvXvXvXBXBXvXvXgXdX8X8X<Xz.Y Q j.Q k.U B 2 2 1 2 1 1 2 1 2 l N P ! U / ) ) / Y L L L L U B h h W L M.h - 2 h M h.l.^./.}.K.P././.L././.~.~.~.H.( OX!.!.!.W.!.!.!.W.W.^ ~.@X~.~.+X+X@X@X~.XXOX( E.#X_ o o o o ",
"o oXzXhXhXgXhXvXkXkXvXvXvXkXhXhXgXdX8X8X6X6X8X7X4X8XW.Y U U Q S S M x 1 x 1 1 1 1 1 2 x x P U ^ ) n.n.k.j./ Y Q Q ^ U ^ S v v M Q W = h : h S Y z.J.}.*XP.P././.@XL.~.~.~.H.( !.W.!.!.W.W.W.!.!.W.^ ~.+X~.+X@X~.+X+X+X!.#XM.E.~.~._ o o o ",
"oXzXhXzXvXzXkXkXhXgXdX8X8X8X8X8X7X8X8X8X7X7X7X7X3X5Xz.S U P U M M v 2 l 1 , 1 1 1 1 2 x B K T ) k.n.k.k.j.j.j.j.j.j.Q S L W j v k P x 1 1 - v Y Y 7.l.J.P.P./././.@X~.~.~.D.( W.W.!.W.W.~.~.!.W.!.! ~.~.~.@X+X~.~.~.+X!.OXM.E.~.~.+X( o o ",
"gXdXiXyXaX8X8X8X8X7X8X8X8X8X8X7X7X3X3X3X3X3X3X3X7X<Xj.S Q S L v M h l 2 * 1 < 1 1 1 2 j B L / n.n.n.k.k.k.j.j.k.j./ / L n L i M k M x 1 1 - j S Y D Y 9.c././././.L.L.~.~.D.( W.W.W.W.W.~.~.W.W.W.! ~.~.~.@X+X+X+X~.+X!.#X' E.~.~.~.~.~ o ",
"1X4X4X4X6X8X6X8X8X7X7X3X3X3X3X3X7X7X7X8X8X8X8X6X5X#XQ Q Q M L B j 2 1 1 1 1 1 1 , 1 h b K Y j.n.k.n.m.k.k.j.j.k.j.j.j.Y S S h x j v x * * - > k Z S Y 7.9.P./.P./.~.~.~.~.D.( W.W.E.W.W.~.~.~.W.E.! ~.~.~.~.+X+X+XW.XXXX#X) E.~.E.H.~.+XE ",
",X,X,X1X4X7X3X3X3X3X3X8X8X8X8XaXaX8X6X3X,X,XOXXXE.N.Y Q S v U v 2 1 1 1 1 < < 1 1 2 h P Y T / k.k.k.k.k.j.j.j.j.j./ T L L M i h 2 h x - * - 2 j Z S S D D l.}./.@XL.~.~.~.D.( W.E.E.W.W.~.~.~.~.E.W E.~.~.~.+X~.W.W.W.W.+X) E.~.~.E.~.~.+X",
" .R.oX,X4X8X8X8X8X8X6X4X,X:X;XOXR.R.U.Z.( A.D.H.~.j.Q S j v B M 2 < 1 < < ; 1 1 1 2 b U T T j.k.k.k.k.k.j.j.j.j./ / T L L S i 1 1 : x 2 - 1 h M v k S Z D 7./.*X@X~.~.L.~.A.^ W.Y.W.W.E.~.~.E.Y.Y.W E.~.~.~.~.~.W.W.W.W.~.) D.~.~.H.~.~.~.",
"oX:X>X3XOX,X,XOXOXQ.U.U.~ } Z.U.Z.Z.A.G.M.H.H.H.~.j.Y k j M v B 2 1 1 * * < 1 1 1 h L Q / / j.k.k.k.k.k.j.j.j.j.T / Q U L L i : > = x h * * - B S 9 k p Z l.l.*X*X/.~.L.~.D.^ E.E.W.~.E.E.E.E.E.Y.W E.~.~.~.~.~.+X+XW.~.~./ D.H.~.H.~.~.~.",
":X:X:X;X{ } U.Z.R.R.Z.A.` U.U.R.U.Y.Y.R.^ D.H.H.H.7.M j v n M B h 1 1 * * < 1 1 2 x Y h.j.j.k.k.k.k.k.j.j.j.j.j.T / Y L L L j - > % h v * * - x M - j p k J.l.J.*X@X~.H.~.V.! E.H.E.W.Y.U.Y.E.E.R.W E.~.~.E.~.~.#X~.W.E.~./ D.H.~.E.H.~.L.",
":X:X:XoX( { Z.A.Y.R.Z.Z.( Z.Z.Z.U.Z.U.U.( A.D.S.S.7.v M B S P x h 1 < * * < 1 1 2 P Q / j.k.n.n.m.m.k.k.j.j.z.k.j./ Y L L L j - : * : x * * - = h j i j p J.J.h.}.*X~.L.~.N.^ W.H.H.E.Z.Y.W.E.E.U.W E.~.E.E.~.~.~.W.W.E.W./ D.H.~.H.~.H.H.",
":X:X;XQ.! ^ { C.A.Z.C.U.( U.Z.Z.U.E.E.U.( V.D.L.m.Y c v S Q M : h 1 * * * 1 < - x U Q j.j.k.m.m.m.m.m.m.k.z.m.m.k.j.T U L S v > : * - x 1 * : = 2 h > i k S.m.h.P.*X^.~.S.M.^ W.D.D.H.A.E.E.H.Y.Y.U E.~.E.E.~.~.E.E.W.E.W./ D.E.~.H.H.H.H.",
":X:X-XR.I I ^ ) n.) { U.` C.C.{ Z.E.W.Z.! V.S.S.m.Y c Q Y Q h 1 h 2 * * < < * 2 L ^ k.k.k.m.m.m.S.S.m.m.z.z.m.m.k.k./ Y Y L v i : = - : 2 : : * - - > - j z.l.h.l.}./.~.~.M.! W.H.D.H.Y.Y.E.H.Y.Y.W H.E.H.E.~.~.~.E.E.E.E.^ D.H.H.H.H.H.S.",
":X>X-XR.H I ! / k.) ( { ( { Z.{ Z.Z.C.C.! V.V.S.m.Y Q h.Y P - 1 v l * ; < * 1 N L / k.N.S.S.S.S.S.S.S.S.m.m.m.k.k.n./ Y Y L n i : = = : : : * * * - - - 9 S h.h.A J.^.~.H.M.W W.D.H.E.H.E.E.Y.D.U.W H.H.D.H.~.~.~.~.E.H.E.^ N.D.H.H.H.~.S.",
"-X:X-XQ.H P U / ) ) ( [ ~ [ Z.{ C.{ C.C.! V.V.S.z.7.h.Y Q j 1 1 m 1 * ; 1 1 l H U j.z.m.S.H.S.H.S.S.S.S.S.n.N.k.^ / ^ T Q Y Z i : - * - - : * * * = - h j v Q z.A l./.L.H.N.U A.D.H.H.H.H.E.Y.D.Z.P D.H.D.H.~.~.^.~.E.D.Y./ N.D.D.D.D.L.H.",
"-X:X:XQ.J I T ^ ^ / ) [ ~ ( C.{ { { C.C.! M.V.S.h.Y Z v S h 1 1 x 1 1 1 1 1 x H U ) N.H.L.L.L.L.H.H.H.S.N.^ H x h 2 l l b I H l : - * - - - * * * * - x M k Y J.V ;./.P.H.M.U Z.E.V.V.H.H.D.D.Y.U.J A.D.S.H.~.~.~.~.E.D.U.^ N.D.D.V.D.L.S.",
":X>X:XR.J P L U T ^ ^ W W { ( ( { { { { ^ C.V.S.Y S k S M 2 1 x h 1 1 1 : : x x l x x H / S.~.~.~.L.L.m.L l 2 2 2 2 2 l h h h h : - - * - - - * # # % / M k h.^.D A J.P.S.k.! A.A.V.A.H.H.D.A.Y.U.J V.S.S.H.~.~.~.L.E.Y.Y.^ N.D.N.S.S.L.H.",
":X>X>XoXH L U U U ^ U I J ^ ( ! ( ` ` { W C.V.N.Y v v v h : 1 2 1 1 m m J 2 ; ; 1 1 2 x b ^ ~.~.~.L.L.m.U L U ^ / / ^ ^ L Z v i : - = - = = * * # # x S.S k Q ^.z.A c.J.H.M.~ Z.M.V.D.E.H.D.A.A.{ J A.D.H.H.~.~.~.L.H.Y.E.^ N.D.A.D.S.~.H.",
":X>X>XoXJ P U L U T U U H P ! ( ( ( ) ) I C.A.S.Y v v x _ T.Q.:XR.:XaXzXzX8XoXW I ! ! ^ / / m.~.~.L.S.m.Y / T L S B v c c n H c h - * - : * * * O * U z.Y Z z.^./.7.c.P.J./ ! C.M.N.V.D.D.D.A.A.C.P A.S.S.H.~.L.~.~.E.A.U.U C.V.N.S.S.~.H.",
":X>X>XQ.H H L U L U K U P I W ( ( ( ^ ( U { C.n.Y k > m 6XPXIXKXKXPXKXKXKXJXKXzXyXOXI x H U ^ S.L.S.S./ K U S b h : ; : : : l c h - = # = : * * X = Q Q S Z z./.P.9.c.P.^.k.^ U.C.V.V.N.D.V.V.D.A.L A.S.S.S.H.S.H.H.D.A.U.U N.D.D.S.H.S.S.",
":X>X>X .b H K U L K K I H P U ^ ^ ! ! ^ P ( C.S.T v Q.zXIXUXUXUXUXUXPXJXLXPXPXUXIXAX;XW l l n j.L.S.z.L n B j J J ; O * * * - i a i - * X # * * . - S h.S k z.*X/.l.c./.L.H.) C.N.V.V.N.V.V.V.H.D.P N.V.N.S.S.S.D.V.A.A.A.U N.D.D.A.S.S.D.",
":X>X:X .b H H L L K H P B H L ^ W U ! ^ P ( M.m.k.5XUXGXjXbXHXHXKXKXPXLXPXPXHXSXZXPXPXAX;XE l Y S.S.j.S n n j B B h > h h j a v v j > * X X X X X * M / i i j.^./.J.J.J.L.N./ A.N.S.S.V.V.V.V.S.S.P C.M.n.V.S.D.D.V.A.A.A.L M.D.A.V.D.N.D.",
":X>X>X .b B P L L K H P B H L ^ U U I ! P ( k./ <XSXdXdXjXjXdXdXjXxXBXBXZXPXLXPXHXIXUXUXPXNX} Y S.S.j.L K S K K L U U L Z Z Z H n v i * X X . X # * 2 9 > j Z Y /.^.l.J.L.Q ^ U.B.A.N.N.V.V.V.D.V.H M.N.n.N.V.S.V.V.D.N.A.L ` A.A.N.B.M.D.",
":X>X>X .b B H L L H n H n H H U I I I W W ^ / E.pXiXfXcXCXAXZXkXdXfXjXlXmXSXJXPXLXLXUXUXUXUXCXE.m.S.j.U U L U Y T T T U L L L K H n j - X X X # * = = j j v k S J.^.l.c.}.k.( U.A.V.M.V.V.N.N.D.M.H n.M.M.N.N.S.V.D.D.N.A.I ` M.M.V.M.M.A.",
":X>X>X .b H H K K H n H b b B I P L P U H ^ ) %XcXyXdXlXHXPXJXbXjXrXrXdXdXfXvXBXHXPXJXIXUXUXIXpXL.L.z.T T T T T T T Y Y Y T Y L Z n j : X . # # * * . Q Y - j Y l.7.l.K./.m.^ R.B.' M.N.V.A.N.V.) B n.M.M.N.V.V.D.D.A.N.Z.I ` M.M.M.` M.M.",
":X>X>X .x H H K K H n n b b B P H P P I P ( #XlXcXmXbXJXAXdXfXfXiXuXrXyXyXiXkXBXSXPXPXJXKXIXUXxX~.L.m.j.7.T j.j.j.j.h.j.j.j.T Y L n j > X . # # * * # Q m.- $ Y l.7.9.K./.S.' U.) C.C.N.D.D.N.N./ B M.n.M.M.N.N.N.N.N.M.C.L ) M.M.M.{ M.M.",
":X>X>X .m H N P K H n H b b B H H H I W P XXHXCXmXIXPXAXkXyXrXiXyXiXyXyX5XyXkXkXkXCXJXPXKXKXUXUXrXL.m.j.j.j.j.l.l.l.l.l.l.l.j.h.Y L v : X X * # - - - S.Q i - Z Y Y 9.J./.L.S.M.` C.N.V.M.M.M.M.` b M.) ) M.N.M.M.M.C.M.` H ( M.M.) M.N.k.",
":X>X>X .m N N N b b b B b b H H H H P B ! CXPXfXlXbXBXBXgXiX,XOX,X<XuX5X5XiX4XyXjXdXbXHXKXPXJXIXUXfX+Xj.j.j.z.m.m.l.l.l.l.m.l.j.Q L v : X . * * x h = j.Y v j p V 7.l.J.K./.~.D.N.k.) M.M.) { M.{ b ( ( C.M.M.N.M.M.` ) ) b ^ M.) M.M.M.k.",
":X>X>X .x N b N G b b n b b N N b I E.,XxXLXxXrXpXiXyXiXyX3X1XOXR.` R.5XiXgXyX5XiXiXbXZXSXKXKXDXKXUXIXrXU Z T z.l.l.l.l.l.l.z.j.T L j : X . . = U Y j S Z k 9 p s A 7.c.J.J.S.E.A.C.) k.k.) ` ` ` N ~ ` ` / M.N.) ` ` / ( B ^ ) ) ) N.k.k.",
":X>X>X .x N b H H H b b x x N b b H ,XSXPXZXfXrXrX2X2X2X,X4XzXaX1XC.W Z.OX1X5X1XyXjXxXbXAXAXJXJXSXVXVXDXkX` a Y j.l.l.l.l.l.j.T Y n i * . X X - z.l.v p k v k k V A ;.q.K.J.S.D.M.` ` ) ) ` { [ [ N _ ~ ` ) M.M.M.` ` ) ( N ^ ) ^ / ) ) k.",
">X>X>X .x b N H H H n b x l b b I ,XCXCXlXfXrXeX<X%X%X.X.X1X1XOXW J J N ^ T.,X5XrXlX8XdXBXCXCXNXBXNXjXdXaXyXC.S Y h.z.z.l.j.h.Y n i : * . . * x l.c.Z j i a Z p A A ;.0.`.K.H.M.M.{ ` ) ) ` ` ( ~ m ~ ~ ( ) ) ) ) ` ) ( ( M ^ ( ^ ` ^ ) / ",
":X>X:X .b N b H n H H H b l b N } iXHXJXHXkX2X%X%XXXZ.I ! [ [ E ; < 2 N J ~ } OXyXdX,XjXzXkXzXzXhX8X1X<X9XqX<XL L L Q j.h.T Y n i - = X . . : S 7.;.Z i - k k V 7.D ;.q.`.}.L.A.M.) M.k.k./ / ! ! m ~ ~ ( / ( ( ( ` ` ^ ^ v ! ( ^ ! ! ^ ) ",
":X>X:X .x N N H b b H H N x x W 1XHXUXPXSXbXfXeXXX#X{ H W ~ _ 3 O ; l J W G m G OX3X5XdX6X4X6X8X6XE : j D }./.S S S S Y Y L Z j - - # # # > Z l.7.A D i - i 9 p l.9.8.v.`.*X}.J.M.) n.) n.k.) ) ) N ~ ~ ^ ^ ( ( ( ( ) ) ( b W ( ! W ! ! ^ ",
":X>X:X .x b H H n b n H H l J 5XUXPXAXxXiX5X5XpX%XR.G.I ! ! G x 2 > G W ~ I } T.} ,XyX8X5XOX.X%X,XQ.2 - v ^.qX<XL Z v k n v v i % # # * - j z.K.c.7.8.k - $ 9 9 7.P.b.`.].=X|./.) / k.) n.j.j.k./ m ~ ! ^ ! ( ) ) ^ ^ ^ ` B W ! W W ~ ~ ^ ",
":X>X>X .x b H H B B b H b J yXUXDXgXiXyXyX5X5X5XyXXXG.B.' [ W H J W W ( [ } Q.Q.R.,X2X,X<XR.T.Q.T.%X5XrXjXiX5XkXU.- i i c n k = # * * * * v J.`.`.8.l.9 - $ $ p V /.}.].|.=X X}.N./ k.) j.j.k.j./ b W ! ! ! ^ ) ) ^ ^ ^ ! x E.^ W W W ! ^ ",
":X>X>XR.x b b H H H b b } jXUXAXiX5XjXaXyXyX5X1XOXXXG.B.G.G.} [ [ ( ( Z.T.T.Q.OXR.XXR..XXXR.XXOXR.} R.,X<X<X<XxX5Xi v k n v $ # = = X # v m.}.|.K.J.9.p j $ $ k C J.}.].=X=X=X}.S.k.n./ ) j.k./ T x W W W ! ^ M.) ! ^ ! ! v ^ ( W W W ! ^ ",
":X>X>X .b B B H H H x ( CXIXAXBXkXyXzXVXyXyXyX5X!.G.G.B.R.R.G.Z.Z.} } T.R.R.G.R.XX.XG.G.G.B.R.R.U.B.C.C.A.A.<XpXpXP v j i = % > > # - Z m.}.*XJ.m.l.h.i j $ $ s 9.K.}.'. X X X|.L.z.j./ / / ^ ^ W x W W W U ' ' ! ! ! W ! v J I W W W W ^ ",
":X:X:X .N B H H B I ,XAXIXKXBXxXjXyXBXNXaXaXaX8XQ.Z.A.B.G.G.R.G.G.G.G.R..XR..XG..X.XG.G.B.{ ' Z.[ ! ! L S Q N.W.#Xv i $ % i j i i > S z.^.c.l.h.l.7.Y p - = 9 V c.`.}.`.[.[. X|.P.l.j.Q / ^ ^ ^ ^ x W I I ! ) ^ ! ! ! W ( H J P I W W I ! ",
":X:X:X| N N H B W gXUXJXAXBXBXAXzXjXVXNXaXyXaX1XOXT.G.B.G.G.G.G.G.G.R.R.XX.XR.XXR.XXG.B.} I x J N B b M B P / D.#X#XOXZ.W i - i j v Q J.7.l.l.h.p k Z Q $ i k V :.`.}.].[.[.=X|.K.l.j.k.Q / / ) ^ x I ! ! W ^ / ! ! ! I ^ J J J I I ! W U ",
":X:X:X .b B H b OXPXBXAXJXAXJXJXAXAXAXzXjXaX6XOXZ.Z.B.G.G.G.A.A.G.G.R.R.XX.XR.XXR.R.G.B.Z.~ I I ! ~ ! ^ ` { Z.XXOXQ.OX,XyX,XJ i i / /.l.J.^.Y k 6 6 h.^.p p V V d v.`.]. X[. X|.K.l.j.k.Q / / ) ^ x P I W U ^ / ! ~ W W W l H J I I W W U ",
":X:X:XR.N B H N 5XAXzXVXKXJXKXAXNXJXJXhXgXyXOX{ ! ' ' G.G.G.G.G.G.G.R.R.XXR.R.R.R.G.G.' { F.} ' ' [ { { { { Z.R.J J W W ( %XrX<XU ^./.K.}.l.9 $ 0 0 7.c.V h.7.Y ;.>.`.`.'. X X|.K.J.m./ ) / / k.^ x P I P L ^ ^ ! ~ W W W l J J J J I P L ",
"-X:X:XR.m N B [ aXDXVXKXJXJXKXAXVXAXVXNXjX5XR.! ^ ' ' B.G.G.R.G.G.G.R.R..XR.R.R.G.G.G.' ' B.G.G.' ' ( ( ( ( R.[ G N J P U I ( #Xm.K.}.}.K.D 9 6 d d ;.8.9.J.c.C >.>.b.].'. X|. X}.`.J.m.m.k.Q T / J I P P L ^ ^ W ~ W W W l H J J J J J P ",
"-X:X:X .x N N ~ ;XKXBXVXAXVXkXBXVXAXVXVXiXOXB.' / ' ' G.G.G.R.R.G.G.G.G.R.G.R.G.G.G.R.G.B.{ ' R.G.B.{ { ' G.{ b W ! { ! ^ ~ b j Y }.}.`.x.A 9 6 >.0.0.`.x.b.8.;.q.<.`.].].].|. X|.].`.K.K./.J.m.) M W I L L U ! W W W ~ W h J P J J J J I ",
"-X:X:X .l N H N } VXDXBXBXVXkXkXAXDXVXAX5X,XR.B.' ' B.G.G.B.E.R.G.G.G.G.G.G.G.G.G.G.G.G.B.B.G.B.E.G.G.G.R.R.H H J J W b h : # j h.`.|.K.0.;.- 6 b. X(. Xb.b.b.b.(.(.].(.(.'.].[.[.]. X|.'.'.`.K.J./ ! P L L U ^ W W _ ~ J h H J J J J J I ",
"-X:X-X| l b N N G OXaXJXAXBXBXhXzXAXVXAX6X5X#XR.B.' G.B.B.B.G.G.G.G.R.G.R.G.G.R.R.G.G.G.G.B.G.V.G.G.XXE.W.OXx x h : : * . # - Z A K.`.b.(.c.k p K.|.`.|.|.(.].|.`.].(.w.w.).[._.[._._._._._.[.].}.K.m./ W P ^ ^ P W _ ~ ~ l H J H H J B H ",
"-X:X-X| l N N b b x J R.yXAXDXVXNXVXKXVX2X2X<X#XG.B.G.B.B.B.B.G.G.B.G.G.R.G.G.R.R.G.G.G.G.G.B.E.G.V.G.XXZ.( N > : = * # . # - v A c.K.K.`.(.p j J.8.c.v.`.`.}.}.K. Xw.w.(.)._._._.g.f.f.f.f.f._._.|.}.l./ U U T I W _ ~ J h N H H H P P I ",
"-X:X-X| l N H x x x x h H OXBXLXKXJXJXaX,X5X5X%XXXE.B.G.G.A.B.B.B.B.G.G.G.B.G.G.G.G.G.G.G.G.B.' XXG.B.~ b m : * # # . X # & i p V 8.x.v.b.`.k k K.;.;.:.q.}.`.c.`.|.<.0.b.).[.[._.f.f.f.f.f.d.d.f._.|.}.l.Y N.U P H I ~ I h B B B B P I W ",
"oX:X-X| l N b x x x x m l x ~ 1XPXUXjXT.OX5X1X%X#XG.G.G.G.G.B.B.B.B.B.B.G.B.G.G.G.G.G.G.V.G.B.^ ' G.' ! x : * # . . # # # % $ V D ;.8.K.`.c.9 Q K.;.d @.q.`.v.`.|.v.>.x.<.).[.[._.f.f.f.f.f.d.f.f.f._.).`.c.l.j.I B H I J h M S B B P P L ",
"oX:X-X| x N b x x l x x l x h 2 { 5X` H E.1X2X%XXXE.E.G.G.A.B.G.B.B.' B.B.' ' G.B.B.G.G.B.n.^ ' B.B.G.{ J 2 * # * # X # % % i V A ;.c.K.(.8.D }.K.@.C @.q.x.q.b.(.>.v.x.:.].).[._.f.f.f.d.f.f.g.f.s.f.f._.{.b.l.j.P H I P i B n n b P P U ",
"oX-X-X| x N b b x l x x h l x l h i x B C.#X%X<XXXXXE.G.B.B.G.V.V.B.B.B.B.' ' B.B.B.G.B.' ' ' ' ' B.R.R.[ 2 * * X X . # % $ V A 7.9.c.(.0.b.`.|.c.;.:.x.q.<.q.b.q.q.c.8.>.`.)._._.s.f.f.g.g.s.s.f.f.f.f.g.f._.`.l.T L U H i v n v v L L I ",
"oX-X:X| l b x x x l x x h l l l x j v P Q m.~.2X%XXXG.G.B.B.B.B.' B.) M.' T K U ^ ' B.B.B.B.B.B.B.G.XXOXOX[ ; # . X # = - 9 V C A l.b.c.d (.[.].}.c.}.K.:.>.x.b.8.8.v.:.>.(.[._._.f.f.f.f.a.s.f.p.,.=.,.p.s.d._.`.S.T W J i v n v v P P P ",
"oX-X:X| l b x l x x b x l x l h x v B L 9.9.~.eX,XXXE.G.B.B.' ' ' ' ' B.B.' ( ( K K ^ ' B.B.G.G.H.XX%X5X5XR.> # X # * - p p 0 0 s ;.7.p ;.e.e.].}.}.}.8.8.>.b.b.8.:.q.:.>.<.[._._.f.g.f.a.p.-...o.u o.%...-.u.d.s.].m./ P i b b v b H P I ",
"oX-X-X] 2 b x l l h x x l l h h x b S j.9.9./.rX<X%XXXE.G.B.B.' ' ' ' G.R.' R.R.G.^ T ' B.G.G.G.H.+X%X2X1XQ.l # # * # $ p 0 7 0 s V V s q.6.e.e.).(.>.8.>.8.`.b.c.x.<.8.>.<.)._.s.f.p.p.,...w q w t %.%.=.6.a.d.s.).}.S./ B B M M N P I P ",
"oX-X-X] 2 x l x l l x l h l h l l x Y l.9.;.#XrX1X%XXXXXE.V.V.B.B.' B.XX#XB.G.XXXXE.B.G.G.G.G.H.XX+X%X2X1XOXH * * : # $ p 0 7 0 V V y <.e.e.e.e.).@.C h.;.x.}.v.c.c.:.:.<.,.)._.f.p.=.o.q q w $.-.y.a.a.s.d.d.d.d.a.).P.j.M J H B J W I P ",
"oX-X-X] > x l l l l l l l l x l l S Y 7.7.L.eX<X<XE.XXXXE.E.G.V.B.' ' XX%XW.B.R.XXXXG.G.G.G.H.XXXXXX%X2X5X,X( 2 * = - i s 0 7 0 A Q C 0.).e.r.r.w.y 7.;.A K.}.K.J.K.x.q.v.<.(._.).o.r t =.p.a.d.d.d.d.d.d.f.f.d.d.y.6.K.S.B J H J J ~ J P ",
"oX-X-X_ h x l l l x l h l x x h v Y 7.;.l.qX9X$X$XV.n.M.B.E.E.G.B.B./ E.<XXXG.E.XXXXG.G.H.E.XXXXXX+X<X2X2X,XZ.h * = % p p s s s Y Z C `.[.].[.[.q.C ;.8.x.*X|.K.K.}.q.`.b.<.).).<.O.=.a.d.d.d.d.d.d.d.d.f.f.d.d.a.p.,.x.J.h.B N J J ~ I P ",
"oX-X-X_ l l l l l l l h l x x b K D 7.;.L.qX&X*X$XL.n.L v L M.B.) ' ' V.XXXXXX#XXXXXG.G.G.G.H.XX+X#X2X5X2X,XR.b = * $ Z s s s p 0 s ;.`.|. X=X X(.;.;.7.K.=X|.`.|.K.b. Xb.<.(.(.p.s.s.d.d.d.d.i.d.d.d.f.f.d.d.y.3.-.-.q.9.7.L b H W I I I ",
"oXoX-X_ 2 x l l h h h h l x N L D 7.;.7.*X&X*X&X@X@XL.S.T H U B.B.n.n.B.E.E.G.XXXXH.G.G.G.G.H.XXXX#X2XeXyXyX,X( > # i p s s 0 V V ;.s :.`.|.`.|.].w.q.:.(.=X|.'.].v.|. Xb.x.).).p.g.s.d.d.d.d.d.d.d.d.f.f.a.-.=.%.$.=.q.7.Y S N H J J J I ",
"oXoX-X_ 2 x l l h i x x x h J L 7.;.9.*X9X*X&X$X@X@XL.S.n.Y ^ Z.G.B.G.B.B.G.B.B.G.G.E.H.G.G.G.XXXX#X2XeXrXrX5XT.j % i 9 s p 7 D D ;.s s q.q.<.0.(.e.(.v.(.[.[.].(.`. X].x.x.)._.a.s.d.d.i.d.d.d.d.f.f.s.y.&...%.O.&.3.<.;.D L N H H N J H ",
"oXoXoX_ 2 x l l h i l x x b L Y ;.8.9X9X9X9X*X*X*X$X@XS.n.T U +XXXXXG.V.G.G.G.G.G.XXXXXXXXXXXXXXXX#X<XeXeXeX2X#XU i 9 i p s s 7.D s s s @.@.@.:.,.[.w.w.).[.'.w.).[.].b.C <.)._.s.s.a.a.d.d.d.d.d.d.y.&...t ..X.&.3.y.,.8.A U x N N N N N ",
"oXoX-X_ 2 l l h h h h x b L l.8.>.J.9X9XqXqXwXwXtXwXwX$Xm.j.K / #X#X#XE.XXXXXXXXXXXXG.G.+XXXXX+X+X%X<X2X2X2X%X#X) n - 9 p p s f 0 s C C @.d u u >.[.(.0.r.r.(.>.).[.`.@.C <.).).p.p.s.f.f.f.d.s.4.-.X.t w O.=.-.4.4.4.6.C ;.L v m N b x x ",
"oXoX-X] 2 x l h l h h h n h.c.q.8.$XqXqXtXwXwXtXtXnXtXwX$Xn.T n B.#X+X+X#X<X%X%X%XXXXXV.G.XXXXXX+X&X2XeX2X2X2X%XR.L i i 0 s s 0 7 f ;.<.@.d u e #.'.'.(.r.r.w.;.].[.q.C <.<.(.).s.s.d.d.f.a.1.+.X.%.w ..$.-.3.4.4.3.1.6.u A Y M m x b x x ",
"oXoX-X] 2 x l l h h l j T J.8.q.J.9X9XqXqXwXwXwX*X}././.*XL.T n ) #XXX#X#X<X2X<XXX%X+XXXH.H.XX+X#X%X2XeXeXeXrXrXOX( v 9 0 s 0 7 7 ;.K.c.;.8.C u w.[.|.].r.e.<.q.[.].;.:.x.v.]._.f.d.s.a.y.3.+...%.O.X.&.3.3.4.4.4.3.1.-.C V S h x N N N b ",
"oXoXoX] 2 l l x l h x Z c.q.q.q./.9X*X9X9X9XP.l.P.*XwX9X/.m.L a ) XXXX+X#X%X2X2X%X%X#X#XXX+XE.XX%X&X2XrXrXrXeXpXuXC.c 6 p V s s A b.|.K.c.8.d >.(.[. X'.[.w.8.(.[.'.q.>.<.`.].).s.a.a.4.*.*.*.*.-.*.*.4.4.y.a.3.4.4.y.3.C Z S ) x b x x b ",
"oXoX;X] > x l x j j v 9.v.<.q.8.$X*X$X*X@X7.l.*XwXwXtXtXtX$Xa a T G.E.+X#X%X<X<X<X2X2X<X%X%XXXE.%X2X2XrXpX<X#XeXpX<XM 9 V s V ;.q.e.e.'.0.:.>.b.(. X].'.[.w.l.(.[.].0.<.w.).x.>.).-.a.s.a.a.4.4.4.1.2.4.4.a.u.u.a.3.4.y.C p Z P j x b x b ",
"oXoXoX~ h b x x x n 7.K.0.q.:.c.*X@X$XH.Z J.*X*X*X=XwXwXwXtXT k L n.H.+X+X%X<X2X5XyXeXrXeX%X%X+X&X2XeXrXfXeX#X2XeXuX/ v p V 7.q.w.#.w.#.q.b.(.(.'. X`.`. Xb.8.b.[.[.w.(.b.:.@.@.w...=.a.f.f.s.a.u.u.5.4.4.a.u.u.u.*.*.a.:.v v h j x x b b ",
"oXoXoX_ h x x l j Y K.b.x.<.,.`.$X@XS.Z S.*X*X*X*X*XwXwXwXtX~.a I ) D.H.#X<X2XrXfXfX4XiXrX5XeX2X2X2XrXrXpXfXrX2X<XpX%Xi V 7.0.e.#.#.#.#.q.b.'.'.=X}.8.K.|.b.x.v.).[.b.0.q.;.C @.q.o.o.O.-.s.d.d.d.i.u.u.5.5.u.u.u.3.+.y.:.B x h h x x x x ",
"oXoXoX] h b v v Y c.(.b.<.6.6.`.#XH.Y T ~.@X@X*X*X*X=XwXwXtXwXU K ' V.H.+X<XrXfXlXdXlXfXdXfXfXpXrXeXrXrXrXfXfXrX<X2XeXM.h.>.].e.e.e.#.>.;.=X].|.|.c.:.K.|.(.c.q.e.'.(.x.8.C C :.x.%.u t w 6.d.d.d.d.d.d.u.u.d.d.d.a.&.*.<.i x h 2 l x l l ",
"oXoX:X] h x x S x.b.(.).6.3.6.K.&Xm.Q j.L.L.@X*X*X*X=XwXwXwXtX$XK n.V.H.+X2XfXlXkXbXlXlXlXcXlXfXpXpX2X2XrXpXrXrX2X<X9X$X7.b.=Xe.].w.q.7.x.'.].'.K.8.;.x.`.(.x.;.(.].`.b.b.C u @.v.o.w ..=.6.4.a.d.d.d.d.d.d.d.d.d.d.u.*.,.9 v j 2 x x l l ",
" .Q.oX~ : l B 7.8.`.w.).-.p.6.v.m.h.Z n.H.L.@X@X*X*X=XwXwXtXtXtXH.^ H.+X2XyXjXcXmXmXlXmXbXCXjXfXlXjXrX2XrXrXeXeXeX2X#Xj.A K.].'.|.x.x.;.>.(.(.0.b.;.@.q.b.b.q.8.(.'.|.`.}.<.@.,.).p.a.d.s.4.1.4.a.u.d.d.d.d.d.d.d.d.d.*.,.k h x h x x x l ",
" . . .] _ [ / l.(.v.v.p.6.<.x.J.Z Z n ) V.S.L.@X*X*X=XwXwXwXtXtXwXD.XXqXfXcXZXZXmXlXmXlXCXxXfXjXfXCXpX2XeXrXeX2XqX%XD.j.A q.<.w.(.x.8.;.>.q.q.>.8.C d @.q.(.b.v.|.`.|.`.|.x.%.,.).p.3.-.&.X...%.=.*.4.u.u.u.4.4.a.d.s.1.-.Z > h i h l x l ",
"Q.oXQ.Q.Q.Y.l.].).(.p.p.p.q.qXuX9 M v U N.S.L./.*X*X*X=XwXwXtXtXtXtXrXfXcXZXHXHXmXlXyXlXxXxXxXpXfXcXfXpXrXeXeX2X&X#X~.T A q.@.>.>.8.l.;.@.>.>.@.;.y u d >.(.(.`.`.(.|.`.|.x.@.>.v.u q q r q u u t ....1.u.1.*.*.-.s.a.y.3.V > h h h l x x ",
"%XOXoX| } Q b._.).6.6.).w.J.nXpXQ i K Z n.N.S.L.@X*X*X=X=XwXtXtXtXtXfXSXZXCXSXZXmXfXdXlXjXxXxXeXlXlXyXrXpXeXeX2X%X#X~.Y A >.d @.d 7.;.d d @.@.@.C s y u @.b.(.`.v.b.].'.].x.:.x.q.q 5 5 r u r q q u r X.y.y.-.&.X.y.a.a.a.C : h : > > h h ",
"_ _ ] _ W h.).p.4.3.<.w.q.$XnX<XS.U P L k.N.S.L.@X@X*X*X=XwXtXtXtXtXpXmXCXSXSXlXlXfXlXlXlXbXpXeXlXxXpXrXrXeX<X<X%X#XE.Z f ;.d d s ;.d d y d d C s C d y >.w.(.w.0.w.w.).|.x.>.q.<.r 5 r 5 r u q q q q q &.y.*.&.X.3.a.y.s.x.C.~ }  .| } ] ",
"R R E E Q h.).6.2.6.0.q.q.^.eX$X~.<XC.Q N.n.m.H.L.@X*X*X=X=XwXtXnXlXbXCXdXmXSXlXcXmXCXmXxXmXjXpXpXjXpXeXeX2X2X<X#XXXE.Z f ;.e y s A f s e e u d ;.A s s @.<.b.v.x.>.#.'.|.<.>.>.@.u u r q q u q q q q q ..3.*.*.X.&.a.4.a.{.3X:X4X8X8X7X4X",
"o O < j V 8.,.6.a.e.v.b.:.^.pXrXeX5X,Xn.S.N.m.m.J.L.@X*X*XwXnXfXiXVXIXIXxXpXlXmXmXSXZXbXxXbXjXxXlXlXjXuX2X<X&X&X#X#XE.Z A ;.e 0 s V s y y e e y ;.A y 7 d >.x.q.q.@.#.].].>.>.>.,.%.X.X...o...w ..X.X.X.X.*.*.*.&.X.p.a.a.{.7X3X3X3X3X3X>X",
"3 3 m v ;.(.,.,.).b.q.q.c.lXAXxXyX5X2XXXS.D.m.m.J./.@X*XwXfX5X8XAXPXPXPXVX5XfXmXxXSXSXZXbXbXjXZXSXxXxXpXeX&X&X<X%X#XW.Y V ;.7 y s s 0 y s e e e ;.s s 4 y ;.>.:.<.o.<.(.b.>.,.,.6.6.4.4.3.3.*.1.1.4.4.3.&.*.&.&.-.X.-.s.4.s.eX8X7X8X8X8X8X",
"< 3 R V v.x.<.(.w.(.(.*XmXLXSXkXrX2X5X<XE.S.S.m.m.L.$XrXrX%XyXAXDXKXPXPXAXyX2XrXxXCXxXBXBXBXxXPXSXCXZXxXuXeX$X$X&X<X$Xz.A ;.7 s s s p s s e e e d s 6 0 y d @.@.@.r >.q.q.>.,.,.p.p.4.4.4.4.4.4.1.1.*.&.X.*.&.&.&.X.&.s.5.p.1X7X3X3X3X3X3X",
"< 3 M h.q.<.v.(.(.0./.SXPXKXCXgX8X5X5X5X+XD.S.S.m.+XrX<X+XyXAXVXDXPXIXIXVXiX<XrXxXkXZXZXmXjXCXDXAXDXPXFXxX5XeX#X#X<X$XN.Y ;.7 s s 0 s 7 y e e 7 u y 4 @ 0 d d d r e d :.x.%.=.,.6.p.1.3.*.*.*.+...........-.-.X.$.$.&.a.d.p.5X3X3X3X3X3X3X",
"3 3 Z x.q.(.b.(.q.^.FXKXJXFXBXjXyX5X5X2X%XH.H.S.+XeX%XXX2XzXNXAXDXAXAXKXIXBX8XiXZXSXbXjXyXjXBXCXSXCXKXJXPXiX%X<X&X&X$XE.Y ;.e y f s 0 6 7 7 e e y y 6 @ 7 y u e q q r u >.%.O.,.,.p.*.*.&.X.X...w w w w w X.-.+.&.&.&.4.a.).7X3X3X3X3X3X3X",
"3 2 h.x.(.b.w.q.~.FXKXAXHXBXxXjXiX5X2X1X%X~.S.#X5X#XE.,XaXhXzXzXNXAXJXIXUXPXjXkXZXxXjXiXjXmXCXCXAXCXSXDXHXPXyX%X<X&X#XW.T ;.s y s s 0 6 4 7 7 y y d 6 4 7 e e r e 5 r u @.<.%.,.p.).-.*.*.&.&.X...w w w w ..-.+.*.*.&.1.a.`.7X7X7X7X7X7X7X",
", M v.(.(.q.q.^.CXFXZXSXCXkXjXiXyX2X1X,XXXE.&X2X#XE.XX5X8XaXgXhXBXVXDXKXIXUXAXjXkXkXiXkXkXxXCXxXCXBXZXJXSXHXZX5X<X<X&XW.j.9.d y V s 7 7 6 7 7 0 s y y 4 0 7 5 5 5 q r r o.<.,.,.).).3.1.*.*.*.3.*.....w w w -.*.*.2.1.1.a.c.:X>X3X3X3X3X3X",
", S ].].q.>.8.9XDXBXCXCXxXkXiXiX5X5X,X%XXX%X2X#XE.G.OX1X7XaXhXNXNXVXDXKXIXIXCXgXiXiXgXgXzXBXxXjXCXCXCXCXSXCXSXjX2X9X<X#Xn.7.;.y V 7 0 7 6 4 7 7 y y s s 5 5 5 4 e r r r @.<.<.%.).p.3.1.*.*.&.&.3.-.X.w w w *.4.1.u.u.5.y.y x N N G J E W ",
"- c.].b.>.;.~.SXCXzXZXxXkXjXiXiX5X2XOX<X<X#XXXE.G.G.!.1X7X8XyXgXNXBXDXDXDXPXAXyX5XyXgXxXVXxXkXkXxXCXxXxXCXCXbXZXuXeX9X%XH.Z D y 0 0 0 7 6 4 4 7 0 y e A y 5 4 4 5 e r u >.<.w.%.).-.3.1.1.1.*.+.+.3.*...w w X.4.u.i.i.i.-.6 k x i - : i i ",
"h.).).w.:.7.nXHXkXCXCXkXjXjXjXyX5X<X<X%XE.G.E.G.B.B.XX1X3X6X8XaXhXNXhXVXPXIXAXiX5XyXzXBXbXzXxXiXkXCXjXjXCXCXxXxXZXrXeX<X~.Y D ;.7 0 s 0 6 6 4 7 7 y e e C y 4 4 5 e r t <.).w.,.).-.-.4.2.1.1.*.X.X.*.+.X...+.5.i.i.i.d.=.6 j > v a i i i ",
"'.].).>.;.pXPXkXBXAXxXjXkXjXjXyX5X,X#XG.G.V.G.G.A.B.U.OX3X4X8XgXgXhXNXVXVXVXJXkX8XyXiXkXBXzXgXiXxXxXjXxXlXjXSXjXlXlXuXeX#Xk.A A V 0 0 6 6 7 4 6 7 y y e y s 6 4 5 r r ..<.).p.p.,.&.-.1.4.1.1.1.+.X.+.*.*.*.2.i.i.i.d.s.u $ j i i a j i i ",
"].(.<.;.qXLXNXBXAXBXjXkXkXkXiXyX2XOXXXE.G.G.B.G.A.B.Z.T.,X6XyXyX8XhXNXNXVXJXAXBXgX4XyXkXkXkXgXkXkXgXjXCXxXjXbXSXlXlXpXeX<XD.k p k V 0 4 6 9 6 6 4 y y 7 y y 4 4 4 y u =.,.[.6.p.=.*.+.+.*.1.*.*.+.+.*.1.2.5.i.i.i.d.d.6.4 6 h i i i i i i ",
").,.>.9XLXCXCXDXBXxXkXxXkXjXyXyX<XOX%XW.E.E.G.B.G.A.Z.} OX5X6X4XhXgXaXNXVXVXAXDXzXyXjXgXjXjXjXjXgXjXkXxXmXlXbXlXfXlXnXpXeX%XS 9 p Z s 6 @ $ @ @ 7 0 y 7 0 y 5 4 7 5 u =.,.[.p.6.3.1.*.+.*.*.*.*.1.1.5.i.i.i.i.i.d.d.a.u @ 6 i > i i i - i ",
",.v.eXLXDXCXJXCXxXxXkXxXjXiXiXyX1X%XW.E.E.E.G.A.A.A.B.R.;XOX:X8X8X6XhXhXhXNXAXDXzXgX8X8XiXiXgXgXgXzXxXbXxXbXZXZXcXlXlXlXfXeXA.$ p p s p @ + $ 6 7 y y 7 4 0 0 4 4 7 e O.=.]._.4.a.u.2.2.2.2.5.u.i.i.i.i.i.i.i.d.d.a.%.4 4 6 i > - i i i i ",
"b.qXPXAXCXFXFXxXkXxXxXkXiXiXiX8X2X<XY.E.+XE.G.G.A.B.} XXQ.T.,X3X3XyXaXhXNXBXBXAXCXzX6X5X5XyX8XgXkXxXBXBXgXSXSXHXSXmXjXlXfXrX<Xv 9 9 p p @ @ 6 9 7 0 y 0 5 5 y 5 7 0 y O.X.v. X3.a.a.d.d.i.i.i.i.i.i.i.i.i.d.d.d.a.-.5 4 4 6 i : - - i i i ",
"0XSXNXjXCXJXCXxXxXxXxXkXyXiXuX5X2X<XG.W.&X+XG.G.A.B.B.} Z.T.OXoX3X8XgXhXhXNXNXAXVXhXaX3X1X,X8XgXjXgXzXxXgXPXHXPXZXGXZXZXmXlXeXE.@ $ 6 p 6 @ 6 6 7 0 0 5 4 4 0 5 0 y e @.%.O.[.).6.6.3.4.u.i.i.i.d.d.d.d.d.u.y.3.&.r 6 6 4 6 i : - i i > - ",
"0XeXpXxXDXAXBXzXxXkXxXkXiXiXrX<X2X,XY.$X@X~.Y.C.G.Z.{ [ [ } } OX3X7X6X8XgXhXNXBXDXVX8X3X1XoX5XyXyXgXBXBXBXPXLXIXJXPXJXPXLXLXmXrXH + - 9 @ @ @ 6 6 0 0 5 4 4 0 5 5 y e @.>.O.6.).,.,.&.*.*.2.4.u.u.4.4.3.&.&.$.t q 6 $ 6 4 4 i > > i > - - ",
"/.pXjXBXAXxXkXiXiXjXjXjXjXiX5X5X<Xh.^.&X~.H.D.A.Z.Z.} { [ [  .;X,X,X6X8XaXhXhXVXCXhXgX8X,XOX5X5X5XaXNXzXBXJXPXIXPXIXJXPXJXPXLXHXrX> + $ @ @ @ 6 4 7 y 5 5 4 5 5 5 y y @.<.,.-.,.e.=.=.%.X.X.$.X.=.$.X.w q w w t y - $ 6 @ 4 i i i : - - = ",
"tXpXuXxXVXkXiX5XyXyXiXiXkXdXuX9XI.z.9X@X~.S.k.U.R.[ [ { [ ' T.Q.R.1X4X6XaXaXzXNXgXBXzX8X1X,X,X,X5XyXgXiXxXJXJXKXKXPXPXPXJXJXHXJXJX2X% + + @ @ 4 4 0 y 5 4 5 e 5 5 y e @.<.,.3.,.,.=.%.$.X...t q o.w w w w q w r 9 9 - 6 @ @ - - : : : : : ",
"qXuXpXkXzXiXrX5XeXrX2XyXBXjX9X{.I.^.&X~.S.k./ U R.!.Z.[ [ { } } T.;X1X8X7XaXhXaXNXVXzXaX4X;X!.OX,X5XyXiXjXAXHXHXKXKXHXJXJXSXZXZXCXJXT.+ @ @ @ 4 6 0 y 5 4 5 e q 5 e u d q.,.3.6.,.,.O.$...w w q t t ..t w q w 0 9 9 - 9 4 @ $ % = : : : : ",
"9XxXgXkXiX5X2X%XrX2X} :X3X>X}.{.I.z.@XS.k.Q L Z L !.R.T.T.R.T.{  .oX1X3X6XyX8XzXhXhXBXzXyX1X!.R.OX5X6XyXgXxXCXDXHXKXAXAXZXCXCXbXZXKXiX: + 4 4 4 0 s y q q r q q q r u u <.w.,.4.-.=.=.$.X.w w q t ..t t q q q 9 - - $ - @ @ $ = = = > : = ",
"nXCXSXCXuX2X2XrXgXOX<X,XQ.-X{.I.I.h.m.z.T K H K n ) T.} } } [ [ Q.OX;X,X6X6XaXaXaXNXNXzXgX5XOXQ.;X5X5X8XiXjXkXZXHXHXSXBXbXxXlXlXbXSXCXQ.@ @ 4 6 0 y e q u r r r q q r u @.w.<.6.6.=.=.&.X.X.w q w ..w w q q r 9 - - = $ @ @ $ = = = : > > ",
"KXJXSXkXiXyXBXDX1XtXpXOX .| I.I.t.7.U U K H H H Z K Q.T.} } [  .R.Q.OX;X4X6X6XyXhXhXzXNXzX8X1XOXOX,X5X8XyXyXkXCXZXCXSXvXcXfXfXmXlXmXlXrXC.@ @ 6 0 7 e u u t r u u r r u @.q.(.6.6.=.=.&.X.=...q q ..t w q q 0 i 9 - % $ @ @ $ = = = : : : ",
"UXIXPXKXVXKXUXeX&XnXOX] _ ~ }.t.:.D Z Z Z H Z Z H n ( OXT.T.R.R.Q.R.oX3X1X1X6XaXaXgXzXNXhXNX5XR.Q.,X5X8XyXiXkXbXxXZXBXbXjXlXlXmXcXlXfXpXeXM.+ 4 7 7 r t w t t t t t t o.o.>.(.).6.&.=.....X.t q q t $...w r 9 > i % $ $ @ @ $ - = = : : : ",
"UXUXUXIXKXKXVX9XqXeX_ E 3 m J.t.C g v c n n H Z Z n n !.Q.R.Q.Q.Q.Q.OXOXOX4X6X6XaXgXhXhXDXaX,XOXQ.,X5XyXiXiXjXjXxXZXgXxXkXZXcXmXcXfXfXfXfXrX/ @ 4 0 u t t t t t t t %.o.o.%.<.].6.=.o...$...w w q t %.$...r = - : = % $ @ @ $ = = = = : : ",
"IXPXKXDXDXAXiX9XqXOX3 3 < 1 v t.V g k v n n Z Z Z Z v [ :XoXOXQ.OXOXoXQ.,X3X3X6XyXaXaXDXaX4XiX<XOX,X4XiXiXiXgXdXkXkXkXbXbXGXZXZXcXfXfXfXlXfXrXS 4 u O.X.......o.w o.o.o.o.o.%.(.).,.o.%.$...w w q q o.w w 0 : = - i - $ @ @ $ - - - = = = ",
"DXAXDXAXNXVXuX$X9X[ < < 3 | m V C 8 g k v n n n n n c H ;XOXOXOXOXOXQ.OX;X;X3X6X6X8XDXyX5XNXgX5XOX;X8XyXiXjXiXdXiXjXCXkXbXmXGXGXZXcXnXlXlXlXpXW.0 t $.&.&.&.&.X...O...O.o.o.%.,.].p.X.$.&...t w q q u t 5 6 = - % : i $ @ @ $ - - = - = = ",
"VXNXBXNXhXhX<XL.$XW 3 E ] :X_ + V 0 8 g k c n n n n n x } ;XOXOXOXOXOXQ.OX,X3X4X4XVX8X1XNXhXjXrX;X1X6XyXyXiXyXgXyXjXkXjXlXbXZXGXGXmXlXfXmXmXlXeXV t =.&.*.*.&.&.X.X.+.X.o...O.,.).).=...$.$...t w q ..u 7 $ - - $ % i $ @ @ $ % = - - = = ",
"hXaXhXyXyXaX%XT N.~ E < X   1 * & g 8 8 i j c c n n v a H ,XOXOXOXOXoXQ.OX;X3X1XhX6X;XhXgXzXhXyX1XyXaXyX5X5XyXiXyXgXdXcXcXbXmXZXGXZXlXfXlXCXmXxXY.q &.*.*.*.*.&.X.*.*.X.O.o.o.=.e.e.=.$.=.$.X...w q ..u 6 $ - > % % i $ @ @ = % = - % % = ",
"yX1X3X6X,X1X#XU K *     X .   1 . 8 g 8 9 i j c c c c c i T.;XOXOXOXOXOXoX;XOX6X6XoXyXyXgXgXjXyX5X5XyX5X1X5XiXgXyXiXkXZXZXCXmXmXGXHXmXfXjXSXCXcXeXC X.*.1.1.*.*.+.*.&.X.O...o.%.e.e.=.X.X.$.X...w q ..t 6 $ % = % % > $ @ $ : : % % = = : ",
";X,XQ.,XOXR.<Xk.Z . X X X O   o 1 . g 8 8 8 - j v n k > # m ,XOXOXOXOXOXOXQ.;X4XT.3X8XyXyXhXaXaX5X1X2X%X,X5XgXgXdXjXlXSXbXZXmXmXGXLXGXjXbXCXlXpXuX7...*.1.1.1.*.+.&.*.+.O.o.o.%.,.).,...X.$.$.$...q ..t $ % % % # # $ $ $ $ : : = % = : > ",
"T.OX} } T.} Q.A.B > . X X X X   ; * . g 8 & - $ - = # # : ; Q.;XOXOXOXOXQ.Q.;XT.OX3X6X8XyXaXyXaXiX1X;XOX1X5XdXgXkXkXcXbXcXGXZXZXZXLXLXbXxXbXjXpXeXh.w &.2.2.1.1.&.*.&.+.O.O.o.O.,.e.,...X.$.$...w q w r $ % % % # # $ $ $ # % = = = % > > ",
"[ U.[ ( [ [ [ G.a v * . X X X X   < O # 9 8 8 8 & # * 1 2 ; E ,XOXOXoXoXQ.OXR.T.OX1X3X6XyXaXyXkXyX;XOXOX1X5XiXjXkXbXlXxXmXHXSXGXGXHXLXZXkXxXfXfX<XD t &.1.2.2.2.*.&.&.+.=...o.%.,.6.,...%.$.$...w w t 5 $ $ $ $ % # $ $ $ # : - = # # : l ",
"[ ( [ ( [ ( ( [ P i l . X X X X . X <   . & 8 - * * : 2 1 : : OXOXOXOXOXOXQ.T.R.!.;X1X4X4X4XyXiX;X1XOXOX,X5XiXjXjXxXkXlXmXSXSXHXPXPXGXSXcXjXfXfX<XC ..X.1.2.2.2.1.-.*.*.+.O.O.O.,.e.,.=.=.X.....w t t 6 % $ % % % # $ $ $ # : = : * * x > ",
"T.( ( [ [ [ ( [ { % i :   X X X X   * O         O 1 2 1 1 ; * _ ;XOXOXOXOXR.T.T.Q.OX,X3X3X4XgX,X3X,XOXOXR.5XgXiXjXjXkXkXxXZXHXPXUXPXHXZXcXjXpXpX<Xu ..&.1.2.2.5.2.6.3.+.&.$.O.O.=.e.,.-.-.&...$.....r 6 % i - - % % $ $ % # : = : > x m * ",
"Z.} [ [ [ ( ( ( [ H % : * . . . X O X X       O < 3 1 < ; < ; 1 OXOXOXOXQ.Q.T.T.R.Q.;X,X1X8X3X4X5XOXOXR.U.5XjXyXjXdXdXjXxXCXPXLXPXJXHXHXmXjXfXpX<Xr $.*.1.2.2.5.5.5.5.1.+.X...O.=.w.,.3.3.*.&.*.&.t 5 $ % i i % = % $ $ % % = : : 2 2 * o ",
"m } } [ [ [ [ ' ' [ G : : . X * * * O O O o < < < 2 1 < ; ; ; * ~ ;X!.!.Q.Q.R.T.T.R.Q.OX1X1X1XyX,X,XOXZ.R.5XyX8XjXiXyXjXxXbXHXPXJXLXJXSXZXjXfXfXrX:.+.1.1.2.5.5.5.5.5.u.1.X.O.O.%.<.6.y.4.1.3.1.-.w 5 % % % % = = % $ $ $ & = = 2 l ; o o ",
"o G } } [ [ [ [ [ [ [ I x > > ; ; < < < < < < < < < < < < < < ; : Q.OXQ.Q.Q.Q.T.T.T.U.R.;XOX3X3X3X,XT.T.T.1X3X3XaXyXyXkXxXxXZXPXJXJXLXZXZXlXfXfXpXv.*.2.5.2.5.5.5.5.5.5.5.*.%.O.,.,.-.4.4.4.4.4.=.q 6 % % % % % = % % $ % % > l 2 * o o o ",
"o o G } } [ [ [ [ [ [ [ ( ! G 2 3 3 3 < < < < < < < < < < < ; 1 * E ;XR.Q.Q.Q.T.T.} } T.Q.OX,X,X1XOXR.T.T.OXOXOX8X8XiXfXfXxXCXHXLXHXHXZXHXlXlXlXfXK.1.2.2.2.2.5.5.5.2.5.2.-.O.O.,.=.6.4.4.u.u.4.t 5 6 % % % % - % % % % % # > 2 * o o o o ",
"o o o G Z.Z.[ [ [ [ ( J x x x G G 3 3 < < 3 < < < < < O O ; ; ; * # T.OXQ.Q.R.T.T.} } } T.R.oXOXOXOXQ.T.Z.T.} T.5X5XrXiXfXkXbXZXPXHXCXZXLXmXlXlXnX0X3.5.2.2.2.5.4.2.*.6.&...o.o.>.=.3.4.4.u.u.=.q 5 % % % % = > = % % % % > 2 * o o o o o ",
"o o o o m } T.[ [ ! b > > x J J G 3 3 3 < 3 < < < < o X O ; * + + + x OXR.R.Q.T.T.U.Z.{ { } T.OXXXOXQ.T.} [ { [ OX5X5XfXjXkXZXCXHXHXmXZXHXGXmXnXlXnXp.2.5.5.2.4.2.2.&.=.O...o.O.>.=.3.y.u.u.3.u q 4 * = % % = > = % % : l : * o o o o o o ",
"o o o o o 3 } } J x x H G I ~ J G 3 3 3 3 3 < ; < < o   * * + + + @ + } OXR.R.T.T.T.} } [ } U.T.R.Q.Q.Z.{ [ ' ( T.1X5XdXjXlXZXSXZXSXSXZXHXSXmXmXmXnX{.2.5.2.2.4.2.1.*.%.t o.o.@.@.=.4.a.u.y.%.q q @ # = * % = : = % : h > * o o o o o o o ",
"o o o o o o ; N I I I H J I ~ J G 3 F 3 3 3 < ; < < o   * + + + + @ + - Q.R.T.T.T.} } } [ [ } } T.R.T.Z.{ [ [ ( } ,XyXgXxXjXZXHXSXHXHXGXHXSXSXZXSXmX0X3.5.2.2.4.4.1.*.=.....o.@.%.-.u.a.y.-.w q 5 # # = * * = : : > l : O o o o o o o o o ",
"o o o o o o o ; J ' ^ I ! ~ E J G 3 F F 3 3 < < < < < X * + + + @ @ + + W OXT.T.U.} } } [ [ [ } Z.T.U.Z.{ [ [ [ ( XXiXvXmXlXZXHXGXJXLXLXPXHXGXSXGXGXnX`.3.2.2.2.1.1.*.-.,.@.@.@.=.3.a.y.3...q q 5 # # = * = = = h h = O o o o o o o o o o ",
"o o o o o o o o o G ' ' [ } E J G F F F 3 3 3 3 < < < O # + + @ @ + @ + + T.R.U.U.} } } [ [ [ [ } } U.} { [ [ [ ~ Q.kXzXBXcXCXGXHXHXUXPXKXLXHXHXZXGXGXqX;.%.*.2.2.1.*.3.6.>.@.o.=.-.3.=.$.q q q 0 # % % * * : l l * o o o o o o o o o o o ",
"o o o o o o o o o o 3 ' OX .E E G F F 3 3 3 < < < 3 < O + + @ @ @ @ @ @ + x Q.} } } } } } [ [ [ } { } { } [ [ [ ~ OXzXzXbXxXSXSXPXPXPXIXJXHXHXHXHXSXHXmXZ.L A =.2.2.1.3.,.>.:.O.X.=.$...t q q q r # # % * > x > * o o o o o o o o o o o o ",
"o o o o o o o o o o o < Q.| _ E G G F F F F 3 < 1 2 1 . + @ @ @ @ @ @ @ @ + ( Q.} } } } } } [ [ [ [ [ [ [ [ [ [ ( OXgXbXxXCXSXSXPXJXJXJXHXHXSXSXHXJXFXFX2XL U D %.-.p.6.@.>.%...=.%.t t q q q w u # # = 2 l : O o o o o o o o o o o o o o "
};
