/* XPM */
static char *d85ce2f2230e4fd795c79928be4c0517ndapN4y7Zp8Em5hl[] = {
/* columns rows colors chars-per-pixel */
"117 126 254 2 ",
"   c #070408",
".  c #120A0E",
"X  c #170C14",
"o  c #161717",
"O  c #1A161B",
"+  c #240E0F",
"@  c #281618",
"#  c #2D1A1C",
"$  c #341C1D",
"%  c #381B1C",
"&  c #27211E",
"*  c #3C211E",
"=  c #0F192E",
"-  c #1A1924",
";  c #291C24",
":  c #361E23",
">  c #0E2B34",
",  c #2B2229",
"<  c #3C2224",
"1  c #34242B",
"2  c #382428",
"3  c #292836",
"4  c #382936",
"5  c #3C2B34",
"6  c #2D3639",
"7  c #3B3239",
"8  c #42251D",
"9  c #461E20",
"0  c #432424",
"q  c #472828",
"w  c #452A2C",
"e  c #4B2C2B",
"r  c #522D2B",
"t  c #4D312C",
"y  c #53322D",
"u  c #5A362B",
"i  c #442C35",
"p  c #4C2D32",
"a  c #522E34",
"s  c #493339",
"d  c #533333",
"f  c #5A3534",
"g  c #54343A",
"h  c #593838",
"j  c #5C3A3B",
"k  c #65392E",
"l  c #623C35",
"z  c #623D3C",
"x  c #1B4233",
"c  c #57433A",
"v  c #67433B",
"b  c #704A36",
"n  c #183446",
"m  c #1A2956",
"M  c #2F354E",
"N  c #383647",
"B  c #2A386B",
"V  c #483846",
"C  c #473A4F",
"Z  c #553B46",
"A  c #5C3B42",
"S  c #623D43",
"D  c #154A51",
"F  c #2F4856",
"G  c #384666",
"H  c #31536E",
"J  c #374A77",
"K  c #0B6469",
"L  c #316972",
"P  c #3A6877",
"I  c #59434A",
"U  c #484457",
"Y  c #584757",
"T  c #4D5052",
"R  c #644243",
"E  c #6A4544",
"W  c #6A4849",
"Q  c #734C49",
"!  c #77534A",
"~  c #684A55",
"^  c #724F51",
"/  c #6B5558",
"(  c #785757",
")  c #72655A",
"_  c #50536A",
"`  c #475878",
"'  c #675665",
"]  c #68586E",
"[  c #775C65",
"{  c #4E6B75",
"}  c #796469",
"|  c #796877",
" . c #6C7076",
".. c #8F5550",
"X. c #835B57",
"o. c #A34754",
"O. c #87655B",
"+. c #966758",
"@. c #A25962",
"#. c #876767",
"$. c #956B66",
"%. c #98746B",
"&. c #866A73",
"*. c #8B7374",
"=. c #987876",
"-. c #A77568",
";. c #A67B75",
":. c #B07170",
">. c #77837C",
",. c #928977",
"<. c #A8837A",
"1. c #B5867B",
"2. c #A99678",
"3. c #B9AE74",
"4. c #3C5586",
"5. c #3A5189",
"6. c #387289",
"7. c #475B87",
"8. c #4B5B8B",
"9. c #605F80",
"0. c #4A6688",
"q. c #566788",
"w. c #477587",
"e. c #53788E",
"r. c #496798",
"t. c #546B98",
"y. c #59739A",
"u. c #687B88",
"i. c #727388",
"p. c #66789B",
"a. c #4D70A5",
"s. c #5677A7",
"d. c #5C7CAB",
"f. c #597CB3",
"g. c #647DA8",
"h. c #647EB1",
"j. c #8D7A88",
"k. c #B47385",
"l. c #C9738C",
"z. c #3C8B9B",
"x. c #508690",
"c. c #5A8896",
"v. c #6B8389",
"b. c #73848A",
"n. c #678896",
"m. c #778796",
"M. c #6F9499",
"N. c #5886AC",
"B. c #5C83B5",
"V. c #5C86B9",
"C. c #6985AA",
"Z. c #7689A9",
"A. c #7193AE",
"S. c #6383B3",
"D. c #638BBC",
"F. c #6989B9",
"G. c #7895B8",
"H. c #79A7AF",
"J. c #668DC2",
"K. c #6B93C4",
"L. c #6894C7",
"P. c #6C9BCB",
"I. c #7597C7",
"U. c #7095CA",
"Y. c #739BCC",
"T. c #769ED2",
"R. c #6DA0D2",
"E. c #74A3D2",
"W. c #7BA4D5",
"Q. c #77ABD1",
"!. c #7AA9D8",
"~. c #8F8D8D",
"^. c #968997",
"/. c #A98987",
"(. c #B68B84",
"). c #B9948A",
"_. c #A88E93",
"`. c #A99798",
"'. c #B79997",
"]. c #97A598",
"[. c #A6A899",
"{. c #B5AA92",
"}. c #B8B697",
"|. c #8C95AD",
" X c #A999A8",
".X c #B89BA4",
"XX c #8FABB3",
"oX c #AAADAF",
"OX c #BCA5A6",
"+X c #B6BAA8",
"@X c #B8BAB5",
"#X c #C5918B",
"$X c #C49C95",
"%X c #C7A39A",
"&X c #C5BB97",
"*X c #D1B091",
"=X c #E2AD95",
"-X c #E6B49B",
";X c #D294AC",
":X c #C7A9A9",
">X c #D4ABA9",
",X c #CFB2AE",
"<X c #D5B2AC",
"1X c #C5ACB2",
"2X c #C9B3B7",
"3X c #D7B6B7",
"4X c #DDBABC",
"5X c #E7B9A4",
"6X c #E4B9B7",
"7X c #BDC19F",
"8X c #AFC2B4",
"9X c #BBC4B9",
"0X c #CEC396",
"qX c #CAC39A",
"wX c #C8C7A8",
"eX c #C6C9B8",
"rX c #D1CEB3",
"tX c #D5D6BB",
"yX c #EBC9B0",
"uX c #EEDAB2",
"iX c #839CCB",
"pX c #87A5C9",
"aX c #96B0CF",
"sX c #84A9D9",
"dX c #85B5DD",
"fX c #ADB8C9",
"gX c #8EB4E6",
"hX c #88B8E5",
"jX c #DD9FC1",
"kX c #D8BCC3",
"lX c #D9B3CC",
"zX c #E2BDC2",
"xX c #E6B1D2",
"cX c #BAC8C7",
"vX c #B3C9CF",
"bX c #95C7EB",
"nX c #91C8EB",
"mX c #98CAF3",
"MX c #A8CEEF",
"NX c #A6D9F1",
"BX c #C9CFCD",
"VX c #DBC2C8",
"CX c #CCD5C5",
"ZX c #D4DAC4",
"AX c #D6DAC6",
"SX c #C8D6DA",
"DX c #E6C4C9",
"FX c #EACCD4",
"GX c #D6E4D8",
"HX c #ECEAD6",
"JX c #CBDAE4",
"KX c #D2DDE5",
"LX c #D5E9E9",
"PX c #E9E5E7",
/* pixels */
"o o o o o o o s %XyXyX-X5X-X3.2.3.3.3.3.3.*X*X&X&X0X0X0XqXqX0XqX}.} c T >.8XXXXXH.H.H.].ZXtXtXZXAXAXAXHXHXtX0X3.rX&X&X/.OX*.| j.j.Y U  .] ] N U j.`.OXj.| ^.' ] U U 3 _ U N N M U M M N N U N N 3 N N M N U N U  ._ C , o o o o o o o o o ",
"o o o o o o ~ 5X5X5XyX5X-XyXyX*X&X{.&X&X0X&X&X0X0XqX0X0XqXqXqX} ) c T { XXH.H.H.XXH.c.+XAXtXAXAXAXAXAXPXHXrX3.0XwX&X{.'._.| *.j.Y V ' ] | Y C |  XOXOX| j.i.] ] Y N C _ N N M U C M 3 C U U M N 3 3 N M M U N _ i. .C C 3 o o o o o o o o ",
"o o o o o ) 5X5X5X5X5X5X-XuXuX0X&X&X&X0X3.&X&X&X0X0X0X0X&X}.~.I c T F e.H.H.XXXXH.A.M.tXtXAXAXAXAXtXHXPXAX0X3.rXwX&X2.OX#.*.~.Y N Y j.] | V ] _..X1X Xj.^.| ] Y U N _ U N N C _ U M N Y Y C M N 3 3 N N M C U _ j.j._ N N 6 o o o o o o o ",
"o o o o *.yX5XyXyXyXyX-XyXuXqX,.2.0X0X}.6  .M.c.M.].].].~.b.b.,.c 7 T A.M.v.{ T { n.oXAXtXAXAXAXAXAXPXGXtX3.&XrXqX2.{.,.&.~.} 4 U | | | Y Z ^..XOX1X_.j.^.| ] Y C Y _ U C N Y _ U N N Y U N N N 3 - N N N N C ' ^.^.j.V N N U o o o o o o ",
"o o o *.5X-X5X5XyXyXyX-XuXwX,.O.{.0XrX,.> F H H L L 6.x.x.x.]. .7 ) 8X{ F { u.~.XXM.eXtXtXZXZXAXAXGXPXAXwX3.0XwX{.2.).#.*.&.5 V ' j.} | I &..X.XOXOXj.^.^.| ] Y C ' U N C U ' ' U N U Y U N N N , - N C M C N ]  X X X' N 3 T V o o o o o ",
"o o =.5X5X5X5X-X-X5X-XyXHXrX,.,.qXwX0XT > H {  . .{ { L x.L +X) c ].XX{ b.b.v.u.n.XXAXtXZXZXAXtXAXPXLXtX0X}.rXwX2.2.*.*.=.Z 7 Y | &.} [ } _..XOX1X.Xj. Xj.| ' C ' ' C U U ' ' ' C N Y Y C N N U ; ; 3 U N N N | .XOX.Xj.V 4 4 ~ 7 o o o o ",
"o *.<X5X5X5X5XyX5X-X-XyXHXwX2.{.}.&X,.> D L  .b.i.b.b.n.L v.}.) ~.cXn.{ i. .v.v._ 9XtXZXAXAXAXtXAXPXGXrX&XqXrX&X2.<.) /./ 7 s ' &.} [ } j.`..X:X1X_.j. Xj.| Y Y ] ' U Y Y ] ] ' N N Y U C N C N ; 3 3 C N N N | .XOXOX_.Y 4 7 I V 5 o o o ",
"*.5X5X5X5X-X5X5X-X-X-XHXGX}.[.wXwXwXT > H {  .u.b.b.v.x.H oX~.,.9XXX{  . .v.b.F  .AXtXAXAXAXAXtXGXLXAXqX{.rXwX{./.#.#.=.s , I } [ [ ~ } j.'.'.:X1X_._._.j.' ' ' ' Y ' Y ' | | C N C Y C V N U N 4 7 1 N N V V *.OX1X1X X| 7 7 Z 7 5 7 o o ",
"=X5X5X5X5X-X-X=X-X-XyXHXeX[.{.rXrX+X6 n P { b.b.b.u.v.P { wX,.[.8XM.{ v.v.v.v.F oXAXtXAXAXAXAXAXLXGXtX&X&XrX&X&X2.! =.~ 1 1 } / } ~ R [ /..X`.:X:X_._._.| ' ' ' Y Y ' ' [ | ' V N U Y C V N U N V I 4 N N V V *.:X3X2X.X^.Y 4 Z Z , 5 7 o ",
"*X*X5X5X5X5X-X-X-X=XuXHX+X[.7XrXtX .> F ` i.b.v.v.v.c.n ~.}.,.2XoXx. .v.v.m.{ { CXtXAXAXAXAXAXGXLXAXrX{.wXwX&X&X%.( #.5 ; I ( W ^ R ~ } _..X`.1X'.j.`.^.[ [ ~ ' ~ ~ ~ [ &.| Y N N Y Y C V 7 U 7 I ^ 4 7 V V V j.:X3XkXOX X| 7 s I 1 ; V 3 ",
"-X=X*X-X5X-X-X-X-X5XHXCX[.[.rXrXwXF n L { b.b.v.b.M.H 6 9X,.[.9XH.{ u.v.v.v.H ].AXtXAXAXAXAXCXLXLXtXqX&XrX}.&X{.O.X.I ; 1 ( R W E R W #._..X`.:X_._..Xj.[ [ ' / ' ' / [ &.[ V N V ~ Y I V N U 7 } ( 4 7 V V Z _.1X3XkX2X.Xj.Z 1 s 5 , 4 N ",
"=X5X-X-X-X-X-X-X-XuXHX9X[.}.rXtX,.> D {  .b.b.v.b.c.n  .+X,.}.8Xx.{ b.b.v.v.{ 9XtXtXAXAXAXAXAXLXGXrX}.qXwX&X}.,.#.^ 2 ; j ^ I ^ R d R =.'..X'.:X_./._.&.[ [ ~ ~ [ [ ~ [ &.Y 7 V I ' Y Z C V Y V #.( i i V Z I `.1X2XkX3X1X_.' 4 i 5 ; , 4 ",
"<X<X-X5X-X=X-X-X5XHXAXoX[.wXrXrXT > L { i.b.b.b.v.{ D [.].~.9XXX{ v.b.b.M.M.].AXtXAXAXAXZXCXGXLXAXwX}.rX&X&X,.#.=.I & 5 ^ c R W d w ^ /..X.X.X.X/././.#.[ ~ ~ ~ [ #.W [ #.I V V / ' V Z Z I U ~ *.^ 5 7 I Z ~ '.,X,XVX4X1X X*.s 5 5 ; , 3 ",
"5X5X5X-X-X-X-X*XuXHX9X[.}.rXtX[.> D P { b.b.v.i.M.H { +X,.[.cXc.{ b.u. .n.M.9XAXtXAXAXZXZXZXLXGXrX&X&XrXqX{.( %.*.d < I I c I h w 2 s / *.`..X'./.k.j./ ~ ~ / ~ #.&.^ #.[ I V Y ' ~ Z I I I V } =.^ 5 V Y Z / :X3X,X3X4X1X Xj.Y 2 5 ; , 4 ",
"=X-X5X-X-X-X-X*XAXGXoX[.wXrXtX) > H { v.v.v.b.m.x.F ].[.,.9XXX{ u.b.v.m.H.|.AXAXAXAXZXtXtXGXLXAXwX}.wXwX&XO.#.;.) e d R d W e d 2 2 ; 1 V / /.'./.;.*.A R ^ R ( *.*.~ #.~ I Z / / I I I Y I Y *.=.^ 5 V I Z ) :X3X2X1X3X:X_.j.} 2 2 , , 7 ",
"-X=X-X-X-X-X=XyXAXBXoX[.rXrX+X6 n { { b.b.b.b.n.L { 7X,.[.cXA.{ b.n.v.Z.c.8XAXAXZXZXZXtXCXLXGXtXqX}.rX&X).O.%.%.^ e c d c d e e 2 5 < 1 s W #.'./.=.( d e j R ( #.#.W / Z Z Z I / Z Y I Y Z / j.=./ 1 V I Z #.,X3X3XOX:X:X/.*.| 5 , , , N ",
"5X5X5X=X-X-X-XyXAX@X[.+XrXAX>.> H { u.b.b.b.v.c.H ~.}.,.+XvX{ { v.v.v.M.M.CXZXZXAXAXZXZXGXLXAXrX}.wXwX&X%.#.$.%.c t h e I e e < 0 j Q ) ( #.*._.'.%.E e % 0 Q $.%.( A s s s s s ~ Z Z s V V [ /.=./ 1 Z R R *.3XrX3X:X:X%X/.&.' 5 @ 4 , N ",
"-X5X5X5X-X-X-XAXBXoX[.eXtXeXF n P { b.b.v.v.m.w.H @X,.,.cXH.{ b.b.b.M.M.XXAXZXAXZXAXCXCXLXGXtXwX}.rX&X{.O.$.O.#.e j t t d e q * 0 v O.;.;.<./.'.).$.z e 0 y O.;.%.X.g i s s s Z Z s 4 : 4 s ~ j.=./ 1 V R R =.<X3XrX<X%X%X/.} I 5 ; , 4 C ",
"5X5X-X5X-X-XyXHX9X[.+XtXtX~.> F P  .b.v.b.b.c.L v.7X,.+XvXx. .m.b.b.M.M.CXCXZXZXZXCXtXSXLXAXrX}.}.wX&X<.O.%.( Q f R e d e e < * y v X.%.;.;.(.).(.$.k r u Q ;.;.;.X.S Z s s s R Z Z s w i s 2 / ~./ 1 Z ~ I <.3X3X4X4X:X%X(.( i , , , N C ",
"5X5X-X-X-X-XHXGXoX[.eXrXtXT > H { v.b.v.b.v.x.H oX[.,.eXXX{ v.b.v.n.M.XXAXCXZXZXCXZXCXLXGXAXwX{.wX7X&XO.=.O.Q h W d q t 0 q * e f v X.$.;.%.;./.'.$.k k Q $.<.1.;.$.X.R A R h h R W j W g Z Z 2 I ~ 5 I ~ R /.3X>X3X4X<X%X'.#., ; 1 , V Y ",
"-X-X5X-X=XyXHX9X[.+XtXAX[.> D { { b.b.v.b.c.L { eX,.[.cXc.{ m.m.M.H.n.9XZXZXZXZXCXCXCXLXGXtX}.}.wX}.2.! <.W ! v ( * @ w < < * f z Q X.$.;.;.%.;.).<.+.+.-.1.1.1.<.-.-...X.Q v z Q E j R j W /.} < 5 5 I ~ R ).3X:X3X3X<X%X$X=.2 ; ; 4 V C ",
"-X-X-X=X=XAXGX@X[.eXtXAX{ > H { u.b.b.v.b.c.H ].+X,.9XoX{ u.m.m.b.n.H.tXCXZXZXZXCXtXGXLXAXrX}.wX}.&XO.+.O.v v W Q @ @ & @ < 0 h v ! $.$.$.%.;.%./.).).(.#X#X1.1.<.-.-.+.+.......X.v l E f ! /./.( w 5 Z R W /.,X:X<X<X<X%X$X;.w ; , 7 V V ",
"5X-X-X*X*XHXcXoX[.tXtX+XM n P { m.b.v.v.n.6.L cX].].cXM.{ b.b.b.A.M.@XAXCXAXAXCXCXCXLXGXCXqX{.wX}.{.O.%.v f c ! t @ @ @   < c c W } /.`./.$.%.%./.%X%X%X%X%X$X1.1.-.-.+.+.$.$.+...Q v Q v X.;.;.#.s 2 I g E <.:X>X>X<X>X%X).=.s ; , V V V ",
"-X-X5X-XuXGXcX].9XtXAX .> H { u.b.v.b.b.x.H M.CX~.@XXX{ u.M.M.~.A.M.CXCXAXAXCXCXtXAXLXAXrX{.wXwX}.2.$.O.y 0 W Q 2 @ @ o   , I ^ } ~. XoX@X/.O.%._.,X3X<X>X:X$X).1.-.-.-.-.-.-.-.+.+.+.$.X.O.%.$.( s 2 Z w X.$.%X>X%X<X%X%X).=.Z ; 4 V V V ",
"-X-X=X-XHXBXoX].eXAXeXF n P { v.v.b.b.n.x.H cX+X].cXM.{ M.m.v.n.M.XXAXCXZXCXCXtXCXLXLXAXwX}.wX}.&X<.<.v < 0 ( Q 2 @ O .   , Z i 5 N U U ' ~.=.O._.3XrX3X4X>X%X).<.-.-.-.-.+.$.%.$.$.$.;.;.;.%.X.! w w p w $.;.'.>X%X:X%X'.).$.s 4 V V V C ",
"-X-X-XyXSXcX].+XrXAX~.> D { u.m.b.b.v.A.L  .CX~.+X8Xw.{ b.v.n.H.n.cXtXCXZXCXCXtXCXLXGXCX7X}.wX}.}.2.<.t $ h O.v # @ O .   O @ O F  .7 @ & 2 / #._.DXDX4X4X<X%X$X1.-.-.+.+.+.%.;.<.<.<././.=.%.X.E d w w d $.;.).<X%X%X%X'.(.X.s 4 V V V Y ",
"=X=X-XrXBX@X~.eXtXCXT > H { b.m.b.v.n.x.D oX+X~.9XH.P n.M.M.M.c.XXAXCXCXCXCXtXtXGXLXAXwX}.wX7X}.}.{.%.q % ! $.d # O o . . O O 4 b.~.3 , 5 , + } ,XDXDXDX4X,X:X$X).-.+.+...-././.).'.OX.X X/.X.! E h d d ( (.<.).>X:X$X$X).=.~ 4 4 V V V Y ",
"=X=XyXGXvX].[.eXAX].> D w.n.n.v.b.b.c.L { BX].[.8Xe.{ M.M.v.M.M.cXAXCXAXCXCXtXCXLXGXtX}.}.wX}.+X}.{.W * 0 %.O.p , & o . . 7 s V i.|.U , & @ + *.DXkXDXDX3X,X:X%X).<.-.-.+.E h Z ~ / *.oXoX/.$.Q Q j j f $.).).).%X%X$X).<.#.Z 1 V V 4 C Y ",
"=X-XHXSX@X~.eXeXAX{ > H N.A.G.|.m.u.c.D ].9X~.@XXXP u.n.n.M.A.H.AXeXCXCXAXCXCXSXLXAXeX{.wX7X}.wXwX<.f $ E ;.Q i , @ o . + ( ~ I | ^.*.~ / / *.3XFXFXFXVX4X3X>X:X'.:X$X+.k d Y T X   o 4 ' | ) X.Q z E v ;.).).).$X%X$X).%.( 7 , V 7 4 Z Y ",
"=XuXPXvX].].eXCX+Xn n w.N.z.N.N.N.A.6.H cX[.].cXx.{ M.M.M.M.x.fXGXSXSXSXKXSXCXLXLXAXwX{.wX}.+XrXrX$.0 < =.%.v 5 , @ o   w %.#.( #.#.=.<./.'.3XDXDXFXDXkXyX3X,X:X'.1X:X..z =.oX~., @ O O   O 5 / E E v ! (.).$X%X%X$X$X(.$.~ , 7 7 7 4 ~ Z ",
"&XHXSXfX~.9XeXAX .> H P P 6.z.N.z.z.F M.CX~.8XXXw.n.m.c.v.A.n.SXSXJXKXJXJXSXBXLXKXCX+X+X7X{.wXAXrX! # v (.! A 5 1 O X . O.1././.<.<.;.<./..XkXDXDXzXzXzX4X>X<X,X:X%X,X,X/.=._.`.s & & o # , o 5 R E z $.).$X%X$X$X%X).%.#.V ; V V 4 V ~ C ",
"@XSXvX].~.CXCX9XF > H q.v.q.P 6.z.6.F cX+X].8XH.XXXXXXXXXXx.XXLXSXKXKXSXJXSXKXLXSXeX+XwX+X+XtXAXrXQ % #.%.E A 4 1 -   s '.'.OX{.OX'.OXOX:XkXFXFXDXDXzX4XDX3X3X<X>X%X'.OX$X)././.*.Z i s ~ I 1 4 I Q Q <.$X%X%X%X%X%X(.=./ 4 4 V V 1 Y ~ V ",
"SXvXvX~.+XeXCXb.= D ` u.u.v.v.e.x.H v.BX~.oXfXXXvXXXXXXXH.x.JXKXSXSXJXSXSXSXLXKXCXwX+X9X+XeXAXGX2Xf d <.( R Z 7 4 O X =.:X1X1X1X1X1X1X1XkXFXFXFXDXDXzXzXDX4X4X3X3X>X%X%X'.(.<.%.$.k.=.&.( ^ ~ [ ( $.%.'.:X:X>X>X$X)./.&.Z 4 V V 7 4 ' Y 5 ",
"SXvXXX~.eXeXcXF > P { v.n.n.n.p.x.D oX+X~.9XXXXXcX8XXXaXc.XXLXSXSXSXSXvXSXKXLXSXtX+X9X+X9XCXGXPX_.q ( =.S W V 7 , . 5 :X,X3X3X3X3X3X3XDXFXFXFXDXDXzXzXzX4X4X4XzX4X3X,X,X:X%X'.(.;.;.;.$.+.;.;.;.<.(.(.:X,X,X<X<X$X).;.[ V 5 V V 4 V ' V 5 ",
"vXvX~.[.eXeX].> n P q.n.n.v.v.c.H { BX].].cXx.L  .v.|.XXx.vXKXSXSXSXSXBXKXLXKXCXeX+XeX@XBXBXGXCX*.y /.X.S R 7 N ;   / ,X3XkXkXkXkXkXFXFXFXFXFXFXxXkXkXkX4X4X4X3XzXzX4X3X3X,X:X$X%X$X'.).(.(.(.1.).'.%X<X<X3X3X<X$X).#.~ 5 V C V 1 ~ ~ 7 4 ",
"vXXX' ~.+XcX_ = H P n.n.u.n.n.w.D XX9X,.+XH.L n.H.M.v.e.XXLXSXSXKXSXSXSXLXLXSXCX+X9X9X+XCXCXGX2X^ ( /.Q W ~ N 7 O X ~.,XkXVXVXVXVXFXPXFXFXFXFXFXDXkX3X4X4XzXzX4XzXDXDX4X3X3X,X>X,X>X:X:X%X%X%X).$X%X>X3X3X3X3X>X$X%.#.Z 5 V C 4 i [ Z 5 4 ",
"vXi.' | j.b.3 > H q.n.e.n.n.x.L P cX[.~.BXx.w.A.n.n.A.x.vXKXSXJXKXSXSXSXSXLXGXeX+X@X+X9XBXGXSX X^ %.=.W ~ I V 4 . , OX3XVXVXVXVXVXFXFXFXFXFXFXFXzX4X>X>X3X4XzXzXzXDXDXDXDX4X3X3X3X3X3X3X>X>X>X:X>X:X3X4X4X4X<X:X;.$.#.V 4 C V 4 I [ V 1 V ",
"XX_ | | j.U = D P u.c.n.n.u.x.D M.BX~.oX8X{ { n.M.H.c.M.LXSXSXJXSXSXSXcX_ _ ].@X@XoXoXBXSXKXSXj.( /.#.E / s V ,   5 1X3XVXVXVXkXkX2XkXVXVXDXDXDXzX4X>X:X>X>X3XzXDXDXDXDXDXDXzXzX4X4X4X4X3X3X4X3X3X<X4X4X4X3X,X).#.;.~ 4 N C 4 i [ ~ 4 5 Z ",
" .Y j.j.i.3 > H { v.n.c.u.c.L F cX+X~.cXM.L Z.H.M.n.x.vXLXSXSXSXSXSXSXSXoX>.c ) {.].+XSXLXKX@X&.=.=.^ ^ / 4 7 -   7 1X2XVXVXkXkX2X.X1X,X,X,X<X4XkX4X>X>X>X>X,X4XDXFXFXDXDXDXDXDXzXzXzXzXDXDX4X4X4X3X4XyX3X<X:X=.k.#.V 4 V V 1 Z ( Z 4 V V ",
"U | j.~._ = D H { e.e.e.n.x.D b.BX].[.vX{ c.A.c.n.M.A.KXSXSXJXSXJXJXSXLX9XeX,.) ,.`.BXKXKXSX X*.=.#.^ [ Z 5 4 O   s 2XkXVXVXkXkX:X(.$X$X$X$X$X$X>X>X6X6X3X>X>X3XDXDXDXDXFXFXDXDXDXDXDXDXDXDXzX4X3X<X4X4X<X:X;.;.=.S 4 4 V V 5 ~ ~ s s V Z ",
"Y j.j.i.6 > F H e.0.w.e.x.L F @X8X~.9XH.L n.M.H.A.x.vXJXSXJXJXJXJXSXKXBX9X@X+X[.,.`.JXKXvXSX=.%.=.#.( [ 5 4 ; O   s 2XkXkXkXkX4X%X+.(.'.$X#X1.:.(.>X>X6X6X>X>X3X4XzXDXDXFXFXDXFXDXDXDXDXDXzX6X4X<X4X<X<X>X;.$.;.X.V 4 V V V V ~ I s s V I ",
"] j.~. .> > F P 0.w.w.0.e.D _ oX~.].cXP w.H.A.n.c.M.JXSXSXJXSXSXSXSXSXeXwX+X[.+X~.[.BXSXJX@X*.<.%.( ( ~ 1 7 - o   s 2X2XkXkX3X2X4X:.-.(.#X;.-.@.r z #X>X>X>X:X>X3XzXDXzXDXDXDXDXDXDXDXDXDXzX4X4X4X4X>X<X(.-.:.-.W 5 4 V V 5 A ~ Z V s Z Z ",
"| j.^.F = D H w.w.w.{ e.6.D ~.~.]  XA.L M.M.n.G.c.XXKXSXSXJXSXSXSXSXBX9X+X[.+X[.[.eXBXvXSX_.=./.#.Q ( s 5 4 O X   5 2X3X4X3XkXVXVX,X(.<.1.#X#X#X-.r ..#X$X$X$X,X4XzXzXzXzXDXFXDXDXDXDXDXzX6X6X6X6X<X3X#X-.;.:.$.V 4 V Z 7 s ~ ~ Z i i I A ",
"| ~. .= > F P w.w.P { w.K _ ^.} | |.x.{ n.M.A.n.x.vXKXSXJXJXJXKXKXLXBX9X}.[.+X[.9XBXcXcXoX=.<./.X.W ^ i i ; O X   1 1X2X3XkXVXFXVXkX1X$X:.:.(.#X$X#X:.:.1.#X$X3X4X4XzXDXDXzXDXDXDX4X4XzX6X4X6X3X>X<X$X$.:.;.k.^ 5 4 V V 1 Z ~ I Z i s Z S ",
"i.~.U = n H w.w.6.w.w.6.F | j.} ~.A.L c.XXM.n.c.M.JXJXJXJXJXJXJXJXKXCX+X[.[.oXoXeX9XBX@X_.<./.=.^ ( S i 5 ; O .   , .X2X2XVXFXVXVXVXkX,X$X(.%X>X%X$X#X#X#X>X4XVX4X4XzXzXzXzXzXzX4X4X3X6X6X<X>X>X>X$X-.-.:.(.#.V 4 V Z i w ^ ~ Z V i Z j W ",
"i.i.> > D P w.P w.w.w.K _ ^.| } ^.w.P A.n.M.H.6.aXJXJXJXJXJXJXJXJXBX9X+X[.9XoX@X9X9XBX[./././.#.^ ^ g V : @ X .   o ^.1X2XVXVXVXVXVXVX4X,X:X>X3X3X3X6X6XkXVXVXDXDX4X4X4XzXzXDXzX4X3X3X>X>X>X>X>X$X-.@.:.1.-.R 7 4 V Z 4 A ^ Z Z V s A R ^ ",
"~._ = n F P P w.w.w.6.>  .^.' &.n.P w.M.G.A.x.c.NXfXvXJXJXJXKXJXKX9X+X[.[.9X+X@X9XBXOX`._./.,.! X.W A 5 ; @ . .     *.1X1XkXkXkXVXVXVX4X<X3XkXkXzXDXzXzXDXDXDXDXDXDXzX3X4XyX3X<X6X>X>X>X>X>X$X#X:.@.:.:.;.( s 7 i Z V i ^ W Z Z i s S S ^ ",
"~.n = F H w.w.6.w.e.H M j.| &.~.x.L A.H.n.A.x.pXvX XoXvXKXKXJXLXLX9X+X[.9X@X+X9XkX`.[.OX_./.#.X.! W g 1 ; @ o . .   } OX1XkXkXkXVXFXVX4X,X,XDXDXDXDXzXDXDXDXDXDXDXDXDXkX4XyX4X<X<X>X>X>X>X$X#X:.$.:.#X1.$.A s i V Y 5 g / A Z Z 5 Z W W ~ ",
" .= n F P H H P w.6.F ] j.} &.C.L x.A.n.H.c.x.vX X XoXfXfXvXJXJXBX9X+XoX9XoX+X+X`.[.+X`.<.( ( X.X.E a : ; ; o . .   Y OX1XkXeXkX3XkXDX4X4XzXDXDXDXDXDXzXDXDXDXDXDXDXDXzXzX4X4X4X>X>X>X>X$X$X1.$.:.#X1.;.^ Z V V I Z 5 W W g Z V 5 A S W E ",
"{ 6 H 6.6.H F { w.L F ~.j.' ~.x.L e.C.H.n.x.A.oX X|. XoX|.oXoXBXBXBX+X+X+X`.`.`.@X+X`.#.z l X.X.X.S e ; @ ; X . .   I .XOX2X:Xl.k.k.#X6X3X>X>XzXDXDXDXDXDXDXDXDXDXDXDXzX4X4X4X3X>X>X>X%X$X1.$.:.#X:.;.#.Z V 4 V I i Z ~ S g Z i i S S W W ",
"|._ H c.w.w.P P 6.D _  X] } n.L P G.A.n.c.P |.^. X^. X|.^. X XOX XOX[.~.~.~.[.+X[.*.v f r v X.! ^ S w @ @ ; O . .   s '._.=.@.o...o.o.@.@.:.l.#X3XDXDXDXDXDXzXDXDXDXzX4X4X4X3X3X<X>X%X$X1.-.;.#X1.:.$.A V i i Z Z s ~ ~ s Z g 2 g E W E ^ ",
"~.N ] { e.w.6.x.6.F ^. X~.|.z.K Z.c.C.H.F ` oX^.^. XoX^.^.^. X_./.%.O.) #.,.,.) W r r y r ! X.! ! f : @ ; ; O .     7 '.%.....@.o.o.o.o.o.o.@.:.l.$X6XDXDXkXzXzXDXDX4X3X3X3X3X<X%X%X%X(.-.1.1.(.(.(.^ Z Z s g Z g A ~ R p Z p < S E Q E ^ ",
" .U i.i._ F { x.L { oXXXSXM.K P c.A.A.c.F ~. X~.~.^.^.j.j.j.;.$.O.! Q Q ( ( v y r y y q f ! ( ! ! e : ; ; ; X .     , _./.'..XlXxXjX#X:.o.o.o.o.o.@.:.;XzXzXkX4XkXVX3X<X<X,X>X>X%X$X(.-.1.(.1.(.).O.Z Z s s Z S g R ^ j g Z w i S W E E ^ ",
"T  .m.m._ { |.pXe.m.oXvXfXw.K e.H.c.Z.{ `  X^.=.*.*.=.#.#.%.O.! ! Q v v v u r r y j y e Q ! ! Q Q % 2 ; : ; X . .   O j.`.`.k.;X3XxXxXxXjXjX;Xl.k.@.o.@.(.3XkX4X4X4X<X,X>X:X%X%X$X(.;.1.#X(.(.).$.j Z Z i Z ~ Z g W W h A s < s W Q S Q ^ ",
"Y ~.i.i.i.m.{ { e.i.~.fXm.6.L A.c.A.n._ m.~.=.*.=.<.=.#.#.$.%.%.O.! Q v l l u u j v h #.( Q Q X.S : 2 : : ; X     . . } `._.:.k.l.;X;X;XjXxXxXxXxXjX;X@.o.@.#X%X<X3X3X<X:X%X%X$X(.;.(.#X#X#X(.%.W Z ~ s i ~ ~ g j ~ g j A w w j Q E z ! ! ",
"] ^.i. .~.i.6 > D 9.j.m.n.P w.n.A.n.{ u.@X~.=.=.=.*.*.#.=.=.#.O.X.! Q E l l z E ( ( } *.W X.X.! z : w 2 : ; O   . .   I `._.%.@.k.l.l.l.l.l.;X;XjXjXlX3X;X:.:.%.(.:X<X<X:X%X%X(.<.(.#X#X#X(.;.X.A S R w Z ~ W g ~ A p A g < e j E f E Q Q ",
"m.|.m.m.i.F > > M i.fXaXe.` A.A.n.M.{ XX X,.=.*.*.*.*.=.=.$.O.Q Q E l y r r q f ^ ) *./ W $.! Q d e w w 2 ; O   . X   1 _._.<.$...@.:.l.l.l.l.l.l.;X;X>X4XlX3X$X1.).$X$X%X%X).1.(.#X$X).(.1.$.W A ~ g s A ^ S h ^ p g A p < d j z z Q E Q ",
"|.|.|.|.F D > > Y | |.MXaX_ _ u.m.u.u. X,.%.$.#.) ( O.%.$.O.( ! ! v v v v v y t t e r h ( ! E Q h p q p p 2 ; . . X . O j._./.1.-.........@.@.:.:.:.(.;.#X%X%X%X%X).).).$X).1.).#X).).).(.=.! A S S p g S ^ S W j p j g w 0 h R v E E E E ",
"|.|.m.{ D e.F F i.| ] i.JXvXu.n.G.G.|.*.#.( ( ( ^ ~ I c j c R R E Q z z z r * $ * * d j h E R ! h p w w g i : O X X o . } `.'.%X$X(.-.+.+.+...+.+.-.;.<.).$X).).).$X).).1.1.).).).).#X).;.( S S W g p p R ~ S W p g j d 0 w j j v E E v Q ",
"p.A.L P M.i.7 ] j.j.| U |.MXMXnX!.dXdXdXaXpXI.Q.aXpXpX|.u._ F N V N C U 7 , 7 V 4 U I Z I R E ! d g p p j g i ; O O o   I `.OX2X2X,X:X$X#X1.1.;.;.<.1.(.(.).(.).$X$X).<.<.(.).).$X).).<.O.R S S g g w A S S W j p g g a : t j d W E E v Q ",
"dXQ.z.K P  .U i.~.~.|.aXhXQ.Q.G.L.P.Q.bXnXmXmXmXmXmXmXNXmXhXpXI.I.pXI.G.y._ U _ ] ] _ Y Y I Q ! h p a g d j g w @ O O o 5 `.1X2X4X3X4X3X,X,X:X%X$X'.'.).(.).(.(.(.(.;.<.(.(.#X$X).).<.#.E S S h g a p R j S ^ a g d g e : A d d W E E E E ",
"hXz.6.L.H n T  .m.aXNXNXnX!.Q.P.D.L.K.dXdXE.bXmXbXbXmXmXnXmXmXmXbXdXW.F.g.q.G F ] U _ _ ] ' Q Q j p g a h g j g 1 ; ; O O ~.1X3XkX4X3XkXVXkX4X3X3X,X:X$X).).(.(.(.;.<.(.).).).).(.<.%.Q R S S a j e j R a ^ R a g t d q 0 R 0 f E E R W v ",
"z.K K L c.> M A.MXNXmXdX!.Q.Q.Q.L.P.D.K.hXhXhXmXmXNXNXmXmXmXhXY.G.Z.|.C.g.q.` Z.` _ G q._ ' ^ Q h p g w g j h S g ; ; @ X } 1X1X2X3X3X4X4XVXVX4X4X4X,X:X%X).).(.%.<.).#X).).).(.;.$.^ E R A g A p a R A p ^ S g p t e * e j * z Q E v E f ",
"K K D > = F pXNXNXNXnXdXdXhXmXhXhXnXE.D.!.dXE.hXmXmXmXhXnXhX!.L.y._ ' p.y.q.|.g.|.|.g.t.` ] ^ ^ f g p w g j j A R i 1 1 O Z OX:X1X1X,X,X,X3X4X3X3X3X,X<X%X$X(.;.(.$X$X).).).(.<.$.! E E j j a j e j S h A ^ j d p d e % h a w E E v E j y ",
"K D > D c.NXNXbXbXnXnXhXdXnXnXnXmXhX!.P.Q.!.Q.P.hXmXnX!.hX!.P.P.S._ h I _ Z.p.Z.p.q.Z.p._ ' E ^ f A a e p a S h S R i 4 ; ; /.'.$X:X:X:X:X,X,X3X3X3X,X%X).(.1.%X%X%X$X).).(.<.%.X.E R z h g g e h d A j ^ ^ g p p d w * j q t W E z ! d y ",
"x > w.bXNXnXbXnXbXnXmXnX!.!.dXhXhXhXhX!.R.hX!.P.!.hXnXhXhX!.K.P.D.{ N e d ' _ q.Z.Z.p.q.9.Y W ( h S a w g < j S z E S i 5 X ~ (.(.).'.'.'.:X:X:X'.'.$X'.).$X%X%X$X$X$X).).<.%.X.E z E d S e d d j j h j ^ W f d e t < e h 0 f E v E Q e y ",
"K Q.NXNXmXbXmXmXmXnXnXnXhXnXnXmXhXhX!.!.R.hXQ.R.J.!.!.R.E.P.E.L.s.0.G | p 0 V C _ |.p.9.| I W ( f R j p s p w E E z Q j s : @ O.;.<.<././.(.'.'.'.%X$X/.$X%X).).$X).).).<.%.X.Q z Q f h j e d v d f d v E E j e t e % h t 0 j E v ! j % d ",
"NXNXNXbXnXmXnXnXbX!.nXnX!.nXhX!.hXhX!.E.P.dX!.E.J.P.L.E.P.V.D.J.s.t.|.aX7 e 8 w I ' ] ] ' g S ( j R R g g Z w j Q Q W ( R Z : $ ! $.%.;.<.(.).).'.).).$X'.).).).).).<.<.%.( E f z z r z r e z d e d f R E R j w e 0 0 d t q v v v Q 0 $ e ",
"NXmXbXNXmXmXmXnXdXhXnXnX!.!.dX!.hXhX!.R.E.dXQ.L.P.!.J.K.D.B.d.f.s.h.MXMXZ.Y 2 w < 2 s Z Z p W ( W ^ ~ j g A s p R Q E R W g 2 . + l O.O.$.=.;.;.;.(.).(./.(./.<.<.;.%.O.Q f r d S r j h d j R 0 f d j f R j d e e q e e e y v z E E $ * e ",
"mXmXbXbXnXmXnXnXdXnXdXhXhX!.nX!.P.!.Q.D.P.E.J.V.V.E.J.V.V.J.B.B.a.r.aXMXaX|.U w < $ $ $ w : A ^ S g W s 2 s w 2 < E E R A S p @ + % r v Q ! X.O.%.%.;.<.<.%.$.O.X.! v y 0 0 0 z a a z f f z e 0 h d v r R d d 0 t 0 e e q y l v ! y $ < e ",
"bXmXmXhXdXnXnXmXnXdXhXbXhXhXnXhXE.!.Q.V.L.Q.P.L.P.W.D.V.L.D.J.V.f.4.t.pXaX|.V @ e * < 2 # @ e ^ A A ( g 2 s s 2 # p z R j A g < @ 0 u u k k u u l E Q Q v v u y e 0 % $ $ % j j r z j f z z % t w j j d j d d 0 e q e q q f f E Q 8 < < t ",
"hXmXhXnXbXnXhXhXhXhXnX!.hXhX!.hX!.!.R.N.Q.!.L.P.P.D.J.J.a.V.U.K.B.r.J p.aXm.O . @ < 2 , @ X < Q A g ^ g : w s 2 # < d j d p A w @ 8 k v v k u r 8 8 8 8 8 * * * * < * $ $ f R e f j z j E e 0 e e R d j y d e e 0 e e 0 y f f Q v * $ 0 y ",
"nXhXdXbXmXbXdXhXdXdXhXhXhXhX!.!.!.!.R.V.T.dXR.V.V.V.J.L.V.J.D.K.V.V.a.G Z.XXF = N 5 2 # .   2 W W p j R 2 2 2 g : # w d f e j p $ 8 k v v b v u q 8 8 8 8 8 * * 0 0 * % y E y e v j f E j % e q j z r d e e r d * 0 q q f u l Q y @ < e u ",
"mXgXhXhXhXnXhXhXbXnXhXhXhXhX!.!.Q.E.L.a.L.P.J.E.D.f.D.D.Y.D.D.V.L.D.N.7.G |.|.q.i.Y # X X . 2 R W g g A w w # i w : 2 p j d f f w $ k b b b v k r q 8 8 8 8 8 0 q 8 % e E f q z E f z R 0 * e e j d e e e 0 d e * 0 0 y f y v E w @ 0 y k ",
"nXnXnXdXhXhXdXhXhXdX!.dXdX!.E.E.!.P.L.B.Q.E.J.J.D.V.f.s.D.J.J.V.Y.L.f.t.B M ^.i.Y < # , O . : j R w g g w s : 2 i w 2 w j h h d # + k b b b b v u u r q q 8 q q 0 q q R j q e E z f ^ d % 0 d r h r e 0 e 0 d q * * 8 y u h v j $ @ q y b ",
"mXbXbXnXhXhXsX!.sXsXdXE.P.!.E.!.!.E.P.P.P.K.Y.L.D.J.V.B.s.L.L.D.J.L.V.f.7.M N Y g 2 V 7 - . : s W w s A 2 i i : 2 w i p d d e : # + u b b b b b v u y t r q e e e 8 z E r 0 j z a E v : : 0 w d d d 0 e e e e 0 0 * * f j v f f $ @ e u O.",
"bXhXdXmXhXhXhXhXsXY.P.Q.P.E.Q.hX!.!.J.R.E.E.Y.E.L.V.f.s.a.L.J.U.U.J.J.D.d.t.` 7 7 '  .T 3 X ; 5 I i w g w 2 p 2 i w Z g w q 0 % @ . y b b b b b b l f y y y y e 0 h Q f q r z f z W e $ : < e f d e % d 0 e 0 0 0 % 8 h j l f f $ % y v ,.",
"hXhXhXnXbXhXhXhX!.E.P.dX!.P.Q.!.P.R.J.!.hXP.D.D.J.a.B.B.V.D.P.Y.J.L.J.L.S.y.q._ C N C Y 4 X ; ; g p 2 g s 2 g s Z g s 5 < % < # @ . t b b b b Q v v l h u y f r f ! z r r j f l Q h $ # 0 0 d d r 0 0 e % e 0 0 0 % q f l f f 0 # 0 k ! OX",
"sXsXsX!.hXbXhXsXhXhXW.E.E.P.dXP.P.R.J.E.!.E.P.K.B.B.E.J.L.V.V.P.P.P.P.L.J.B.h.t.q._ V , @ @ @ , Z g 2 g s g Z g g Z 2 2 2 : $ @ + . t b ! ! ! Q Q v v l l f u f ! v f r f j y E E q + $ 0 e f e e * t 0 0 q 0 % < 0 e f f f e % $ y k O.@X",
"!.hXhXhXhXbXbXbXhXhXhXP.P.!.!.E.R.R.V.P.!.P.L.J.B.K.T.D.L.V.J.L.T.P.U.J.V.V.L.D.C.q.U ; @ @ @ @ s g 2 I Z g g s : s 2 2 w $ # + + . y ! ! ! ! ! Q E v v v l f ! E f y q l r f E f @ @ : 9 e d e 0 0 e % * 0 0 * % 0 y z f y 0 $ $ u v ,.@X",
"dXhXmXbXhXhXhXW.hXhXdXQ.P.P.E.!.E.L.V.E.E.L.L.D.P.K.J.L.J.J.E.P.J.V.J.V.J.V.S.s.` _ 5 ; @ X , @ p R g I g g s i # i w 2 < $ @ + + . f ! ! ! ! Q Q E v v v v E ! v f r f u r v v < + # % 0 e e 0 9 q w % % 0 0 0 % e f z y y * $ 0 u Q `.fX",
"hXhXhXnXdXdX!.hXhX!.!.hXdX!.E.E.E.J.V.hXP.Q.D.f.J.Y.D.D.V.J.T.T.P.V.P.P.J.f.s.y.9.C : : @ X : : s R s s s s g I p w Z V : $ @ @ + @ h X.( ! ! Q Q W v v v Q ! v v f y f r f E y + @ $ % e e w % 0 w < $ : q % % 0 y j y r e $ # y k O.@XcX",
"gXsXsXdXhXdX!.hXhXgXhXsXdXhXdXE.P.J.V.!.Q.Q.P.J.B.L.D.P.P.L.J.J.V.P.P.T.P.B.d.f.` 2 : @ X ; i 1 i s w i w 2 2 ~ I i C 7 ; @ + . + < I ) ) ( ! Q Q W E v E ! E v l y f f y R R $ + $ $ 0 e p < $ < w % $ 0 q % % q v j r r q @ * h l /.BXfX",
"sX!.P.!.hXsXhXE.W.T.T.!.E.Y.W.!.P.B.J.hXQ.!.L.J.D.f.B.E.Y.L.Y.E.P.!.R.E.!.L.B.t.N $ , ; ; 1 5 : 5 s i 5 w 2 # 5 i ~ ] _ 7 + .   @ * } | ( X.! ! Q E E E Q E v v f y f y h E t + @ < $ w d < $ $ < < : % q 0 % * y v y 0 t * # 0 l Q @XBXBX",
"!.gXL.!.W.!.W.hXY.T.T.W.!.Y.!.hXP.V.T.hXQ.Q.f.B.T.V.B.L.K.P.L.P.E.E.Q.E.P.f.d._ 4 1 5 , O ; 4 : , i i 2 5 , @ , 5 Y ] i.s . .   @ < / ^.( ( ( ( ! ^ Q ^ W E v v u f f f v h # + 2 $ % d e $ $ @ w 0 $ $ 0 < % 0 h c r r t $ $ t v ) BXcXBX",
"hXhX!.sXW.E.E.!.P.T.sX!.T.W.W.Y.V.V.W.dXQ.E.L.L.L.P.D.B.D.L.P.P.L.P.K.E.D.a.p.Y i 4 , - O ; 5 1 1 5 i 1 5 ; ; 1 ; 4 U N 1 1     # d / j.^.} ( ( ! ( ^ ^ W E E f y f y z z 0 + # $ @ q d : $ @ $ e : $ $ < 0 % r f f 0 y e @ 8 u v ,.KXcXBX",
"!.!.hXK.Y.!.sXT.D.P.hXsXW.J.P.L.V.s.!.dXQ.Y.W.K.D.P.Y.K.D.D.P.!.E.K.P.P.K.t.{ U N 6 3 - ; ; 5 1 1 2 i 1 2 ; , , X ; w @ i.U   . # Z } } *.^./ ! ( ( ^ Q W E v f f h e z y # + $ # # g e $ $ @ $ w < $ @ 0 0 8 y f y 0 d * @ t h W +XLXBXcX",
"Y.Y.dXW.Y.hXsXT.E.P.sXsXhXP.L.J.J.a.!.Q.D.Y.Y.s.J.V.V.T.U.L.L.L.E.K.D.E.D.h.{ _ M M 3 - ; 1 4 : 1 : w 1 : : ; ; @ 2 % I Z.p.6   2 R &.&.[ i.~.( ( ( ^ ^ Q E j y f e h d % + @ $ @ w h < < @ @ $ < < @ # 0 0 0 f j 8 q e * * y l O.9XKXBXcX",
"Y.Y.Y.K.dXhXD.T.E.D.E.hXsX!.E.J.s.a.E.E.K.P.B.D.L.L.K.L.L.Y.!.K.K.K.V.D.B.S.q.` J M 3 ; ; 1 1 ; 2 5 5 5 : ; , ; @ < 2 p.G.t.p.; w ( &.#.&./ | ^./ ^ ( ^ ^ E f f e a z 0 @ + $ # @ j 0 < @ + # # 0 < + < 0 0 e h y 8 q * $ e y l ,.cXSXcXBX",
"dXsXY.sXdXJ.J.!.U.Y.U.Y.W.sXE.P.a.s.sXW.Y.L.D.D.V.Y.P.V.L.D.P.P.J.L.D.D.N.s.r.J G G M , 1 1 1 ; 5 1 2 w ; ; , , 5 w 4 aXI.s.D.{ w ( &.&.} } ~ | } W X.! ( R y e e S < $ @ + $ @ w h < $ + # # % w $ + < 0 0 y h e q e * * e u Q `.BXSXcXBX",
"gXgXW.Y.Y.Y.U.W.U.B.D.D.J.E.dXL.r.P.!.K.P.B.Y.Y.Y.D.W.D.Y.L.K.V.D.K.S.V.N.s.r.7.G G M 3 4 1 : ; 5 1 2 2 1 ; , s s X m.aXY.gXsXq.V #.&.&.} } } ~ #.} ^ ^ ^ f e 0 R 0 # $ + $ $ # g w < @ @ $ @ % w @ @ q < r h j y q 0 % * e u } ^.].fXfXBX",
"W.dXU.K.sXgX!.K.a.B.F.S.B.S.!.L.6.!.!.K.Y.D.V.B.!.D.J.T.W.P.!.E.Y.D.D.V.N.s.s.J 7.G M N 4 , ; ; 5 1 , 2 1 1 5 7 @ 6 vXC.W.sXsX4._ &.j.&.[ [ [ ( / *.| / z y q S p @ $ # @ $ # 0 h < $ + # # $ < < + $ q 0 d j h q 0 8 % 0 y v &.^.oX XoXfX",
"Y.T.Y.W.Y.T.T.Y.K.K.S.d.S.B.L.L.V.sX!.!.T.E.a.B.V.J.L.J.J.J.J.E.P.D.S.N.N.0.0.t.q.G G C 4 5 , 1 5 1 1 : ; 5 7 , X i.JXpXgXW.I.5.q.j.j.&.#.[ ( ( ( ~ | } d e j p @ $ $ @ $ $ # j d $ @ @ $ @ $ < % @ $ w e f h f q 0 * % 0 f Q j.^. X X|.oX",
"dXW.!.W.D.Y.Y.Y.Y.S.B.S.J.f.D.S.s.E.P.E.K.L.D.P.D.K.f.E.P.V.Y.K.D.B.d.N.d.y.t.s.s.7.G N 2 5 ; 5 5 1 1 , ; 4 3 3 , N fXpXI.gXY.J g.^.&.| [ [ ( [ [ [ ~ R p j e $ # : $ # : # < A 0 @ @ $ @ @ : < # $ : e f j h d * 0 0 < w f ( _.~. X X^.|.",
"sXY.T.U.sX!.Y.K.S.D.U.U.K.S.F.a.r.P.Y.!.J.s.D.W.Y.Y.s.Y.Y.K.Y.U.K.s.S.s.r.d.d.a.t.7.7.C 5 1 ; 5 4 1 1 1 , N N N 6   N fXG.s.D.J C.i.*.} } ( [ } [ [ ^ p j e % $ $ $ # $ : # p g $ @ # # @ # : : $ $ < d j j h e < e 0 0 e h } ^.^. X^.|.fX",
"U.dXU.S.sXY.K.J.Y.K.Y.K.s.r.s.4.S.!.L.Y.Y.B.K.W.W.K.D.K.K.T.Y.D.D.D.S.s.s.s.B.a.t.t.q.U 5 1 ; 1 1 , 1 2 N G M M 3 o O U fXf.f.r.p.|.&.} } [ } [ ( ( A R d % % : $ < # : : : g w @ # # # @ # $ $ $ # w h f f d q 0 e 0 0 w I ^.fXoX^.j.^.XX",
"D.T.F.K.K.B.D.T.dXT.D.S.r.r.0.J F.bXhXa.L.Y.Y.f.K.K.K.T.Y.W.!.U.K.B.a.a.s.B.N.S.s.r.q.U 2 1 ; 1 1 1 1 1 N G B G 6 - 6 . U MXK.A.q.|.i.#.[ #.#.[ / ^ A A 0 % $ # $ $ @ : $ e g % @ @ $ # @ # 2 # # $ p h f h e 0 0 e 0 0 e ~ |.XX~.^.oX|.|.",
"sXI.T.Y.K.T.Y.!.W.sXK.S.f.t.G P t.G.S.r.dXsXK.D.f.F.!.f.s.B.B.Y.K.s.d.a.s.F.F.B.N.s.t.U 5 1 1 1 1 4 1 1 M B J G M 6 N 3 N { MXpXq.B | &.[ &.[ ( ( ^ g : : : % $ < @ $ 2 0 d e @ # # : @ @ $ < @ # < a h h h 0 0 e q w e d Y |.|.j.~.oXoXoX",
"gXsXU.Y.sXsXgXW.K.B.Y.K.a.J G J pXF.G y.dX!.Y.hXa.a.F.a.f.f.S.K.d.s.F.B.B.F.D.F.K.D.C._ i 1 5 1 1 4 ; 5 M G ` ` M M _ 3 N F { fXC.B ] &.#.&.[ ( [ R 0 # $ < $ % 2 # < < e h : @ # # $ @ # $ < @ # < d h c t 0 w e 0 q e f Y p.XX X|.|.|.|.",
"sXsXY.K.sXsXY.s.d.J.U.U.4.J m r.mXr.J g.0.q.G.gXU.pXG.I.pXG.K.S.d.d.F.I.I.F.B.D.D.B.S.` C 5 1 1 1 4 : i N ` ` J G ` _ 3 o M M m.aXg.i.&.&.#.[ [ ( g : $ < : $ < : $ 0 : j p # # @ # # @ # 2 < # $ p d h j e q e e e 0 e j Y 8.Z.~.^.fXfXoX",
"sXI.sXsXsXY.F.Y.K.sXU.d.a.4.m g.s.B K.gXA.` q.p.pXpXG.Y.F.F.S.F.F.s.d.K.Y.K.J.L.K.D.S.g.U s 1 ; 1 1 : 4 M ` 7.J J 7.` N 6 3 M U |.pXi.#.&.#.[ [ R d : : < $ $ < $ < q e S < $ # ; @ # @ : 2 # : $ p d j d < e e q e q e S Y 8.g.XXi.] |.fX",
"W.W.sXsXsXsXW.sXD.K.sXr.a.J H pX7.` G.pXG.f.7.` q.G.aXC.g.S.d.d.S.S.F.d.D.D.V.P.P.P.J.F.q.V : ; 4 1 1 7 G 8.4.J 7.t.G M M M 3 _ _ aXi.&.&.#.#.( h a : : : $ $ < $ < w h h : $ : # @ # # 2 2 # : < d h d w < p w w p q d j 7 7.h.iXpXm.] |.",
"sXY.W.F.sXgXY.d.J.U.Y.f.r.m B F.S.pXu.` J r.g.aXZ.` Z.G.C.s.B.d.B.B.D.K.B.V.J.J.P.L.D.J.Z.Y ; : 4 , 1 7 _ r.4.J J g.` M n M 3 { G m.^.&.&.&.#.( j a : $ < : < 0 < q e z d : : : @ # # : 2 2 2 # 2 j h d < w s w w p w g g 3 B y.iXiXaX|.j.",
"K.T.F.T.sXsXY.J.sXY.sXP.a.n s.5.M C.aXZ.` B G.aXp.p._ Z.G.S.d.D.F.I.D.V.V.V.J.J.V.V.P.U.g.C 1 5 4 ; , N ` a.t.7.8.F.q.` ` F = _ ` _ ^.| &.&.#.W j e % % 0 : 0 0 w e f z w $ : # @ @ $ 2 2 2 w $ s A h d : t p w w a p j Y C ` 7.g.pXpX|.j.",
"U.U.Y.dXT.dXY.Y.dXJ.W.W.r.J gXa.6.B G C.G.u.q.` G.pXq.` Z.pXs.d.4.r.V.V.D.L.P.P.J.V.J.a.y.U s 5 1 ; ; N ` a.d.8.t.Z.G ` y.` 3 M u._ j.^.#.*.#.W z q : 0 0 % 0 w p e z j < : : @ # @ : 2 2 w : 2 g j A p : s p p w g g A I M G t.r.I.iXiXXX",
"W.T.T.U.sXgXK.T.hXU.Y.sXJ F.!.V.L.f.4.B B Z.|.` ` p.pXu._ p.S.Y.f.a.V.r.a.P.J.K.P.P.V.J.g._ U 7 4 1 4 C 7.a.t.r.s.g.0.A.C.0.M M  .] 9.|.*.$.#.W z e % 0 : : e p d d S j : 2 $ @ $ + < 2 2 w # w A j S w w e g w 2 g g I i - = G s.F.iXiXaX",
"T.T.Y.F.!.dX!.J.!.gXgXC.G gXJ.E.Y.K.K.F.4.G 0.pX` ` Z.A.A.M q.Z.F.I.J.J.!.L.P.s.V.L.f.P.d.0.` C s 1 V C 8.h.s.a.S.C.7.Z.G.C.G G  .9.q.|.^.*.#.^ f q % 0 : 0 e p a j S p : 2 @ : @ @ 2 p i w $ g A S A < p p s 2 w g A I s M = n t.F.iXiXiX",
"sXf.S.D.dXgXU.K.sXMXp.G s.!.U.Y.sXF.I.sXK.I.r.J XX` G G.p.` pXq.G ` t.G.iXI.sX!.hX!.L.K.r.t.q.U C 7 U ` 8.a.s.a.S.s.J 8.Z.Z.q._ 9.9.0.C. X*.#.Q r e : 0 : e p p g R j q < : # 2 # $ i p p 0 : A A S g 0 p p s 2 i A A I 5 M 7.` J t.I.I.pX",
"W.f.Y.W.T.gXgXsXgXG._ J E.W.F.f.T.S.S.d.G.y.F.B B |.p.G m C.dXa.N.G.y.Z.t.C.y.C.A.G.I.gXS.r.q._ _ U _ q.t.a.B.r.d.r.J J y.C.C.q.q.p.y.y.oX=.#.E a e 0 0 % a e a j S a 0 w : : : $ : s p p w w A A A g q g p s < p A S j 7 _ t.g.8.J I.I.T.",
"T.sXsXK.U.gXMXgX0.` I.s.sXdXU.S.d.d.h.s.s.r.S.g.M M Z.Z.` ` 7.J pXdXdXdXK.E.r.|.C.8.y.A.iXd.q.q.` ` q.` t.r.S.r.F.8.B J t.p.g.q.q.g.g.y.XXj.#.R a a 0 % 0 r e j j j p w < : 2 < < e g s g < g A A g g e g s p w p Z S R 4 - = m J t.S.I.Y.",
"d.a.a.J.sXdXMXZ.{ 0.K.F.!.dXsXT.U.F.g.g.s.F.S.s.Z.G > G n.XXZ.` q.q.C.0.K.f.a.MXS.4.aXu.q.I.t.0.q.t.t.t.d.8.s.a.h.7.4.J r.0.y.q.t.g.d.s.|.j.&.S h a 0 9 e e d j z g e q w 2 < e h j j p d 0 j j g p g a g s w p d A R ~ N - M ` J 7.S.I.iX",
"J 4.K.F.gX|.u.Z.pXI.4.S.T.Y.J.U.Y.T.F.y.G.F.s.S.F.t.g.0.G G e.XX|.pXpXG.C.s.r.g.4.K.MXy.7.g.y.t.8.t.s.d.h.r.s.s.a.J t.7.r.r.r.4.y.s.s.s.|._.&.z S a 0 q e h h f j a p d p q 0 j ^ E j d d g S g e e g g g p i p d A R Z _ M y.h.F.4.d.iXiX",
"B r.gXgXZ.q.B Z.gX0.t.sXY.F.d.U.K.K.I.F.F.S.S.h.d.d.F.K.U.d.J J J J 0.g.Z.aXaXG.y.Z.t.a.S.y.t.s.t.r.t.s.s.d.S.a.s.5.s.S.a.r.S.4.7.d.d.s.|. X*.Q E e e e d j f j h a f h h e a ^ X.E j h R R S p : e j j g w p s s A R V _ U n B 5.8.t.sXsX",
"4.pXMX|.` Z.iXJ p.0.I.Y.Y.D.S.F.s.F.F.I.S.S.F.d.s.F.h.r.K.sXhXP.T.r.r.r.J B 4.a.pXpXp.J y.C.y.s.S.g.d.r.r.a.h.r.r.5.7.S.a.7.N.r.r.S.B.d.G. X=.O.^ h d r z h S S h z E E z r E #.X.W h Q ( W S p : p j A j e p g s j A Y G ` m y.s.d.F.iX_ ",
"sXMXaX{ Z.G.aXG q.g.U.!.K.D.F.s.t.S.g.I.S.F.d.t.y.d.r.d.K.K.S.f.T.J.!.hXhXf.a.4.B J Z.Z.7.G.t.7.s.s.S.f.d.F.f.a.r.B 4.r.J J a.B.r.t.F.S.A. X/.%.#.! z z Q z E z E ( ( X.Q v X.$.#.Q z X.O.W ^ h : e j S g i g g d d Z 9.7.7.` F.sXiXI._ o ",
"u.|.{ g.aXq.` Z.` J sX!.U.D.K.S.s.S.G.h.F.I.t.r.F.t.r.D.D.s.f.J.B.B.V.Y.P.B.hXdXP.r.m q.Z.g.s.5.4.J s.F.F.d.J.J.f.B J 4.B J a.F.r.r.f.S.C.oX_.<.%.O.Q X.X.Q Q z O.%.$.%.X.$.%.=.$.! Q $.O.#.=.^ < a A A g e g A p p U t.r.J p.J h.g.M o o ",
"o _ p.iXC.` Z.e.> t.dX!.U.sXF.h.d.S.G.h.F.F.d.S.I.s.B.f.V.V.J.J.D.D.T.P.L.L.U.E.W.dXK.m y.Z.` 0.4.4.s.d.S.s.U.gXY.8.J 4.B r.s.S.r.r.S.V.y.XX'.)./.%.$.;.$.X.Q ! <./.<./.%.;./.;.%.( O.;.%./.'.( e h R j g 2 g s w 5 U s.f.J t.8.S.` o o o ",
"o o _ y.p.pXt.G M I.U.D.U.I.F.F.G.d.d.d.F.F.s.d.F.d.U.f.B.J.V.f.f.L.E.sXW.!.V.K.D.sXsXJ.4.Z.M G 7.G.sXr.r.s.D.bXbXF.a.f.B 5.s.d.a.r.S.V.0.|.OX'.'.<.;./.=.<.O.%.'.).)././.(././.=.#.=./.<.'.'.#.a z I s s , 7 , ; 3 7.h.f.5.q.Z.G o o o o ",
"o o o M XXq.7.M G dXS.s.Y.s.d.S.F.S.s.S.G.s.t.d.B.f.B.L.V.s.V.s.J.L.T.W.U.Y.E.V.f.U.W.sXg.y.7.0.M u.C.s.r.r.d.gXI.W.E.Y.5.B r.s.s.r.s.s.4.|.OX.XOX'.'._./.).=./.'.'.'.'.'.'.'.)./.=./.`.`.OXOX*.p h j 4 4 , 3 - O 3 t.h.f.r.7.G o o o o o ",
"o o o o 3 G 0.= y.gXsXY.I.s.S.S.d.S.F.F.F.d.S.S.D.K.B.D.L.L.U.L.U.J.f.J.!.J.E.J.B.F.K.Y.F.` y.J 7.Z.B 0.I.F.D.sXa.U.dXW.f.5.a.D.r.5.a.f.7.|.OX.XOXOX'.'.'.'._.`.OX'.'.'.'.'.'.'._./.'.'.OXOXOX*.2 s s 1 3 - ; - . n a.J.K.t.n o o o o o o ",
"o o o o o - 3 M pXdXU.W.U.I.F.h.F.h.F.S.d.S.K.S.d.d.J.s.D.Y.U.U.U.J.V.J.!.L.P.L.V.J.J.Y.s.g.G m I.F.J 0.g.Z.gXI.5.D.T.gXB.V.r.U.B.a.a.s.7.Z.@XOXOXOXOXOXOXOXOXOXOXOX.X.X.XOX'.'.'.'.OXOXOX:X1X| o 1 4 , , - - O . B f.U.F.M o o o o o o o ",
"o o o o o o O G dXW.Y.W.K.F.F.d.F.h.S.F.h.h.I.F.s.a.B.d.B.S.Y.T.T.J.L.U.!.T.!.D.U.B.U.W.J M t.` ` ` s.pXI.p.XX|.0.K.V.W.5.s.r.r.D.V.d.D.7.p.@XOX1X:X:X:XOXOX:XOXOXOXOXOXOXOXOXOXOXOXOXOX:X:X2X| . ; , ; - - - o o 7.J.F.M o o o o o o o o ",
"o o o o o o o 3 S.Y.sXY.pXI.S.F.h.S.F.s.s.S.I.S.D.U.f.V.V.s.s.J.J.J.J.D.P.P.Y.T.D.r.U.I.8.= M p.0.7.7.pXQ.A.fXp.q.aXMXpX5.B B B s.L.s.V.t.Z.@XOX1X1X1X1XOXOX1X1X1X:X:X:X:XOX:XOXOXOX:X1X1X1X2X'   - - - - - - . n t.t.3 o o o o o o o o o ",
"o o o o o o o o O 0.I.I.sXI.F.F.h.S.s.h.g.S.S.a.S.D.V.D.D.J.J.U.U.T.f.V.U.J.f.W.S.s.D.U.d.J B m J C.C.p.p.I.MXr.g.pX|.aXI.s.d.B B a.s.s.t.|.@XOX1X1X1X1XOXOXOXOX1X1X1X1X1X1X1X:XOXOX1X1X1X1X2XY   - - - - - - = F J O o o o o o o o o o o ",
"o o o o o o o o o o _ sXpXI.I.F.h.S.y.F.F.S.s.d.f.D.V.P.U.T.U.Y.T.V.f.U.L.L.K.S.D.W.D.J.a.r.s.J 7.G t.|.|.y.C.J aXMXaX|.y.A.MXI.J B J a.t.pXkX1X2X1X1X1X1X1X2X2X2X1X1X1X1X1X1X1X1X1X2X2X2X1X@XU   o - - - , 3 = M o o o o o o o o o o o o ",
"o o o o o o o o o o o 6 C.pXI.S.F.F.s.t.S.s.f.D.S.J.D.L.T.J.B.T.P.f.E.!.J.L.J.d.d.K.U.s.8.h.s.r.Y.dXG.J q.pXq.` q.|.aXgX8.8.Z.Z.y.S.4.5.7.aX2X1X2X2X2X1X2X2X2X2X2X2X2X2X2X1X1X2X2X2X2X2X2X2X@XN   o - - 3 3 O o o o o o o o o o o o o o o "
};
