/* XPM */
static char *_6e5233febbe4091d74832e2b62bdfa4HgFhZmOJFo0Hdl8L[] = {
/* columns rows colors chars-per-pixel */
"474 466 256 2 ",
"   c #0A0707",
".  c #0D0A0A",
"X  c #170D0B",
"o  c #120D0C",
"O  c #15100F",
"+  c #1B110E",
"@  c #120F10",
"#  c #151212",
"$  c #1C1413",
"%  c #1C1817",
"&  c #1D1A1A",
"*  c #23130E",
"=  c #221613",
"-  c #261616",
";  c #241915",
":  c #2A1B15",
">  c #231C1B",
",  c #2B1D1A",
"<  c #321E19",
"1  c #25211E",
"2  c #2C211D",
"3  c #32221D",
"4  c #39251C",
"5  c #1E1F22",
"6  c #261E21",
"7  c #252222",
"8  c #2B2422",
"9  c #2D2927",
"0  c #332522",
"q  c #3A2624",
"w  c #342A25",
"e  c #3B2B25",
"r  c #342D2A",
"t  c #3C2C2A",
"y  c #37312B",
"u  c #3C322C",
"i  c #382D32",
"p  c #3C3532",
"a  c #44271D",
"s  c #452C25",
"d  c #432D2B",
"f  c #4E2D2C",
"g  c #44332C",
"h  c #4A342C",
"j  c #55362C",
"k  c #483734",
"l  c #443A34",
"z  c #4C3B34",
"x  c #533B35",
"c  c #583B36",
"v  c #633D36",
"b  c #6F3934",
"n  c #494138",
"m  c #4C433C",
"M  c #594835",
"N  c #53433C",
"B  c #5A443C",
"V  c #64433B",
"C  c #68473C",
"Z  c #74493D",
"A  c #3A3A4E",
"S  c #553D44",
"D  c #554B43",
"F  c #584945",
"G  c #5A4C44",
"H  c #514A4A",
"J  c #5A5147",
"K  c #5C524B",
"L  c #654A45",
"P  c #6C4B43",
"I  c #744D45",
"U  c #67544B",
"Y  c #765546",
"T  c #75544A",
"R  c #7B544B",
"E  c #7C5A4C",
"W  c #6B4D51",
"Q  c #675A54",
"!  c #795954",
"~  c #6D625A",
"^  c #766652",
"/  c #75655B",
"(  c #665968",
")  c #786B64",
"_  c #7D726A",
"`  c #726C72",
"'  c #796978",
"]  c #933A2E",
"[  c #994835",
"{  c #A74E3A",
"}  c #8F5149",
"|  c #87594B",
" . c #835D4C",
".. c #835C53",
"X. c #875B57",
"o. c #8C5C53",
"O. c #955C58",
"+. c #AB5744",
"@. c #A4584D",
"#. c #B55B47",
"$. c #89614D",
"%. c #93654D",
"&. c #846253",
"*. c #8C6454",
"=. c #8B675A",
"-. c #926555",
";. c #946955",
":. c #9B6C55",
">. c #94645B",
",. c #9A655C",
"<. c #946B5B",
"1. c #9B6D5C",
"2. c #87725E",
"3. c #98715B",
"4. c #9C725D",
"5. c #BB624A",
"6. c #AD6D57",
"7. c #A4745B",
"8. c #A7765B",
"9. c #AC795E",
"0. c #8B5E62",
"q. c #886865",
"w. c #966A64",
"e. c #9C6B62",
"r. c #87776B",
"t. c #82756D",
"y. c #9D7362",
"u. c #997568",
"i. c #876C76",
"p. c #857B72",
"a. c #8B7D75",
"s. c #897779",
"d. c #977874",
"f. c #A26C65",
"g. c #A56D69",
"h. c #A37464",
"j. c #A47A65",
"k. c #AC7B62",
"l. c #A57369",
"z. c #AA746C",
"x. c #A57B6A",
"c. c #AB7C6B",
"v. c #B17E64",
"b. c #B27E6A",
"n. c #A97972",
"m. c #C2634A",
"M. c #C36448",
"N. c #C97356",
"B. c #C7785F",
"V. c #8A8177",
"C. c #8E827A",
"Z. c #978874",
"A. c #92847C",
"S. c #95887D",
"D. c #A6816C",
"F. c #AC826C",
"G. c #B48368",
"H. c #B2846C",
"J. c #AB8675",
"K. c #B48974",
"L. c #BA8C74",
"P. c #AA937B",
"I. c #BA927B",
"U. c #CD896F",
"Y. c #D78966",
"T. c #C3947C",
"R. c #7B7389",
"E. c #79728C",
"W. c #6F799E",
"Q. c #867786",
"!. c #907983",
"~. c #837C96",
"^. c #837EA1",
"/. c #7D819B",
"(. c #7A87AA",
"). c #7D91C2",
"_. c #958B82",
"`. c #968985",
"'. c #9A8D84",
"]. c #9C9186",
"[. c #97918A",
"{. c #9D938A",
"}. c #87839B",
"|. c #948E90",
" X c #A1958C",
".X c #A6978C",
"XX c #B99886",
"oX c #B1968C",
"OX c #A59B92",
"+X c #A69A96",
"@X c #A99E95",
"#X c #AAA197",
"$X c #ADA39A",
"%X c #B7A290",
"&X c #B2A59D",
"*X c #B8A69C",
"=X c #8888A6",
"-X c #9796A9",
";X c #8E94B3",
":X c #A39CAA",
">X c #9CA2B7",
",X c #ABA7A6",
"<X c #B5ABA2",
"1X c #BBADA4",
"2X c #B5ACA8",
"3X c #B9B0A8",
"4X c #BCB2AB",
"5X c #A6A6B8",
"6X c #B2AEB6",
"7X c #BAB5B5",
"8X c #C59C86",
"9X c #CE9C8A",
"0X c #C9A28C",
"qX c #C7A696",
"wX c #D5AB95",
"eX c #C9B1A6",
"rX c #C2B5AC",
"tX c #C5B7AD",
"yX c #C5BBB3",
"uX c #CABDB4",
"iX c #C6BCB8",
"pX c #E4B8A1",
"aX c #BFC0B9",
"sX c #DFC2AC",
"dX c #CCC0B7",
"fX c #CDC2BB",
"gX c #D3C4BC",
"hX c #D6C8BD",
"jX c #E8C8B4",
"kX c #98A4C7",
"lX c #B2B6CC",
"zX c #C3BDC6",
"xX c #BBC4D9",
"cX c #C9C5C8",
"vX c #D4C7C0",
"bX c #D6C8C1",
"nX c #DBCCC5",
"mX c #D3CCCB",
"MX c #DECFC8",
"NX c #DBD1C7",
"BX c #DFD1C9",
"VX c #C8C9D7",
"CX c #D0D0D8",
"ZX c #DBDADB",
"AX c #E5D6CA",
"SX c #E2D4CC",
"DX c #E4D7D0",
"FX c #E2E0DF",
"GX c #D1D6E9",
"HX c #DCE4F3",
"JX c #E6E5E6",
"KX c #E5EBF8",
"LX c #EBF5FB",
"PX c #F4F7F9",
"IX c #F4FCFD",
"UX c #FBFEFD",
/* pixels */
" X X X X X X X]. X]. X X].]. X X'.'.'.'.'.'.'.'._.S.S.A.A.a.C.A._ Q K Q ) ) ) _ t.t.p.t.t.t.r.p.p.p.p.p.a.a.p.p.a.a.a.a.p.a.a.a.a.a.a.a.a.A.a.a.a.a.a.a.a.a.a.A.A.a.a.C.a.p./ Q Q D G ) _ Q K K K K K K K K K Q Q Q ) @XrX4X4X4XrXrXrXrXrXrXrXrXrXrXtXrXtXrXtXtXtXtXtXtXyXtXtXtXtXyXuXyXuXuXtXuXuXuXyXtXtXuXuXuXuXuXuXuXuXuXuXuXuXuXuXuXuXuXuXuXuXuXuXuXuXdXuXuXuXuXuXuXuXdXgXdXuXdXdXdXuXdXgXdXuXuXuXuXdXdXgXgXdXgXgXuXuXdXdXdXdXdXgXgXgXgXdXgXgXgXgXgXgXgXgXgXgXgXgXgXgXgXvXvXgXgXgXgXgXgXvXvXvXgXgXgXgXgXgXbXbXbXvXvXgXgXbXvXvXvXnXbXgXgXvXbXbXvXbXvXbXbXMXbXbXbXbXbXvXvXbXvXgXnXbXbXnXbXnXnXMXbXbXnXbXbXvXbXbXvXbXbXnXbXnXnXMXnXnXnXnXnXnXnXnXnXnXvXbXnXMXbXbXnXbXbXbXvXgXvXgXgXgXgXvXgXvXgXgXgXgXgXdXgXgXgXgXuXuXtXrXrXtXeXrXrXrXrXrXeXeXeX1XrXrXrXrXrXeXrXeX1XeXeXrXrX1X1XeX1X1X1X1X1X1X1X1X1X1X1X1X*X&X&X&X&X&X&X*X<X<X1X1X1X1X1X1X1X1X1X1X1X1X1X3X1X1X1X<X<X1X1X1X1X1X1X*X&X&X@X@XOX X{.'. X.XOX$X<X<X1X1X1X3X3X4X4XyXyXyXyXyXyXyXuXdXdXuXyXyXiXuXdXiXyXyXiXdXdXuXdXdXyXuXuX",
" X{.{. X X X X].].'. X'.].'.]. X].'.'.'.'.'.'.'.S.S.A.A.C.a.A.a.) Q K Q ) ) ) t.t.r.p.t.t.r.p.p.p.p.t.p.a.a.p.p.a.a.p.a.a.a.a.a.a.a.A.a.a.a.a.a.a.a.a.A.A.a.A.A.A.A.a.a.p._ Q Q Q G Q t.) K K K K K K K K K K Q Q Q Q a.1XrX3XrXrXrXtXrXrXrXrXrXrXtXtXtXtXtXrXtXtXtXyXtXyXtXrXtXtXuXuXyXuXuXtXuXuXuXuXuXuXuXtXtXuXtXuXyXuXuXuXuXuXuXuXuXuXuXuXuXuXuXuXuXuXdXuXuXuXdXuXdXuXuXdXuXuXdXgXuXuXuXuXuXuXdXdXuXdXuXdXdXuXgXdXdXgXgXdXgXgXgXgXgXgXdXuXgXgXgXgXgXgXgXgXgXgXgXgXgXgXvXbXvXvXgXgXgXgXvXgXgXvXgXgXvXbXgXgXvXgXvXbXbXvXvXbXvXvXbXbXgXgXvXvXvXgXgXvXbXvXvXbXbXvXvXvXbXvXvXbXgXgXnXbXbXMXnXnXnXMXnXbXbXbXnXbXnXbXbXMXMXnXnXnXMXMXMXnXnXMXnXbXnXbXnXnXvXbXMXMXvXbXMXbXvXbXbXvXbXvXgXgXgXvXgXvXgXgXgXuXdXgXhXgXuXuXtXtXtXtXeXtXtXrXrXrXrXeXeXrXeX1X1XeX1XeXeX1XrXrX1XrXeXeXeXeXeXrXeXeX1X1XeX1X1X1X1X1X1X<X*X<X*X&X&X&X&X*X*X*X1X1X1X<X1X1X1X1X1X1X1X1X1X1X1X1X1X1X1X1X1X1X1X<X1X&X&X&X$X@X@X X].].{. X X@X@X&X1X1X1X1X1X3X4XyXyXyXyXyXyXiXuXuXuXuXuXuXuXdXfXuXuXdXuXiXiXdXfXdXyXdXdX",
" X X X X X X X X X].'.'.]. X X'.'.'.'.'.'.'.'.'._.S.A.a.a.A.A.p.Q K Q Q ) _ _ _ t.r.p.r.t.t.r.r.p.p.p.a.a.a.a.p.a.p.a.a.p.a.a.a.a.a.a.a.a.a.a.A.a.a.A.A.a.a.a.A.a.a.a.a.t.~ Q / K U ) a.Q G G K K K K K K K K Q Q U Q ~ '.rX1X3XrXrXrXrXrXrXrXrXtXtXtXrXrXrXtXtXtXtXtXtXtXtXtXyXuXuXyXtXuXtXuXuXuXuXuXuXuXuXuXuXuXuXuXuXuXuXtXuXuXuXuXuXuXuXuXuXuXuXuXuXuXuXdXdXuXuXuXgXgXuXuXuXuXuXgXuXuXdXuXdXdXdXgXgXgXgXdXdXuXgXgXgXgXgXgXgXgXgXgXgXuXgXgXgXgXgXgXgXgXgXgXgXgXgXgXgXgXgXgXvXgXgXgXgXgXgXbXbXgXgXgXvXgXbXbXbXvXvXbXvXbXbXvXbXvXbXvXgXgXgXvXvXbXbXbXbXnXbXgXvXgXvXgXbXbXbXnXbXbXbXvXbXnXbXnXMXMXMXnXnXnXnXnXbXbXnXMXMXbXbXnXnXnXnXnXbXnXnXMXnXnXnXbXbXbXbXbXbXvXbXvXbXbXvXvXgXgXgXgXvXgXgXvXvXgXgXgXuXuXuXuXuXuXtXrXrXeXeXeXrXrXrXrXrXeXeXrXeXrXeXeXeXrXrXrXeX1X1X1X1X1XeX1X1X1X1X1X1X1X1X1X1X1X1X1X1X1X1X1X*X&X&X&X&X&X*X1X1X1X1X1X1X1X1X1X1X1X3X1X1X1X1X1X1X1X1X1X1X1X1X1X1X<X&X&X&X$X@X@X X X{.{. X.X@X&X&X<X1X1X<X1X4XrXrXrXyXyXyXyXiXuXuXuXiXiXdXdXdXdXiXiXuXiXdXfXdXdXiXuXdX",
" X X X X X X]. X X X'.]. X X].'.'.'.'.'.'.'.'.'._.A.A.A.A.A.A._ Q K Q / ) _ t.t.t.t.r.t.t.r.r.p.p.p.a.p.a.a.a.a.a.a.a.a.p.a.a.a.a.a.a.a.a.A.a.a.a.a.A.a.a.a.a.a.a.a.a.a._ Q Q U n Q p.t.Q K K K K K K K K K K Q K K U Q ) &XrXrXrXrXrXrXrXrXrXrXtXtXtXrXrXrXtXrXtXyXtXtXtXtXuXuXuXtXtXuXtXtXtXuXtXtXuXuXtXtXuXuXuXuXuXuXuXuXuXuXuXuXuXuXdXuXuXuXuXuXuXuXdXuXuXdXuXuXuXdXgXuXuXuXdXdXdXdXdXuXuXdXdXuXdXgXdXgXdXuXdXdXgXgXgXgXdXdXgXgXgXgXdXgXgXgXgXgXgXgXgXgXgXgXgXgXgXgXgXgXgXgXgXgXgXvXgXgXbXbXgXgXgXvXgXvXbXvXvXvXgXgXvXbXgXvXgXvXgXgXvXvXbXgXvXbXbXbXnXbXbXbXvXbXbXnXbXbXMXnXnXnXbXbXbXbXbXMXMXnXnXnXMXMXnXnXnXbXnXbXvXbXnXnXnXnXbXbXbXnXnXnXnXbXbXnXbXvXbXbXbXbXvXnXbXbXbXgXgXgXgXbXgXgXvXvXgXgXgXuXuXuXuXuXuXtXrXeXeXrXrXrXrXeXrXrXeXeXeXeXeXrXrXrXeXrXrX1X1X1X1X1X1X1X1X1X1X1X1X1X1X*X1X1X1X1X1X1X1X1X1X&X*X&X&X&X&X&X*X<X<X1X1X1X1X1X1X1X<X1X<X1X1X1X1X3X1X1X1X1X1X<X<X<X&X&X&X&X&X$X@XOX X X].{. X.X@X$X&X1X1X1X1X4X4X4X4XrXyXyXyXuXdXuXdXyXyXuXuXuXuXiXiXiXyXuXfXdXuXuXiXuX",
" X X X X X X X X X X X X'.].'.'.'.'.'.'.'.'.'.'._.S.A.A.A.A.a./ K U Q ) ) _ t.t.t.t.t.t.r.p.p.p.p.p.p.p.a.a.a.p.a.a.a.a.a.a.a.a.a.a.a.a.a.a.a.a.A.a.a.C.a.a.a.a.a.a.a.a./ Q Q D G / t.~ J G G G J K K K K K K K K U U U U V.1XrXrXrXrXrXrXtXtXrXtXtXtXtXtXrXrXtXtXuXtXyXyXtXtXtXtXtXtXtXtXtXyXuXuXuXuXuXtXtXuXuXuXuXuXuXuXuXuXuXuXuXuXuXuXuXuXuXuXuXuXuXdXuXuXuXuXuXuXuXuXuXuXdXdXdXuXgXgXuXdXuXdXgXgXgXgXgXuXuXuXdXgXdXgXgXgXgXgXgXgXgXgXgXgXgXgXgXgXgXgXgXgXgXgXgXgXgXgXgXgXgXgXgXgXvXvXvXgXvXgXgXvXbXvXbXbXvXgXvXvXvXbXbXvXvXgXbXgXgXvXbXvXgXgXvXvXbXbXbXbXbXbXMXnXnXbXnXMXMXMXMXnXnXvXvXbXnXnXnXbXbXnXMXMXnXnXnXnXbXbXbXnXMXnXMXbXbXbXbXnXbXbXvXbXnXbXvXbXbXbXvXvXnXbXvXbXvXgXgXvXbXgXgXgXgXuXgXdXuXuXuXuXuXtXtXrXrXrXrXrXeXeXeXeXeXeXeXrXeXeXrXeXrXrXeX1X1X1XeXrX1X1X1X1X1X1X1XeX1X1X*X1X1X1X1X1X<X1X1X1X<X1X*X&X&X&X&X&X*X<X<X1X1X<X1X1X1X1X1X<X1X1X1X1X3X1X1X1X1X1X1X<X1X*X&X&X&X&X&X$X@X@X X{.'.'. X@X@X&X*X1X3X3X4X3X3X4X4XyXyXyXyXiXiXiXiXyXdXdXdXdXfXdXiXyXiXfXdXuXuXuXdX",
" X X X]. X X X X X X X X X'.].'.'.'.'.'.'.'.'.'._.A.A.A.A.a.t.Q U U ~ ) ) _ t.t.t.t.r.t.p.p.p.p.p.p.a.a.a.a.a.a.a.a.a.a.a.a.a.a.a.a.a.a.a.a.a.a.A.a.a.a.a.a.A.a.a.a.a.t.Q ~ K N ~ ) ) K D G D K J J J K K K K Q Q U U Q U Q '.rXrXrXrXrXrXtXtXrXrXrXtXtXtXtXtXrXtXtXtXtXtXtXtXyXuXtXtXuXtXtXtXyXuXuXuXuXuXuXuXuXuXuXuXuXuXuXuXuXuXuXuXuXuXuXuXuXuXuXuXdXuXuXdXuXdXgXuXuXuXuXdXgXgXuXuXgXgXdXdXuXdXgXgXgXgXgXuXuXuXuXdXdXgXgXgXgXgXgXgXgXgXgXgXgXgXgXgXgXgXgXgXgXgXgXgXvXgXgXvXgXgXgXvXgXgXgXgXgXgXgXvXbXvXbXnXbXbXbXbXbXnXnXgXbXgXvXbXbXvXgXgXgXvXbXbXMXbXgXbXbXbXnXMXMXnXMXMXMXMXnXbXnXbXbXnXnXMXMXnXnXMXnXnXnXMXMXbXbXnXnXMXMXMXMXnXnXMXnXMXnXnXbXbXbXbXvXbXnXnXvXgXbXbXgXbXbXvXvXbXbXgXgXvXgXgXgXuXuXdXuXeXeXeXeXrXrXrXeXeXeXeXeXeXeXeXeXrXeXeXeX1XeXeX1X1X1X1XeX1XeX1X1X1X1X1X1X1X1X1X1X1X1X1X1X1X1X1X1X1X1X1X1X*X&X&X&X&X*X*X<X1X1X1X1X1X1X1X1X1X1X3X1X1X1X1X3X1X1X1X1X<X1X<X*X&X&X&X&X&X@X@XOX X{.{.{. X@X@X&X<X3X1X1X1X4X4X4XyXyXyXiXyXyXdXiXdXyXyXyXuXdXuXyXyXfXdXfXdXuXuXdX",
" X X X X X X X X X X X X].].'.'.'.'.'.'.'.'.'.'._.S.A.A.a.a.) Q U Q ) _ _ _ t.t.t.t.r.r.r.r.p.p.p.p.p.p.p.p.p.p.a.a.a.a.a.a.a.a.a.a.C.C.C.A.a.a.A.a.a.A.A.a.a.a.a.a.a./ Q ~ D N / t.~ N D D K J K K J K K K K K K U U U U J / @XtXrXrXrXrXtXtXrXrXtXyXtXyXtXtXtXtXtXyXtXyXtXuXuXuXuXtXuXuXuXuXuXuXyXtXuXuXuXuXuXuXuXuXuXuXuXuXuXuXuXuXuXuXuXuXuXuXuXuXuXuXuXuXdXdXgXgXuXuXgXgXgXdXdXdXdXdXgXgXdXgXgXgXgXuXuXuXuXuXdXgXgXgXgXgXgXgXgXgXgXgXgXgXgXgXgXgXgXgXgXgXgXgXgXgXgXgXvXvXvXgXgXgXgXgXgXgXvXvXgXbXbXbXbXbXbXbXbXbXbXbXbXvXgXgXvXbXbXvXgXbXbXbXbXnXbXbXbXbXvXbXnXMXnXbXbXnXnXnXnXnXMXbXvXbXMXMXnXnXbXMXMXnXbXbXnXbXbXbXbXnXnXbXnXnXnXnXnXnXMXMXnXnXnXnXbXbXnXbXgXgXvXbXbXbXbXbXvXvXbXbXgXgXgXgXdXuXuXuXtXrXrXeXeX1X*X*XeXeXeX1X1XeX1X1X1XeXrX1X1X1X1XeXeX1X1X1X1XeXeX1X1X1X1XeXeX1X1X1XeX1X1X1X1X1X1X1X*X*X<X<X<X1X&X&X&X&X&X&X&X*X*X1X1X1X1X1X1X<X1X1X1X1X1X1X1X1X1X1X<X1X1X1X<X&X&X&X&X&X$X$X@X X X'.'.{. X@X#X<X<X1X<X1X3X4X4XyXyXyXyXyXyXiXiXuXyXyXiXdXdXyXyXuXfXdXuXiXdXuXiX",
" X X X X X X X X X X X].'.'.'.'.'.'.'.S.'.'.'.S.S.S.A.C.a.a./ K U Q ) _ _ t.t.t.t.t.t.t.p.p.p.p.p.r.p.p.p.p.a.a.a.a.a.a.a.a.a.a.a.A.A.A.A.A.a.a.A.A.C.A.A.A.C.C.a.A.p.Q Q Q N K ) _ U m D D K D J K J K K K K K K K Q K K U J t.1XrX3XrXrXrXrXtXrXtXyXtXtXtXtXyXtXtXtXtXyXtXtXuXuXuXuXuXuXuXuXuXuXtXtXuXuXuXuXuXuXuXuXuXuXuXuXuXuXuXuXuXuXuXuXuXuXuXuXdXuXuXuXuXuXdXgXdXuXgXgXdXgXgXdXdXuXdXgXgXgXgXgXdXuXuXdXgXgXuXdXgXgXgXgXgXgXgXgXgXgXgXgXgXgXhXgXgXgXgXgXgXgXgXgXvXgXgXgXgXgXgXgXgXgXgXgXbXbXvXbXbXbXgXvXbXbXbXbXnXbXvXbXbXgXbXgXgXgXgXvXgXgXvXbXvXbXbXbXbXbXbXnXnXnXbXbXbXbXbXMXMXnXnXnXnXbXbXnXnXMXMXnXbXbXnXnXnXnXbXnXnXbXnXnXvXvXbXbXMXMXnXnXnXMXhXgXhXbXbXvXbXbXbXbXbXgXhXhXbXhXgXgXgXgXgXuXuXtXrXrXrXeXeX*X*X*XeX*X*X1X1X1X1X1X1XeXeX1X1X1XeXeXeX1X1X1XeXeX1X1X1X1X1X1X1X1XeX1X1X1X1X1X1X1X1X*X*X*X*X*X1X1X&X&X&X<X&X&X&X&X&X&X<X1X1X1X1X*X1X1X1X1X1X1X<X1X1X1X<X1X1X1X<X<X<X<X&X&X&X$X@X@X X X].'.{..X@X$X<X<X<X1X3X4X4XrXyXrXyXyXyXyXuXiXuXiXiXdXdXuXdXdXdXfXiXiXfXdXiX",
" X X X X X X X X X]. X].'.].'.'.'.'.'.'.'.'.'.S.S.A.A.a.C.t.Q K Q / ) _ t.t.t.t.t.t.t.t.p.p.p.p.p.p.p.a.a.a.a.a.a.a.a.a.A.a.a.a.a.a.A.a.C.a.a.a.a.a.a.C.A.a.a.C.C.C.) Q Q G D ~ _ / J m D D D D D K D K K K K K K K K U K U J J '.rXrXrXtXrXtXrXrXtXtXtXuXtXtXtXtXtXyXtXtXtXtXuXuXuXuXuXuXuXuXuXuXuXuXuXuXuXuXuXuXuXuXuXuXuXuXuXuXuXuXuXuXuXuXuXuXuXuXdXuXuXuXuXdXgXgXgXdXuXuXuXdXgXdXgXdXgXgXdXgXgXdXgXgXdXdXgXgXgXgXgXgXuXuXgXgXgXgXgXgXgXgXgXgXgXgXgXgXgXgXgXgXgXgXvXgXgXvXgXvXbXgXgXgXgXgXbXgXgXbXbXbXvXbXbXbXvXbXbXnXbXbXbXgXbXnXbXgXvXvXgXgXvXvXvXbXnXbXvXbXbXbXMXnXbXvXbXnXbXnXMXMXBXMXbXbXnXMXMXMXMXnXnXnXMXbXnXnXnXnXnXbXbXnXbXbXbXnXnXnXnXbXnXnXhXgXhXnXbXhXhXbXhXgXgXgXhXhXgXgXdXgXuXdXgXuXeXeXrXeXeXeXqXqXqX*XeXeXeXeXeXeXeXeX1X1X1X1X1X1XeXeX1X*X1XeX1X1X1X1X1X1X1X1X1X1X1X1XeX1X1X1X1X1X1X*X*X*X<X1X1X*X&X&X&X&X&X&X&X*X*X<X1X1X1X1X1X1X1X1X1X1X1X1X1X1X1X1X1X1X1X1X<X<X<X<X<X&X&X$X$X@X@X X X'.'. XOX@X$X&X<X<X1X3X4X4XyXrXrXyXyXyXyXyXyXyXiXuXuXiXdXfXfXdXdXdXdXdXdX",
" X X X X X X X X X X X].'.'.'.'.'.'.'.'.'._.S.S.S.A.A.C.a.) Q U Q ) ) ) _ t.t.t.t.t.t.t.p.p.p.p.a.a.a.a.a.a.a.a.a.a.a.a.a.a.a.a.a.a.A.a.A.A.a.a.A.A.a.A.A.a.A.a.a.p./ Q Q N K _ ) U J D D D D J K K K K K K K K K K K K K K K B Q $XrXrXrXrXrXrXrXtXyXtXtXtXtXtXtXtXtXtXtXtXtXuXuXuXyXyXuXuXuXuXuXuXuXuXuXuXuXuXuXuXuXuXuXuXuXuXgXuXuXuXuXuXuXuXuXuXuXuXuXuXdXgXdXuXdXgXdXuXuXdXgXgXgXgXdXgXgXgXgXgXdXgXgXgXuXdXgXgXgXgXgXgXgXgXgXgXgXgXgXgXgXgXgXgXgXgXgXgXgXgXgXvXgXvXgXgXgXgXgXgXbXvXbXbXgXbXgXgXgXvXvXbXbXbXvXvXbXgXbXbXgXbXvXgXMXnXgXgXvXvXbXbXgXgXbXnXnXnXnXnXnXnXnXbXbXnXnXbXnXnXMXMXMXnXnXnXMXMXMXMXnXMXSXnXbXbXMXnXnXbXbXnXnXMXbXnXnXnXnXnXhXhXhXgXgXhXvXgXhXhXbXgXgXhXgXgXgXuXuXuXuXpXeXeXeXqXqXqX*X*X*XqXqXqXeXeXeX1XeX1XeX1X*X1X1X1X1X1X1XeXeX1X1X1X1X1XeX1X*X1XeX1XeXeXeXeX1XeX1X*X1X1X1X1X1X*X*X1X1X1X1X&X<X1X&X&X&X&X&X&X<X1X1X<X<X1X1X1X1X1X1X1X1X1X1X1X1X1X1X1X1X1X<X<X<X<X<X&X&X&X$X@XOX X{.'.'. XOX@X$X&X<X<X1X4X4XrX4X4XrXrXyXyXyXyXyXuXuXdXdXdXdXfXuXuXdXuXdXdX",
" X X X X X X]. X X].].'.].'.'.'.'.'.'.'.'.S.S.S.S.A.A.a.t.Q K Q / ) _ _ t.t.t.t.t.t.t.t.p.p.p.a.a.a.a.a.a.a.a.a.a.a.a.a.a.a.a.a.a.A.A.A.A.C.A.A.A.A.C.A.A.C.A.a.a._ Q Q U N ~ t.~ D K J D D D J K K K K K K K K K K K K K K G G G t.3XtXrXrXtXtXrXtXtXtXtXtXtXtXtXyXtXyXtXtXyXuXuXuXuXuXuXuXuXuXuXuXuXuXuXuXuXuXuXuXuXuXuXuXuXuXdXuXuXuXuXuXuXuXuXuXuXuXdXdXgXgXdXuXdXgXdXuXdXgXgXgXgXgXgXgXgXgXgXgXdXgXgXgXgXgXgXgXgXgXgXgXgXgXgXgXgXgXgXgXgXhXgXgXgXgXgXgXgXgXgXvXvXgXvXvXgXgXgXgXvXvXvXvXvXvXgXgXvXvXvXbXbXbXbXbXbXgXgXvXbXbXbXbXbXbXvXgXgXvXbXbXvXgXbXnXnXnXMXnXnXnXnXnXMXMXnXbXbXnXnXbXnXMXMXMXMXnXnXnXbXnXMXMXbXbXnXMXMXnXbXnXnXbXvXvXvXvXnXbXgXgXgXgXgXgXgXgXgXbXbXvXgXgXsXpXpXwXwXwX0X9X8X8XT.8X8XqXqX*X*X*XqXqXqXeXeXeXeX1X1X*X*X1X1X1X1X1X1X1X1XeXeX1X1X1X1X1X1X1X1X1X1X1X1X1X1X1X1X1X1X1X1X1X1X1X*X1X1X1X1X*X1X1X&X&X&X&X&X&X*X1X1X1X<X1X1X1X1X1X1X1X1X1X1X1X1X1X1X1X1X<X<X<X1X<X<X&X&X&X&X#X@XOX X].'.{. XOX#X&X<X<X1X3X4X4X4X4XrXrXyXyXyXyXuXdXuXuXuXuXdXuXiXiXiXiXyXuX",
" X X X X X]. X'.'.'. X].].].].'.'.'.'.'.'.S.S.S.S.A.a.a.) U K Q ) t.t.t.t.t.t.t.r.t.t.r.r.a.p.p.p.a.p.a.a.a.a.p.a.a.a.a.a.a.A.a.a.a.a.A.A.A.a.A.a.a.C.A.C.a.a.a.a./ U Q G G ) t.Q D D D D D D D J K K K K K K K K K K K K K K K G G '.uXtXtXtXtXtXtXtXtXtXtXyXyXtXyXuXyXtXuXuXuXtXyXuXuXuXuXuXuXuXuXuXuXuXuXuXuXuXuXuXuXuXuXuXuXgXuXuXuXdXuXuXuXuXuXuXuXdXuXuXuXdXgXdXgXdXuXdXgXgXgXgXgXgXgXgXgXdXgXgXdXgXgXdXgXgXgXgXdXgXgXgXgXgXgXgXhXgXgXhXgXgXgXgXgXgXgXgXgXgXgXgXvXgXgXgXvXbXbXvXgXgXbXbXbXvXgXbXgXgXvXvXbXbXbXbXbXbXbXbXbXbXbXbXnXnXgXgXgXvXbXnXvXvXMXbXMXMXMXnXMXMXMXMXnXnXnXnXnXnXnXbXnXMXMXnXnXbXbXnXnXnXMXnXnXbXnXMXnXbXnXbXvXvXnXbXhXjXuXpXpXeXeXeXeXuXjXhXgXgXgXhXsXpXwXT.b.v.b.b.b.B.v.v.6.K.8X8XqX*X*X*X*X*X*X*X*X*X1X1X*X*X1X1X1XeX1X1X*X*XeXeXeXeX1X1XeX1X1X1X1X1X*X*X1X*X1X1X1X1X1X1X1X1X1X1X1X1X<X1X1X<X*X<X&X&X&X&X&X<X*X<X1X1X1X1X1X<X1X1X1X1X1X1X1X1X1X1X1X1X<X<X<X1X<X<X<X<X&X&X&X#X@X.X X'.].{.{.OX$X&X<X<X3X3X3X4X4XrXyXrXyXiXyXdXfXiXyXiXdXdXuXyXiXiXiXyXdX",
" X X X X X X X X X X X].'.'.'.'.'.'.'.'.'._.S.S.S.A.C.a./ K U Q ) t.t.t.t.t.t.t.t.t.r.p.p.a.p.p.p.p.a.a.a.a.a.a.a.a.a.a.a.a.a.a.A.a.a.a.a.a.C.a.A.a.C.A.A.C.C.A.t.U Q U G Q _ ) J D D K K J D K K K K K K K K K K K K K K K K G J K Q &XyXrXtXtXtXtXyXtXyXtXtXtXtXtXtXtXtXtXyXuXuXuXuXuXuXuXuXuXuXuXuXuXuXuXuXuXuXuXuXuXuXdXuXuXuXuXuXuXuXuXuXuXdXgXdXgXuXuXuXgXgXdXdXdXdXuXuXgXdXgXgXgXgXdXdXgXgXgXgXgXgXgXgXgXgXdXgXgXgXgXgXgXgXgXgXgXgXgXgXgXgXgXgXgXgXgXgXgXgXgXvXvXgXgXgXvXbXbXbXgXgXvXgXbXvXbXbXbXvXbXbXbXbXbXvXbXbXbXbXbXbXbXbXMXnXvXgXvXbXbXbXMXnXnXnXnXnXnXbXnXbXnXnXbXnXnXbXnXnXnXnXMXnXnXnXMXnXnXMXMXnXbXnXnXnXMXMXnXbXbXbXbXnXhXnXsX0XT.L.U.T.T.L.8XwXpXpXeXeXeXpXpX9XG.6.{ { +.5.6.N.5.5.5.6.v.T.8XqX*X*X*X*X*X*X*XqXeX1XqX1X1X1X1X1X1X1X1X1X1X1X1X1X1X1X1X1X1X1X1X1X1X*X*X*X*X1X1X1X*X*X1X1X1X1X1X1X1X1X1X1X<X<X&X&X&X&X&X*X&X*X<X1X1X1X1X1X1X1X1X1X1X1X1X1X1X1X1X1X1X<X1X1X<X<X<X<X&X&X&X$X@X@X X].'.{.{. X@X$X&X<X1X3X4X4X3X4X4XrXyXyXfXdXiXiXuXdXfXfXuXiXuXiXuXiXfX",
" X X X X X X X X X X].'.'.'.'.'.'.'.'.'._.S.S.S.A.A.A.p.Q U Q / ) _ t.t.t.t.t.t.t.r.p.p.p.a.a.a.a.p.a.a.a.a.a.a.a.a.a.a.a.a.A.a.A.a.a.a.a.a.a.a.A.a.a.a.A.A.A.A./ U Q K K ) _ Q D D D K K K K K K K K K K K K K K K K K K D D D D K G p.rXrXrXtXyXyXyXyXyXtXyXyXtXyXyXtXtXyXyXuXtXtXuXuXuXuXuXuXuXuXuXuXuXuXuXuXuXuXuXuXuXdXuXuXuXuXuXgXuXuXuXuXdXgXgXgXdXuXuXgXgXdXdXdXdXdXgXdXdXdXgXgXgXgXgXgXgXgXgXgXgXgXgXgXgXgXgXgXgXgXgXgXgXgXgXgXgXgXgXhXhXgXgXgXgXgXgXgXgXgXgXgXgXgXgXvXvXvXvXvXgXgXvXbXbXbXnXbXbXbXbXbXbXMXbXbXMXbXbXnXnXbXbXnXnXbXbXbXbXbXbXnXnXbXnXnXnXbXbXnXnXMXMXbXnXnXnXnXnXnXbXnXnXMXnXMXnXnXMXMXnXbXnXMXMXMXMXnXbXbXbXbXhXhXsX9Xv.6.6.5.5.6.6.B.U.U.U.T.U.U.U.U.B.6.5.#.+.{ +.5.5.5.5.5.5.6.v.L.XX%X%X*X*X*XqXqXqXqX*X*X*X1X1X1X1XeXeX1X1X1X1X1X1X1XeX1X1X1X1X1X1X1X1XeX1X*X1X1XeX1X1X1X1X1X1X1X1X1X1X1X1X1X1X<X*X&X&X&X&X&X&X*X1X1X1X1X1X1X1X1X3X1X1X1X1X1X1X1X1X1X1X1X1X1X<X<X<X<X&X&X&X&X@XOX X{.'.].{. X@X$X&X<X1X3X4X1X3X4X4XrXyXuXuXyXyXuXuXuXiXyXuXuXuXuXdXfX",
" X X X X X X X].].].].'.'.'.'.'.'.'.'.'.S.S.S.A.A.A.C._ U U Q ) ) ) t.t.t.t.t.t.p.p.p.t.p.a.a.a.a.a.a.p.p.a.a.a.a.a.a.a.a.a.A.a.a.a.a.C.A.A.A.A.A.C.A.A.C.a.a.t.U U Q D K ) ) J D G G D K G D K K K K K K K K K K K K K K D D D D J K J '.tXtXtXuXtXtXtXtXuXuXuXuXuXyXyXtXuXuXuXuXuXuXuXuXuXuXuXuXuXuXuXuXuXuXuXuXuXuXuXuXuXuXuXdXuXuXgXdXuXuXuXdXgXgXgXdXdXuXuXuXgXdXdXgXgXgXgXdXdXgXgXgXgXgXgXgXgXgXgXgXdXgXgXgXgXgXgXgXgXgXgXgXgXgXgXgXgXgXgXgXgXgXgXgXgXgXbXgXgXgXgXvXgXgXgXgXgXvXgXgXgXvXbXbXvXnXbXbXbXbXbXnXnXvXbXMXbXbXnXnXbXvXbXnXvXbXMXnXMXbXbXnXbXMXMXbXbXnXMXMXMXMXnXbXnXbXnXbXbXbXbXnXnXbXbXbXnXMXMXMXMXMXMXMXnXMXnXbXMXMXMXhXpX9Xb.N.N.5.5.5.5.5.6.6.6.6.6.6.6.6.6.6.5.#.#.#.{ { +.#.5.5.#.5.5.6.b.XXXX%XqXqX*XqX*X*X*X*X*X*X1X*X1X1X1XeX1X1X1XeXeX1X1X1X1XeX1X*X1X1X1X1XeX1X1X1X1X1X1X*X1X1X1X1X1X1X1X1X1X1X1X1X*X&X&X&X&X&X&X&X*X<X1X1X1X<X1X1X1X1X1X1X1X1X1X<X1X4X1X1X1X<X1X1X<X<X<X<X&X&X&X@X@X@X.X'.`.].{.OX#X$X<X<X1X1X3X4X4X4X4XyXyXuXiXuXuXuXiXyXyXdXdXdXdXfXdX",
" X].]. X X X]. X].].].].'.'.'.'.'.'.'.S.S.A.A.A.C.C.p./ K K ~ ) ) ) t.t.t.t.t.t.p.p.p.p.p.a.p.a.a.a.a.a.a.a.a.a.a.a.a.A.A.A.A.a.A.a.a.a.A.A.A.A.A.A.a.A.a.a.a.) Q Q K D ~ _ Q D D D K D D D K K K K K K K K K K K G K K K K D D D K K D Q &XuXrXyXtXtXyXyXtXtXuXuXuXuXtXtXuXuXuXuXuXuXuXuXuXuXuXuXuXuXuXuXuXuXdXdXuXuXuXuXdXuXuXdXuXdXdXdXdXuXuXdXgXdXgXuXuXuXuXuXdXgXgXgXgXgXgXgXgXgXgXdXgXgXdXgXgXgXgXgXdXgXgXgXgXgXgXgXgXgXgXgXgXgXgXgXgXgXgXgXvXgXgXgXvXgXgXgXgXgXvXvXgXgXgXgXvXvXvXvXgXvXbXMXMXnXnXbXbXbXbXbXbXbXnXMXbXbXbXbXbXbXbXnXnXbXMXMXbXbXMXnXbXbXbXnXbXnXvXvXbXbXbXnXnXbXbXbXnXMXbXnXMXMXnXnXnXnXnXnXnXnXnXnXnXMXnXnXnXhXjXwXU.B.5.5.5.#.{ #.5.5.5.5.6.6.5.5.5.5.5.5.5.5.+.#.+.{ { +.#.#.#.5.#.#.6.b.I.XX%X%X*X*X1X*XqX*X*X*X*X*X1X*X1X*X*X1X1XeX1X1X1X1X1XeXeX1X1X1X1X1X1X1X*X1X1X1X1X1X1X1X1X1X1X1X1X1X1X1X1X1X<X*X&X&X&X&X&X&X&X*X1X1X1X*X1X1X1X1X1X1X1X1X2X1X<X3X1X1X1X<X<X<X<X<X<X<X<X<X&X$X#XOXOX{.'.].{. XOX#X&X<X<X1X3X4X4X3XyXyXyXyXyXyXdXuXiXuXiXdXdXdXdXiXiX",
" X'.]. X X].'.'.].].].'.'.'.'.'.'.'.'.S.S.A.A.a.V.V._ Q K U ) ) ) t.t.t.p.t.t.p.p.p.p.p.p.a.a.a.a.a.a.a.a.a.A.a.a.a.a.A.A.A.a.a.A.a.a.a.A.A.A.a.A.a.A.a.a.A.t.Q Q U K Q ) ) K D D D D D G K K K K K K K K K D K K G K K J H D H H K K m z t.rXtXrXyXtXyXyXtXtXtXuXuXuXuXuXuXuXtXuXuXuXuXuXuXuXuXuXuXuXuXuXuXuXdXuXuXuXuXuXuXuXuXdXdXdXdXgXgXdXuXdXdXdXdXuXuXuXdXdXuXgXgXgXgXdXgXgXgXgXgXgXgXgXgXgXgXgXgXgXgXgXgXgXgXgXgXgXgXgXgXgXgXvXgXgXgXgXvXvXgXgXgXgXvXvXbXbXbXvXgXgXgXgXgXgXgXgXgXvXbXbXbXbXnXnXbXbXbXbXMXnXbXbXnXMXbXnXbXbXbXbXbXnXMXbXnXbXvXbXMXMXnXbXnXnXnXnXMXMXnXnXnXMXMXnXnXMXMXnXbXbXnXnXnXbXnXnXnXnXMXMXMXMXnXnXnXvXhXjXwXB.N.5.#.#.#.{ { { #.#.5.5.5.6.6.5.5.5.5.5.5.5.5.@.+.+.[ [ +.#.#.#.#.#.#.6.b.XXoX%X%X*X*X*XqXqX*X1X1X*X*X*X1X1X1X1XeXeXeX1X1X1X1XeXeX1XeX1XeX1X*X1X1X1X1X1X1X1X1X*X*X*X1X1X1X1X1X1X1X1X1X<X<X*X&X&X&X&X&X<X<X1X1X*X1X1X1X1X1X1X1X1X1X<X<X1X1X3X1X<X<X<X<X<X<X<X<X&X&X$X#X@XOX X{.'.'.{. XOX$X<X<X<X1X3X3X4XrXyXyXyXyXrXyXuXyXuXuXdXfXdXfXyXyX",
" X X X X X].'.]. X'.'.'.'.'.'.'.'.'.S.S.S.S.A.a.C.V.) K U Q ) ) ) t.t.t.p.t.t.p.p.p.p.p.p.p.p.a.a.a.a.a.a.a.C.a.a.a.A.A.C.C.a.a.C.C.a.a.A.A.A.A.A.A.A.a.a.a.) U Q U K Q _ ~ D D D D G K K K K K K K K K K K G D K K G K D D K J K D m z N Q '.uXtXtXtXtXyXyXyXyXtXuXuXuXuXuXuXuXuXuXuXuXuXuXuXuXuXuXuXuXuXuXuXuXuXuXuXuXuXuXuXuXdXuXdXdXgXgXdXdXdXdXgXdXdXdXdXgXdXuXdXgXgXgXgXgXgXgXgXdXgXgXgXgXdXgXgXgXgXgXgXgXgXgXgXgXgXgXgXgXgXgXgXgXgXvXgXbXvXgXgXgXgXvXbXvXgXbXbXbXvXgXbXgXgXvXvXvXbXbXbXvXbXbXbXbXnXbXbXMXnXnXbXnXnXbXnXnXbXbXbXbXbXbXnXMXnXbXnXnXMXnXbXnXnXnXnXMXMXnXnXnXMXMXMXbXnXnXMXMXnXMXMXMXnXnXnXnXnXnXMXMXBXnXbXnXbXjXwXU.B.m.#.#.#.#.#.{ { { { #.5.5.5.5.5.6.5.6.6.5.6.5.5.#.+.+.[ [ +.#.#.#.#.#.6.6.K.XXXX%X%X*X*XqXqXqX1XeX*X*X*X1X1X1X1X1X*X1X1X*X1X1XeXeX1X1X1X1X1X*X1X1X*X1X1X1X1XeX1X*X1X1X1X1X1X1X1X1X1X1X1X<X*X&X&X&X&X&X*X*X<X<X1X1X1X1X1X1X1X1X1X1X1X<X1X1X1X1X<X1X<X<X1X<X<X<X&X&X&X$X$X#XOXOX[.`.[.{. X@X$X<X<X<X<X1X3X4X4XyXyXyXyXyXyXiXdXiXuXdXfXfXuXyX",
" X X X X X'.'.'.'.'.'.'.'.'.'.'.'.'.'.S.S.S.A.a.C.p.~ K U ~ ) ) t.t.t.t.t.t.t.t.p.p.p.p.p.a.p.a.a.a.a.a.a.a.A.a.a.A.A.A.C.A.A.A.a.a.a.a.a.A.A.A.A.a.A.A.A.t.Q Q Q G Q ) ) K D G D D D K K K D K K K K K K K K G K K K K D D K H H D l l K U ~ &XyXrXtXyXyXtXyXuXuXuXuXtXtXuXuXyXuXuXuXuXuXuXuXuXuXuXuXuXuXuXuXuXuXuXuXuXuXuXdXdXdXdXdXdXdXdXdXdXdXuXdXuXuXgXgXgXgXdXgXgXgXgXgXgXgXgXgXgXgXdXgXgXuXgXgXgXgXgXgXgXgXgXdXgXgXgXgXgXgXgXvXgXgXgXvXvXgXgXgXgXvXvXvXgXgXbXbXgXvXvXbXgXgXgXgXgXvXbXbXbXbXbXvXbXbXbXbXbXbXMXnXMXnXbXMXnXnXbXvXvXbXbXnXMXbXbXnXbXMXnXnXnXnXnXnXbXbXnXnXMXMXMXBXnXMXnXnXMXnXMXMXnXnXnXnXnXnXnXMXMXBXMXbXnXnXpXU.N.N.m.#.#.#.{ #.#.{ { { +.#.5.5.5.5.5.5.5.5.5.6.5.5.#.#.+.{ ] { #.#.#.#.#.#.6.6.L.I.oX%X%X%X*X*X*XeX*X*X1X*X*X1X1X*X1X1X1X*X*X1X1XeXeX1XeX1XeX1X*X1X1X*X*X1X*X*X*X1X1X1X1X1X1X1X1X1X1X1X1X*X&X&X&X<X&X&X&X*X*X<X<X*X1X1X*X1X1X1X1X1X1X1X1X1X1X1X1X1X1X<X<X<X<X<X<X<X<X&X&X$X@X#XOX X].'.[.{.OX@X&X<X1X<X<X3X3X4XrXyXyXyXyXyXuXdXyXuXdXfXdXiXyX",
" X X X X X].].].].].'.'.'.'.'.'.'._.S.S.S.A.A.A.C._ U K Q / ) ) t.t.t.t.t.t.p.p.p.p.p.p.p.a.a.a.a.a.a.a.a.a.A.a.A.A.a.a.a.a.a.a.A.A.a.a.A.A.A.A.A.A.A.a.a.) Q Q Q D Q _ ~ D D D D D K K K D K K K K K K K K K K K K D D D K K H H m l D K K G p.4XtXrXrXyXyXyXyXuXuXuXuXuXuXuXuXuXuXuXuXuXuXuXuXuXuXuXuXuXuXuXuXuXuXdXuXuXdXgXgXdXgXdXdXgXgXdXgXdXuXdXuXdXgXgXgXdXgXgXgXgXgXgXgXgXgXgXgXgXgXgXgXgXgXgXgXgXgXgXgXgXgXgXgXgXgXgXgXgXvXnXgXgXvXbXvXgXgXvXgXgXgXvXvXvXvXvXgXbXbXbXvXgXgXgXgXgXvXbXbXnXvXvXbXnXvXvXbXbXbXnXnXbXbXbXnXnXnXnXbXbXnXbXnXnXbXnXMXnXnXbXnXnXnXbXnXMXMXBXBXMXMXBXnXnXMXnXnXvXbXnXnXnXnXnXbXnXbXnXBXnXMXgXhXjXU.N.M.M.m.#.#.#.#.{ #.#.{ { { +.#.5.5.5.5.5.5.5.5.5.5.5.5.5.#.+.[ ] +.#.#.#.#.#.#.@.v.K.P.oXoX%X%X*X*X*X*X*X*X*X*X*X*X*X1X1X1X1X1X1X1X1X1X1X1X1X1X1X1X1X1X1X1X1X1X1X*X*X1X1X1X1X1X1X1X1X1X1X1X1X<X&X&X*X&X&X&X&X&X&X<X*X1X1X1X1X1X1X1X1X3X1X1X1X1X1X1X1X3X<X<X<X<X<X<X<X&X&X&X&X$X#XOX X X{.].{. XOX#X&X<X<X<X<X1X4X4XrXrXyXyXyXyXuXiXiXdXdXdXyXuX",
" X X'.{.]. X X]. X X].'.'.'.'.'.'.S.S.S.S.A.a.A.a.) U K Q / ) ) t.t.t.p.t.p.p.p.p.p.p.p.a.a.a.a.a.a.a.a.A.a.a.a.a.a.a.a.C.a.a.A.C.A.a.a.A.a.A.a.a.A.a.a.p./ U Q K U ) ) Q D D D D D K K K D G K K K D G K G K D K D D D D K J D D l l D K U U Q .XtXrXrXuXuXtXtXyXuXuXuXuXuXuXuXuXuXuXuXuXuXuXuXuXuXuXuXuXuXuXuXuXdXdXuXdXgXuXdXdXuXgXgXgXgXdXgXgXdXdXdXdXgXgXdXdXgXdXgXgXgXgXgXgXgXgXgXgXgXgXgXgXgXgXgXgXgXgXgXgXgXgXgXgXgXgXvXgXgXgXgXgXvXvXvXgXgXgXvXgXvXbXbXvXvXbXvXvXbXbXvXvXbXvXvXvXbXbXnXMXbXbXvXbXgXbXMXbXbXnXbXnXbXbXbXbXnXnXnXnXnXbXnXMXMXbXMXnXnXnXnXnXnXnXnXMXMXBXBXMXBXBXnXnXMXnXbXvXnXMXMXnXnXnXbXMXMXMXBXnXbXjXjXwXB.M.M.#.#.#.#.#.{ { { #.{ [ [ { #.#.5.5.5.6.6.5.5.5.6.5.5.5.5.#.+.[ [ +.+.+.#.#.#.+.@.b.K.XXoXoX%X*X*X*X*X*X*X*X*XqX*XqXeX1X1XeX1XeX1X1X1X1X1X1X1X1X1X1X1X1X1X1X1X1X1X1X1X1X1X1X1X1X1X1X1X1X1X1X1X<X1X*X&X&X&X&X&X&X*X<X1X1X1X1X1X4X4X3X1X1X1X1X1X1X1X<X1X3X<X3X1X<X<X<X<X<X&X&X&X$X@XOXOX X].].{. XOX$X&X<X<X<X3X3X4X4XrXyXyXyXyXuXuXiXdXfXdXiXdX",
" X X].]. X X X X X].'.'.'.'.'.'.'.'.S.S.A.A.V.A.t.Q U Q ~ ) ) ) t.t.t.p.t.p.p.p.p.a.p.p.a.a.a.a.a.a.a.a.a.a.a.a.a.a.a.a.a.A.A.A.A.A.a.A.A.A.A.A.A.A.a.a.t.Q Q U K Q _ ) D D D D D D D K K G D K K K K D K G D K D D D D D J J D D l m K Q Q Q Q _ &XtXrXrXyXtXtXuXuXtXuXyXuXuXuXuXuXuXuXuXuXuXdXuXuXuXuXgXgXuXuXuXdXgXuXuXgXdXgXdXdXdXgXgXgXdXdXgXdXdXdXdXgXgXgXgXgXgXgXgXgXdXdXgXgXgXgXgXgXgXgXgXgXgXgXhXgXgXgXgXgXgXgXvXgXgXgXgXgXgXgXgXgXvXvXgXvXgXvXvXvXbXbXvXbXvXvXvXbXvXgXvXbXvXvXbXbXbXbXnXMXbXbXvXvXbXbXbXbXbXbXMXnXbXnXnXnXnXbXbXnXbXbXnXbXbXnXnXMXMXnXnXMXnXMXMXMXMXMXMXMXMXMXBXMXbXnXnXnXMXMXMXMXnXnXnXMXMXnXnXnXjXwXB.N.M.M.#.5.#.#.#.{ #.{ #.#.{ [ [ { +.5.5.5.5.5.5.5.5.5.5.5.5.5.#.+.{ [ [ +.#.#.+.#.#.+.6.K.I.oXXX%X%X*X*X*X*X*X*X*XqX*XqX*X1X1X1X1X1X1X1X1X1X1X1X1X1X1X1X1X1X1X1X1X*X*X1XeX1X1X1X1X1X1X1X1X1X1X1X1X1X1X1X<X&X&X&X&X&X*X*X<X1X1X1X1X1X1X1X1X1X1X1X1X1X1X<X1X<X<X1X1X1X<X<X<X<X<X&X&X$X$X#XOXOX{.[.[.{. X@X$X&X<X<X1X4X4X4X4XrXyXyXyXuXuXuXuXiXiXfXfX",
" X X X]. X X X X X X'.'.'.'.'.'.'.S.S.A.A.C.a.A.) U U Q ~ ) ) t.t.t.t.p.p.p.a.p.p.a.a.a.a.a.a.a.a.a.a.a.A.C.a.A.a.a.C.a.a.A.A.A.a.A.A.A.A.A.a.A.C.A.a.t.) Q Q K U / ) U m D D D D D G G K K D K K K K D K K K K D D D D J D J D m l K K U Q Q ~ ~ C.rXuXtXtXtXtXuXuXuXuXuXuXuXuXuXuXuXuXuXuXuXuXuXuXdXdXgXdXdXuXuXuXdXuXuXdXuXdXdXdXgXdXgXgXuXdXdXuXgXuXdXgXdXgXgXgXgXgXgXgXdXdXdXgXgXgXgXgXgXgXgXgXgXgXgXgXgXhXgXgXgXvXbXvXvXgXgXgXgXgXvXvXbXgXgXgXgXvXbXvXvXvXvXvXbXvXbXbXbXgXvXbXbXbXbXnXbXbXbXbXbXbXbXbXbXbXbXbXbXnXMXMXbXbXbXnXnXbXbXnXbXbXnXbXbXnXbXbXnXMXMXMXnXMXMXMXMXMXnXMXMXnXMXnXbXnXMXbXbXnXMXMXMXnXnXhXbXhXuXeXwXU.N.M.M.M.5.M.#.#.#.#.#.#.#.#.#.{ [ [ +.#.5.5.5.5.5.5.5.5.5.5.5.#.#.#.+.{ [ { +.#.+.#.#.#.@.k.K.XXoXoX%X%X*X%X%X*X*XqXqX*XqX*X*X1XeXeX1X1XeX1X*X1X*X*X*X1X1X1X1X1X1X1X1X*X1X1X1X1X1X1X1X1X1X1X1X1X1X1X1X1X1X1X<X*X*X&X&X&X*X*X1X1X<X1X1X1X1X1X1X1X1X1X1X1X1X1X3X1X1X3X1X<X<X<X<X<X<X<X&X&X$X@X@XOX{.'.'.{.OX#X$X<X<X3X4X3X4X4XrXyXyXyXuXdXfXuXuXuXdXfX",
" X X'.].'.'.'.'.{.'.'.'.'.'.'.'.'._.S.A.A.a.a.p./ Q Q Q / ) ) t.t.t.t.p.p.p.p.a.a.a.a.a.a.a.a.a.a.a.a.a.C.a.a.a.a.a.A.A.A.A.A.A.A.A.A.A.A.A.A.A.A.a.a._ Q Q U G Q _ / D N D D D D D G D K K K K K K D D K K K K D D D D K D D D z D K K U Q Q ~ / /  XuXtXtXyXuXuXuXuXuXuXuXuXuXuXuXuXuXuXuXuXuXuXuXuXdXuXuXgXuXuXdXgXgXgXgXuXuXdXuXgXgXgXgXdXdXgXgXdXdXdXdXdXgXgXgXdXgXgXgXgXgXgXgXgXdXgXgXhXgXgXgXgXgXgXgXgXgXgXgXgXgXgXvXgXgXbXvXgXgXvXvXvXvXvXbXvXgXgXgXgXvXbXvXvXgXbXbXbXbXbXbXbXvXbXbXbXbXvXvXbXbXnXnXbXbXbXbXbXbXnXnXbXnXnXMXMXnXnXnXnXMXMXMXnXbXnXbXvXnXMXMXMXMXMXMXMXMXMXBXMXMXnXnXbXMXBXMXnXMXMXMXnXnXnXhXnXgXqX8XU.B.M.M.5.M.5.m.5.#.#.#.#.#.#.#.#.{ { { { +.#.5.5.5.5.5.5.5.5.5.#.5.#.#.#.+.[ [ { #.#.#.#.#.+.@.b.K.P.XXoX%X%X%X%X%X*X*X*X*X*X*X*X1X1X*X*X1X1X1X*X*X*X1XeX1X1X1X1X1X1X1X1X1X1X1X1X1X1X1X1X1X1X1X1X1X1X1X1X1X1X1X1X*X*X&X&X&X&X<X1X1X1X1X1X1X1X1X1X1X1X1X3X1X1X1X1X1X1X1X<X<X<X<X<X<X<X<X&X&X&X$X#XOX X{.].'.{.OX$X&X<X1X3X3X3X4XrXyXyXyXyXuXfXdXuXdXuXdX",
" X X X X X'.'.'.].].'.'.'.'.'.'.'._._.A.A.a.C.t.Q Q Q ~ ) ) ) t.t.t.p.p.p.p.p.p.a.a.a.a.a.a.a.a.a.a.a.A.a.a.a.a.a.a.a.C.a.A.A.A.A.A.A.A.A.A.A.A.a.a.a./ U Q U K / _ Q D D D D D D D D D D K K K K K K K K D D G D D D D K J D n n K K K Q Q Q ~ / / t.1XuXtXuXuXuXuXuXuXuXuXuXuXuXuXuXuXuXuXuXuXuXuXuXuXuXdXgXdXuXdXgXgXgXgXgXgXuXdXgXgXgXgXgXdXgXgXdXdXgXdXgXdXdXgXgXdXgXgXgXgXgXgXgXgXgXgXhXgXgXgXvXvXvXgXvXvXvXgXvXbXgXgXgXgXvXvXvXvXgXgXgXbXbXbXbXbXvXgXvXbXvXvXvXgXgXbXbXbXbXnXbXgXgXgXvXbXvXvXbXbXnXbXbXbXbXbXbXbXbXbXbXMXbXnXnXnXMXnXMXMXnXMXbXbXMXMXnXnXBXMXMXMXnXMXMXMXBXMXMXMXBXMXnXMXMXnXnXnXMXMXnXbXnXbXhXeX8XU.B.N.5.m.m.m.M.m.m.M.#.#.#.#.#.#.{ { { [ [ { +.#.5.5.5.6.5.#.5.5.#.#.#.+.#.#.{ [ { +.+.#.#.+.#.+.@.b.K.XXoXoXXXXX%X%X%X%X*X*X*X*X*X*X*X*X*X1X1X1X*X1X1XeXeXeX1X1X*X1X1XeX1X*X1X1X1X1X1X1X1X1X1X1X1X1X1X<X1X1X1X1X<X&X&X&X&X&X&X*X*X1X<X1X1X1X1X1X1X1X1X1X4X1X1X1X1X1X1X1X<X<X<X<X<X<X&X<X&X<X<X$X#X@XOX X{.].].{.OX$X<X<X1X3X<X3XrXrXyXrXyXyXuXdXdXdXuXdX",
" X X].'.'.'. X].'.'.'.'.'.'.'.'.'._.S.A.A.a.a.) Q K Q / ) _ t.t.t.t.p.p.p.p.p.a.a.a.a.a.a.a.a.a.a.a.a.a.C.a.A.A.A.A.a.a.a.a.A.A.A.A.A.A.A.A.A.A.C.a.t.Q Q U K U _ ) K D D D D D D D D D K K K K K K D D K D D G D D D D G G D g D K K U U Q Q ~ / / ) '.tXuXuXuXuXuXuXuXuXuXuXuXuXuXuXuXuXuXuXuXuXuXuXdXuXuXgXgXdXuXuXuXdXdXuXdXuXdXgXgXgXgXdXdXgXgXgXgXgXgXgXgXgXgXgXgXgXgXgXgXgXgXgXgXgXgXgXgXgXgXgXgXgXgXgXvXgXgXgXbXgXgXgXgXvXvXvXbXvXgXvXvXbXbXbXbXbXvXgXgXgXgXbXbXgXvXbXbXvXbXvXgXvXbXbXnXbXbXbXbXbXbXbXbXbXbXbXbXbXbXnXMXvXvXnXMXnXnXMXMXnXnXbXvXnXMXMXnXMXMXMXMXMXMXMXMXMXMXMXMXBXMXbXnXMXnXnXnXMXMXnXbXnXhXsXwXU.B.M.m.5.m.M.m.5.M.m.m.#.#.#.#.#.#.#.{ #.{ [ [ { #.#.5.5.5.5.#.5.5.#.5.#.#.#.#.#.{ [ [ +.#.+.+.#.+.@.6.H.P.XXoXXXXXXX%XqX%X%X*X*X*X*X*X*X*X*X1X1X1X1X1X1X1XeXeXeXeX1X1X1XeX1X1X1X1X1X1X1X1X1X1X1X1X1X1X1X1X1X1X1X1X*X&X&X&X&X&X&X&X*X*X<X<X1X1X1X1X1X1X1X1X1X1X1X1X1X1X1X1X3X1X1X<X<X<X<X<X<X<X<X$X$X#XOXOX X{.[.]. X@X$X&X<X1X1X1X3X4XrXrXrXyXuXdXdXfXiXdX",
" X].'.'.'.'. X].'.'.'.'.'.'.'.'.S._.A.A.A.a.t.Q K K ~ ) ) ) _ t.t.p.p.p.p.p.a.a.a.a.a.a.a.a.a.a.a.a.a.a.A.A.A.A.A.A.A.A.C.A.A.A.A.A.A.A.A.A.A.A.A.a.) U Q U K Q _ Q m D D D D D D D D K K K K K K K G G K D D K D D D D G D m z D K K U Q Q / / / / _ t.@XuXuXuXuXuXuXuXuXuXuXuXuXuXuXuXuXuXuXuXuXdXdXuXuXuXgXuXuXuXuXuXdXdXuXdXuXuXdXgXgXgXgXdXgXgXdXdXgXgXgXdXgXgXgXgXgXgXgXgXgXgXgXhXhXgXgXhXgXgXgXgXgXvXvXgXgXgXgXgXvXgXvXgXbXbXbXbXvXvXbXvXbXbXbXgXgXvXgXgXbXvXbXbXgXbXbXbXbXbXbXvXbXvXbXMXbXbXbXbXvXbXvXbXbXbXnXbXnXbXbXMXbXbXnXnXnXnXnXnXnXnXbXbXnXnXnXbXBXMXMXMXMXMXnXMXMXMXnXnXMXMXnXMXnXnXnXnXnXnXvXbXbXhXpXT.Y.N.M.M.m.M.M.m.#.#.#.#.#.#.#.#.#.#.#.#.#.#.{ [ { { #.#.5.5.5.5.5.5.5.5.5.#.5.#.#.+.{ [ { +.+.#.#.#.+.@.z.K.XXoXXXoXXXXX%X%X%X%X*X*X*X*X*X*X1X1X*X1XeX1X*X*X*XeXeX1X1X1X1X*X*X1X1X1XeX1X1X1X1X1X1X1X1X1X1X1X1X1X1X1X1X1X1X<X*X&X&X&X&X&X*X<X<X1X<X*X1X1X1X1X4X1X1X1X1X1X1X1X3X3X3X1X<X<X&X<X<X<X<X&X$X$X#XOXOX X{.'.{. X@X$X&X<X3X3X1X4X4X4X4XrXyXuXfXfXuXdX",
" X].'.'.'.]. X'.'.'.'.'.'.'.'.'.S.S.A.A.A.C.) K K Q ) ) ) ) _ t.t.t.p.p.p.p.a.a.a.a.a.a.a.a.a.a.a.a.a.C.C.C.a.a.a.a.a.A.A.A.A.A.A.A.A.A.A.S.S.a.C.t.Q U Q U Q ) _ U m D D D D D D D D K K G K K K K D D D D D D D D D D G N g N K K U Q Q Q / / / ) _ ) a.1XuXuXuXuXuXuXuXuXuXuXuXuXuXuXuXuXuXuXuXdXdXuXuXdXdXuXuXdXgXdXdXdXdXgXuXdXdXdXgXgXgXgXgXgXdXdXgXdXdXdXgXgXgXgXgXgXgXgXhXgXgXgXgXgXgXhXgXgXgXgXgXgXgXgXgXgXgXgXvXvXvXgXvXvXvXbXbXvXbXbXbXbXbXgXgXbXbXbXbXbXvXvXgXgXvXgXvXbXbXbXbXgXbXbXbXbXbXbXbXbXbXbXbXbXnXbXnXbXbXMXnXnXnXnXnXnXnXnXnXbXnXMXnXbXbXnXMXMXMXMXMXMXMXnXMXnXMXnXbXMXMXBXMXnXnXnXnXnXvXgXjXsX9XB.M.M.M.M.M.M.M.5.#.5.m.M.m.#.#.#.#.#.#.#.#.#.{ { [ { +.#.#.5.5.#.5.5.5.5.#.#.#.#.#.#.{ [ [ { +.#.#.#.+.@.6.z.K.I.XXXXXXXX%X%X%X%X%X%X*X*X*X*X*X*X*X*XeX1X*X*X*X1X1X1X*X*X*X*X*X1X1XeXeX1X1X1X1X1X1X1X1X1X1X1X1X1X1X1X<X1X1X*X*X*X&X&X&X*X*X*X*X<X<X*X<X1X1X1X4X1X<X1X1X1X1X1X3X3X3X1X<X<X<X<X<X<X<X&X$X$X$X#XOX X{.'.].{.OX#X$X&X1X3X3X4X3X4X4X4XyXyXuXdXdXdX",
" X X X].'.]. X].'.'.'.'.'.'.'.'._.S.S.A.a.a./ K K Q ) ) _ _ t.t.t.t.p.p.p.p.p.a.a.a.A.a.a.a.a.A.A.A.A.A.A.A.a.A.a.a.a.a.A.A.A.A.A.A.A.A.A.S.A.a.A.t.Q Q U K Q ) / G D D D D D D D K D D D D K K K K K D K D D D D G K K D z l G J K Q Q Q Q / / / ) _ _ ) '.tXuXuXuXuXuXuXuXuXuXuXuXuXuXuXuXuXuXuXuXgXdXuXgXdXuXuXdXdXuXdXdXdXgXgXgXgXdXdXdXgXgXgXgXgXgXgXgXgXgXgXgXgXgXgXgXdXgXgXgXgXgXgXgXhXgXgXgXvXvXgXgXgXgXgXgXgXbXgXgXbXbXbXvXvXbXbXvXgXvXbXgXgXbXbXbXnXbXvXnXgXvXbXbXbXgXgXbXnXgXbXbXvXvXbXvXbXbXnXbXbXvXbXbXbXbXbXbXbXbXbXnXbXbXbXnXnXnXnXMXMXnXMXMXnXMXMXMXMXBXSXBXMXMXMXnXnXMXMXMXMXMXMXSXMXMXMXnXnXhXjXwXB.N.M.M.M.M.M.M.5.#.#.m.M.m.m.m.#.#.#.#.#.#.+.+.{ { { [ { #.#.+.#.5.#.5.#.#.#.5.#.#.#.+.+.{ [ [ +.#.+.+.+.#.@.6.b.K.P.XXXXXXXXXX%X%X%X%X*X*X*X*X*X*X*X*XeX*X*X*X*X1X1X1X1X1X1X*X1X1X*X1X1X1X1X1XeX1X1X1X1X1X1X1X1X1X1X1X1X1X1X1X*X<X&X&X&X&X&X&X<X1X<X<X1X1X1X<X1X<X1X1X1X1X1X1X3X<X1X3X<X<X<X<X<X<X<X<X&X$X$X$X#XOX X{.{.{.{.OX#X&X<X3X3X1X<X3X4XrX4XyXyXiXiXdX",
" X X X'.'.]. X X X'.'.'.'.'.'.'._.A.A.a.A.p.Q Q Q ) t._ _ t.t.t.t.t.p.p.p.p.p.a.a.a.a.a.a.a.a.a.A.a.A.A.A.A.a.a.C.a.a.a.a.A.A.A.A.A.A.A.S.A.C.a.p.) U Q G K ) ) Q N N D D D D D K K K D D D K K K K D D D D D D D D G D D l n K K U Q Q Q Q / / / ) t.t.) t.@XuXtXuXuXuXuXuXuXuXuXuXuXuXuXuXuXuXuXdXdXuXdXdXdXuXdXdXuXuXuXdXgXgXgXgXgXdXdXgXgXgXgXgXgXgXgXdXgXgXgXgXgXgXgXgXgXgXgXgXgXgXgXgXgXgXgXhXvXvXgXgXgXvXgXvXgXgXvXgXgXnXnXbXbXbXbXbXbXgXvXgXgXvXbXbXbXbXbXnXbXbXbXvXvXvXgXvXnXbXbXbXbXbXnXbXbXbXvXbXnXbXbXbXnXnXbXbXbXbXnXnXnXnXnXMXnXnXnXMXMXMXMXMXMXnXMXMXSXSXMXnXMXMXMXMXMXMXMXMXnXMXMXSXMXMXnXNXhXjXwXB.N.M.M.5.5.M.M.M.5.#.5.5.m.M.m.#.5.#.#.#.#.#.#.+.#.{ { [ [ { +.#.#.5.5.5.5.#.#.#.5.#.#.#.+.+.{ [ { +.#.#.+.+.#.@.6.b.K.P.XXXXXXXX%X%X%X%X%X*X*X*X*X*X*X*X1X*X*X*X1XeX1XeX1X*X1X1X1X1X1X1XeX1X1X1X1X1X1X1X1X1X1X1X1X1X1X1X1X1X1X1X<X1X&X&X&X&X&X&X*X<X*X*X1X1X1X1X1X1X1X1X1X1X1X1X3X1X1X1X<X<X<X<X<X<X<X&X&X<X&X$X$XOXOX X{.].]. X@X$X&X<X1X<X<X3X3X4X4XyXyXyXyXyX",
" X X X X'.'. X].'.'.'.'.'.'.'.'.S.A.a.a.a.) U Q Q ) t._ _ t.t.t.p.t.p.p.p.p.a.a.a.a.a.a.a.a.a.a.C.C.A.A.A.A.A.A.a.a.a.a.a.A.A.A.A.A.A.A.A.A.A.C.) Q Q Q G Q _ / G N D D D D D D D K D K K D K K K K G D D D D D D G K D m l D K K Q ~ ~ ~ ~ / / ) _ ) t.t.t.A.1XuXuXuXuXuXuXuXuXuXuXuXuXuXuXuXuXuXuXdXuXgXuXdXgXdXuXuXdXuXgXgXgXgXgXgXdXdXdXdXgXgXgXgXgXgXgXgXgXgXgXgXgXgXgXgXgXgXgXgXgXgXgXgXgXgXhXvXgXgXgXgXvXgXvXgXvXbXbXgXbXbXvXgXbXbXbXbXvXvXvXvXbXbXbXbXbXbXbXnXbXvXvXbXbXbXgXnXnXnXbXvXbXbXbXnXbXbXbXnXbXbXnXbXbXbXnXnXbXnXMXnXnXMXMXnXnXnXMXMXnXnXnXnXnXMXMXSXMXMXSXMXnXBXMXnXMXMXMXMXMXnXMXMXMXnXAXjXwXB.N.N.m.5.5.5.m.m.M.5.#.#.M.M.5.#.#.5.5.5.5.#.#.#.#.#.#.{ [ [ { +.#.#.#.#.#.#.#.5.5.5.#.#.#.#.#.+.{ [ { +.#.+.+.#.+.@.6.H.J.I.XXXXoXoXXX%X%X%X%X%X%X%X*X*X*X*X*X*X*X1X*X1XeX1X*X1X1X1X1X1X1X1X1X1X1X1X1X1X1X1X1X1X1X1X1X1X1X1X1X1X1X1X1X<X&X&X&X&X&X&X&X<X*X<X<X1X1X1X1X1X1X1X1X1X2X3X<X1X1X1X<X<X<X<X&X<X<X&X&X&X$X$X#XOXOX X].'.{. X@X$X<X<X1X<X1X3X3X4XrXyXyXyXyX",
"]. X X].].'.'.'.'.'.'.'.'.'._._.S.A.a.a.p./ U K Q ) _ _ p.t.p.p.t.t.p.p.p.a.a.a.a.a.A.a.a.a.a.a.a.A.a.A.A.A.A.A.C.A.A.A.A.A.A.A.A.A.C.A.A.A.A.a.) Q ~ U Q _ t.Q D D D D D D D D D D D D D D D K G D D D D D D G G G D D l m Q K K Q Q ~ ~ / / / ) ) t._ t.p.p.'.uXuXuXuXuXuXuXuXuXuXuXdXgXdXuXuXuXdXgXdXdXdXdXdXuXuXgXgXgXdXuXuXgXgXgXgXgXgXgXgXgXgXgXgXgXdXgXgXgXgXgXgXgXgXgXgXhXgXvXhXgXhXgXgXgXgXvXvXgXgXgXgXgXgXvXgXgXvXgXbXbXbXvXbXbXvXgXgXbXbXnXbXvXbXbXbXvXgXbXvXvXbXbXnXbXgXMXMXnXbXbXbXnXvXbXbXnXMXnXbXnXbXvXbXgXbXMXnXnXMXnXnXnXnXMXMXMXBXMXMXMXMXMXMXMXnXMXBXSXMXMXMXBXMXMXSXMXMXMXnXnXMXnXnXMXAXsXU.B.N.M.m.m.5.M.m.m.m.5.#.5.M.M.M.#.#.5.#.5.5.#.#.#.#.#.#.{ { { [ { +.#.#.#.#.#.5.5.5.5.#.#.#.#.#.+.+.{ [ { +.+.#.+.#.+.@.k.J.P.XXXXXXoXoXXX%X%X%X%X%X%X*X*X*X*X*X*X*X*X*X*X*X1X1X1X*X1X1X*X1XeX1X1X1X1X1X1X1X1X1X1X1X1X1X1X1X1X1X1X1X1X1X1X1X1X*X&X&X&X*X<X*X*X<X<X1X1X1X1X1X1X1X1X1X3X<X1X1X1X1X<X<X<X<X<X<X<X<X<X&X$X$X#XOX X X'.'.{. XOX&X<X<X<X<X1X3X4XrXrXrXyXyX",
" X]. X X X X'.'.'.'.'.'.'.'._.S.A.A.a.a.t.Q U U Q ) _ t.t.t.t.p.p.p.p.a.a.a.a.a.a.a.a.A.a.A.a.C.C.a.A.a.a.a.a.a.a.A.S.A.A.A.A.A.A.A.A.A.A.a.A.t.Q Q Q G Q _ ) K N N m D D D D D D D D D D D K K K K G D D D D D K K D z g B K K U Q Q Q / / ) ) ) ) ) ) t.r.) ~ &XgXuXuXuXuXuXuXuXuXuXuXgXuXuXuXgXuXuXuXuXuXuXgXgXdXgXgXgXdXuXdXgXgXdXdXgXgXgXdXgXgXgXgXgXgXgXgXgXgXgXgXgXgXgXgXgXgXgXhXbXgXgXvXgXgXvXbXbXgXgXgXgXgXgXvXgXgXbXbXbXbXbXbXbXnXbXbXbXbXvXbXbXbXbXbXvXvXbXbXbXbXbXnXbXvXbXnXbXbXbXbXbXbXbXMXbXbXnXbXbXvXbXbXbXbXMXbXnXnXbXnXnXMXMXMXMXMXMXMXMXMXMXBXBXMXMXSXBXnXBXSXBXBXMXMXMXMXMXnXnXnXnXMXAXAX9XB.N.m.m.M.#.M.m.#.m.M.M.m.m.m.m.5.M.5.5.m.5.5.#.#.#.{ #.#.#.{ { [ [ { #.#.#.#.#.#.#.#.#.#.#.5.#.+.+.+.{ [ ] { +.+.#.+.+.+.6.b.K.P.oXoXoXXXoXoXoX%X%X%X%X*X*X*X*X*X*X*X*X1X1X*X*X1X1X*X1XeX1X1XeX1X1X1X1X1X1X1X1X1X1X1X1X1X1X1X1X1X1X1X<X1X1X1X1X*X&X&X&X&X&X&X<X1X1X1X1X1X1X1X1X1X1X2X3X1X1X1X1X<X<X<X<X<X<X<X<X<X<X<X&X$X$X@XOX X{.].].{..X@X&X&X<X<X1X3X3X3XrX4XrXyX",
" X'. X].'. X'.'.'.'.'.'.'.'._.S.A.A.C.a.) Q Q U / ) _ t.t.p.t.p.p.p.p.a.a.a.a.a.A.a.a.a.A.A.A.a.a.C.a.A.a.a.a.a.a.A.S.A.A.A.A.A.A.A.A.A.A.a.a.) Q Q U U ) _ Q D m D D D D D D D D D D G D G K K K K G D D D D D D K D l m G G U Q Q Q ~ / / ) ) ) ) ) ) t.t.~ D _ tXuXyXuXuXuXuXuXuXuXuXdXuXuXdXgXuXuXuXdXuXdXgXgXgXgXdXdXdXdXgXdXgXdXgXgXdXgXdXgXgXgXgXgXgXgXgXgXgXgXgXgXgXgXgXhXgXgXgXgXvXgXvXvXgXgXbXbXgXgXvXvXvXgXvXgXgXvXbXvXbXbXbXnXnXbXbXnXbXbXbXbXbXbXbXbXbXbXnXnXnXnXnXbXbXbXbXbXbXbXnXbXgXbXMXnXbXbXnXbXvXbXbXbXnXnXnXnXnXnXnXMXMXnXnXMXMXMXMXMXMXMXMXMXMXMXBXMXnXMXMXMXMXMXMXMXMXnXnXnXnXnXnXAXpXB.N.M.M.m.m.m.m.M.m.M.M.#.M.5.5.M.5.#.#.M.5.5.5.M.5.#.{ #.#.{ { { { [ { { #.#.#.#.#.#.#.#.#.5.#.+.#.#.#.+.[ ] [ { #.#.+.+.+.@.6.b.K.oXoXoXoXoXoXoX%X%X%X%X%X*X*X%X*X*X*X*X1X1X1X*X*X1X1X1X1X1X1X1X1X1X1X1X1X1X1X1X1X1X1X1X1X1X1X1X1X1X1X<X1X1X1X1X1X&X&X&X&X&X&X*X1X1X1X1X1X1X1X1X1X1X1X1X1X1X1X1X1X<X<X1X<X1X1X<X<X<X<X&X$X$X#X@XOX X{.[.{. X@X#X&X&X<X1X1X1X3X4X4XrXyX",
" X X X].'.].'.'.'.'.'.'.'.S.S.A.A.A.C.p./ Q Q Q ) t.t.t.t.p.p.t.p.p.p.a.a.a.a.a.a.a.a.a.a.a.a.a.A.A.A.A.a.A.a.A.C.A.S.A.A.A.A.A.A.A.A.A.a.a.p.Q U Q Q Q _ ) K D D D D D D D D G G D D K D G K K K K D D D D D D D D m l D U K Q Q Q Q / / / ) ) ) ) ) _ r./ K U K A.dXdXuXtXuXuXuXuXdXdXdXuXuXuXdXuXuXuXdXuXdXgXgXgXgXuXdXdXdXgXgXgXgXgXgXgXgXgXgXgXgXgXgXgXgXgXgXgXgXgXgXhXgXgXhXgXvXgXgXvXgXgXvXgXgXvXvXgXbXbXbXbXbXbXbXvXbXbXbXbXbXbXnXbXbXbXMXbXbXbXbXbXbXbXvXbXbXbXnXnXnXnXMXnXbXvXvXMXbXnXnXvXvXbXnXbXbXbXbXbXbXbXnXnXnXbXnXnXnXnXMXMXnXMXMXMXMXMXMXMXMXnXnXMXMXMXMXMXMXMXBXSXMXMXMXMXMXMXMXMXnXnXjXT.N.N.M.m.m.m.m.m.#.m.M.M.#.5.5.5.m.5.#.#.M.M.5.5.m.5.#.#.#.#.{ #.#.{ { [ { { +.#.#.#.#.#.#.5.5.#.+.#.#.+.#.{ { [ { +.#.+.+.+.+.@.6.b.K.P..XoXoXoXoXoXoX%X%X%X%X%X%X%X%X*X*X*X1X*X*X*X*X*X1X*X1X1X1X1X1X1X1X1X1X1X1X1X1X1X1X1X1X1X1X1X1X1X1X1X1X1X1X1X*X&X&X&X&X&X&X*X1X1X1X1X1X1X1X1X1X1X1X1X3X1X<X1X<X3X3X<X3X3X<X<X<X<X&X&X$X$X#XOXOX X{.{.{. X@X#X&X<X1X1X<X1X3X4XrXyX",
" X X X X'. X].'.'.'.'.'.S.S.S.A.A.A.a.t.Q Q Q ) ) ) t.t.t.t.p.p.p.a.a.a.a.a.a.a.A.a.a.A.a.A.A.a.A.A.A.A.A.A.A.A.A.A.S.A.A.A.A.A.A.A.A.A.a.a.t.Q U Q Q ) _ ~ D D D D D D D D D D G K K K D D D K K K D D D K G D K D l n K U U Q Q Q Q ~ / / t._ ) _ t.t.t.U D J Q Q @XgXtXtXuXuXdXdXgXgXuXuXuXdXgXuXuXdXgXdXgXdXgXgXdXgXgXuXdXgXgXgXgXgXgXgXgXgXgXgXgXgXgXgXgXgXgXgXgXgXgXgXgXgXgXhXgXgXgXgXgXgXgXgXgXbXbXgXvXbXvXvXbXbXbXbXbXbXbXbXbXnXMXbXvXbXbXbXbXbXbXbXbXbXvXbXbXbXbXbXnXbXnXnXbXbXvXbXbXbXbXMXbXbXbXbXbXbXbXbXbXnXMXnXnXnXnXnXbXnXnXMXMXMXMXMXMXMXnXnXMXMXMXMXMXMXBXMXMXMXNXSXMXNXBXMXMXMXMXnXnXjXpXB.N.M.M.m.m.m.m.#.#.M.M.M.#.5.5.5.m.m.5.#.5.#.#.5.M.m.#.#.#.#.{ { #.#.{ { [ { +.#.#.#.#.5.#.5.#.5.#.#.+.#.#.+.+.+.+.+.#.#.+.+.+.+.@.6.J.J.P.oXoXoXoXoXoXoXoX%X%X%X%X%X%X%X%X*X1X1X*X1X1X*X1X1X1X1X1X1X1X1XeX1X1X1X1X1X1X1X1X1X1X1X1X1X1X1X1X1X1X1X1X1X*X*X&X&X&X&X&X&X<X<X1X1X1X1X1X1X1X2X3X1X3X1X<X3X1X<X3X1X3X3X<X1X<X<X<X&X&X$X$X#X@XOX{.'.'.]. X@X#X*X1X<X<X3X1X4X4XrX",
"]. X X X'.].'.'.'.'.'.'._.S.S.S.C.a.p.) Q Q ~ ) ) _ t.t.t.p.p.p.a.a.a.a.a.A.a.a.a.a.a.a.A.C.C.C.C.A.a.a.A.A.C.A.A.A.A.A.A.A.A.A.A.A.S.a.C.a.Q K U K Q _ _ K m D D D D D D D D D D D K D G G G K K D D D D D G G K n l D G K U Q Q ~ ~ / / ) ) ) ) ) t.t.~ J K K Q N ~ tXuXuXuXuXdXgXgXdXuXuXuXuXdXdXuXuXdXuXdXdXgXgXgXgXgXgXgXgXdXgXgXgXgXgXgXgXgXgXgXgXgXgXgXgXgXgXgXgXgXgXgXgXgXgXgXgXgXgXbXvXbXgXgXbXbXbXbXgXbXbXgXvXbXbXbXbXbXgXvXbXbXbXbXbXbXbXgXbXbXbXbXbXbXbXbXnXnXbXbXbXbXbXnXbXbXbXbXvXbXMXnXbXbXvXbXnXvXvXbXbXbXnXnXbXnXnXnXMXMXnXnXMXMXMXMXMXMXMXMXMXMXMXMXMXMXBXMXMXNXNXMXNXnXMXNXMXMXnXnXjX9XM.M.M.m.m.M.#.m.m.m.M.M.M.#.5.5.m.m.m.m.m.5.M.m.#.#.m.M.#.#.#.#.{ { #.#.{ [ { { #.#.#.#.#.#.#.#.#.#.#.#.#.+.#.#.#.#.#.#.#.+.+.+.+.+.@.k.J.P.].oXoXoXoXoXoXoXoX%X%X%X%X%X%X*X*X*X*X*X*X*X1X*X1X1X1X1X1X1X1X1X1X1X1X1X1X1X1X1X1X1X1X1X1X1X1X1X1X1X1X1X1X1X<X*X&X&X&X&X*X<X<X1X1X1X1X1X1X1X1X<X1X1X1X3X3X1X<X1X1X<X1X<X<X<X<X<X&X&X&X&X$X$XOX X{.'.'. XOX@X&X*X<X<X3X1X3X4XrX",
"{.]. X].'.'.'.'.'.'.'.'.S.S.A.S.V.a.t.~ Q Q ) ) ) t.t.t.t.p.p.p.a.a.a.a.a.a.a.A.a.a.a.A.A.C.a.A.C.a.a.a.A.A.A.A.A.A.A.A.A.A.A.A.A.A.A.a.C.t.U U Q K ~ _ ) D D D N D D D D D D G D D D D K K G K D D D D D D D G D l l K K U Q Q Q ~ / / / ) ) ) ) _ t.t.Q G K K K l t _.uXuXuXdXuXdXuXuXuXdXuXuXdXgXuXdXuXdXgXuXuXuXdXgXgXgXgXgXdXgXgXgXgXgXgXgXgXgXgXgXgXgXgXgXgXgXgXgXgXgXgXgXgXvXgXvXbXvXbXvXbXbXgXbXnXbXbXvXbXbXgXgXbXnXbXbXbXgXbXbXvXbXbXMXMXbXbXbXgXvXbXbXbXnXbXbXnXbXvXnXbXbXMXnXbXbXbXbXbXnXbXnXbXbXbXnXbXvXbXbXbXnXnXbXbXnXbXMXBXMXnXnXnXMXMXMXBXMXMXMXMXMXBXMXMXMXMXnXMXNXMXMXbXNXNXMXnXnXjXpXB.M.M.m.M.m.M.#.m.m.m.M.M.M.M.#.#.M.m.m.m.m.5.5.m.5.5.M.m.#.#.#.#.#.{ #.#.{ { [ [ { #.#.#.#.#.5.#.#.#.#.+.{ { +.#.#.#.#.#.#.+.+.+.+.+.@.@.c.J.J.oXoXoXoXoXoXoXoXoXoXoXoX%X*X*X*X*X*X*X*X*X1X*X*X1X1X1X1X1X1X1X1X1X1X1X1X1X1X1X1X1X1X1X1X1X1X1X1X1X1X1X1X1X1X1X1X<X&X&X&X1X<X<X1X1X1X1X1X1X1X<X1X1X<X<X<X1X1X1X1X1X<X1X<X<X<X<X&X&X&X&X$X$X@XOX X{.'.{. X X@X&X*X<X1X1X1X3X4X",
" X'.'.'.'.'.'.'.'.'.'.'.S.S.A.A.V.C._ Q Q Q ) _ t.t.t.p.p.p.p.p.a.a.a.a.a.a.a.a.A.a.a.A.A.a.A.a.a.A.A.a.C.A.A.A.A.A.A.A.A.A.A.A.A.A.A.A.C.~ K Q K Q ) _ K m D D D D D D D D D D D D D D G G D D D D D D D K D D z l D K U U Q Q ~ Q / ) / ) ) ) ) t.t./ J J K K D l u Q 1XgXuXdXdXgXdXuXdXuXdXdXgXgXgXdXdXdXgXuXuXdXdXgXgXgXgXgXgXgXgXgXgXgXgXgXgXgXgXgXgXgXgXgXgXgXgXgXgXgXhXgXhXbXgXvXgXgXbXvXvXbXnXbXbXbXnXnXbXbXvXvXbXbXbXbXbXnXMXbXbXnXbXnXMXbXbXvXgXbXMXMXbXbXbXnXnXbXbXnXbXbXnXbXbXbXbXbXbXMXbXbXbXbXbXMXMXMXnXnXbXnXMXnXbXnXbXnXMXBXMXMXMXMXMXMXMXMXMXMXMXMXMXMXMXBXMXnXMXnXnXNXMXSXSXMXnXjXpXU.m.M.M.5.m.m.M.M.m.m.m.m.m.M.M.5.M.#.#.#.m.m.m.#.m.m.#.5.#.m.#.#.#.#.#.#.#.{ { [ [ { { #.#.#.#.#.#.#.#.#.+.[ ] { +.#.#.#.#.#.+.+.+.+.+.+.@.6.K.K.J.oXoXoXoXoXoXXXoXoXoXoX%X%X*X*X*X*X*X*X*X*X1X1X1X1X1X1X1X1X1X1X1X1X1X1X1X1X1X1X1X1X1X1X1X1X1X1X1X1X1X1X1X1X1X1X1X*X&X&X<X<X<X1X1X1X1X1X1X3X1X1X1X1X<X<X<X<X1X1X1X3X3X3X<X1X<X<X<X<X&X&X$X#XOXOX X{.'.{. XOX#X$X&X<X1X1X1X1X",
" X].'.'.'.'.'.'.'.'.'.'.S.A.A.A.A.p./ Q Q ) _ t.t.t.t.p.p.p.p.p.a.a.a.a.a.a.a.a.a.a.a.a.C.C.a.a.A.A.a.A.a.a.A.A.A.A.A.A.A.A.A.A.A.A.A.C.p.U U Q K ~ _ ) D m D D D D D D D D D G D D D D K D D D D D D D D K D D l m K K U Q Q ~ ) / / ) ) ) ) ) t.t.t.Q G U K K m l m D t.uXgXuXdXdXdXuXuXuXuXgXdXdXgXdXuXdXgXuXuXdXdXgXgXgXgXgXgXgXgXgXgXgXgXgXgXgXgXgXgXgXgXgXgXgXgXgXgXhXbXgXvXvXgXvXvXvXbXvXbXbXbXvXgXvXvXbXbXbXbXbXbXbXbXbXbXMXbXbXbXMXbXbXbXbXbXbXgXvXbXbXbXnXbXnXnXbXbXbXbXbXMXnXbXnXnXbXnXMXnXnXbXnXnXbXnXMXnXMXbXnXMXnXbXbXMXMXMXMXMXMXMXMXBXMXMXMXMXMXMXMXBXMXMXMXMXMXAXnXMXSXAXAXAXSXMXpXU.N.M.M.M.5.M.m.m.m.M.m.m.m.m.M.m.m.M.#.#.5.m.m.m.#.5.m.5.#.#.m.m.#.#.#.#.#.{ { #.{ [ [ { { #.#.#.#.#.#.#.#.+.[ ] ] { #.#.#.#.#.#.#.#.+.+.+.+.@.6.K.J.P.P.oXoXoXoXoXoXoXoXoX%X%X%X*X*X*X*X*X*X*X*X1X1X1X1X1X1X1XeX1X1X1X1X1X1X1X3X1X1X1X1X1X1X1X1X1X1X1X1X1X1X1X1X1X1X1X&X&X*X<X<X<X1X1X1X1X3X3X3X3X1X1X1X3X1X<X1X3X3X4X3X1X1X<X<X<X<X<X<X&X&X$X#X@XOX X{.]. X X@X#X&X<X<X1X1X1X",
" X X].'.'.'.'.'.'.'.'._.S.A.A.A.A._ Q Q Q ) _ t.t.t.t.p.p.p.p.a.a.a.a.A.a.a.a.a.a.a.a.a.a.a.a.A.C.C.a.a.a.A.A.A.A.A.A.A.A.A.A.A.A.A.C.a.) K Q Q K ) t.Q m D N m m D D D D D G D D D D D G D D D D D D D D D D l l D D K K Q Q ~ _ ) / ) ) ) ) ) t.p.) J G U K D p u m m D  XuXuXdXgXuXuXdXdXuXgXuXuXgXuXuXuXdXgXdXgXgXgXgXgXgXgXgXdXgXgXgXgXgXgXgXgXgXgXgXgXgXgXgXgXgXgXgXgXhXgXvXbXgXbXbXbXvXbXbXbXgXgXgXbXgXvXvXbXbXbXbXbXbXbXbXnXvXbXMXMXnXbXbXbXbXbXvXbXbXbXbXbXbXbXbXbXvXnXbXbXnXbXnXnXbXbXnXnXbXnXbXMXnXbXnXnXMXnXnXnXMXnXbXnXMXMXMXMXMXMXMXMXMXBXMXMXMXMXMXMXMXMXBXSXNXMXMXMXNXSXDXSXSXAXjX9XN.M.M.M.m.M.M.m.m.m.M.m.m.m.M.m.m.m.m.#.m.m.m.m.m.#.5.m.M.#.M.m.5.#.#.#.#.#.{ { #.{ { [ [ { #.#.#.#.#.#.#.#.{ { [ ] [ #.#.#.#.#.+.+.+.+.+.+.+.+.@.z.J.J.oXoXoXoXoXoXoXoXoXoX%X%X%X%X*X*X&X*X*X*X*X1X1X1X1X1X1X1X1X1X1X1X1X1X1X1X3X1X1X1X1X1X1X1X1X1X1X1X1X1X1X1X1X1X1X1X&X&X&X&X<X1X1X1X1X1X4X1X1X3X1X3X3X3X3X3X1X3X3X4X3X1X1X<X<X<X<X<X<X&X&X&X$X@X@XOX X{.{. XOX@X&X*X<X1X1X1X",
" X].'.].'.'.'.'.'.'.'.'.A.A.A.A.C.) Q Q ~ ) t.t.t.t.p.a.a.a.a.a.a.a.C.a.a.A.C.C.C.C.A.A.A.A.A.A.C.A.a.a.A.A.A.A.A.A.A.A.A.A.S.S._.A.V.p.~ U Q Q Q _ ) D m m m m m m D D D D J D D D D G D G D D D D D D D D D l N K J K U Q Q ~ ) t.) ) ) ) ) _ p.p.Q D K K J l w l D D D ) <XdXuXdXuXuXgXuXuXuXdXdXdXdXgXuXdXgXgXgXdXgXgXgXgXgXgXgXgXgXdXgXgXvXgXgXgXgXgXgXgXgXgXvXvXgXvXgXgXgXgXvXbXgXvXvXgXvXbXbXbXbXbXbXgXgXgXgXvXbXbXMXnXbXnXbXbXbXMXbXbXbXbXnXbXgXvXMXbXbXbXbXMXnXnXbXvXnXMXnXnXnXnXnXnXbXnXnXbXbXMXMXbXMXMXMXnXbXnXnXnXMXvXbXnXbXMXMXBXBXMXMXMXMXMXBXMXBXBXMXnXNXSXSXBXMXMXBXSXAXAXDXSXAXpXB.N.M.M.M.M.M.M.m.m.m.m.m.M.m.M.m.m.m.m.m.m.m.m.#.m.5.m.m.m.m.m.5.#.#.#.5.#.#.#.{ #.#.{ [ [ { { #.#.#.#.#.#.#.#.#.{ ] ] [ #.+.+.+.+.+.+.+.+.+.+.+.+.6.b.K.K.J.P.oXoXoXoXoXoXoXoX%X%X%X%X%X*X*X*X*X*X*X*X*X1X1X1X1X*X*X1XeX1X1X1X1X1X1X1X1X1X1X1X3X1X1X1X1X1X1X1X1X1X1X1X1X*X&X&X*X*X1X1X1X1X1X3X1X<X1X3X1X1X<X3X3X1X3X3X3X1X3X4X1X<X<X<X<X<X<X&X&X&X$X@X@X.X X{. X XOX@X&X1X1X1X1X",
" X X X'.].'.'.'.'.'.'._.A.A.a.A.p.~ Q Q ~ ) t.t.t.p.p.p.a.a.p.a.a.a.a.C.A.A.a.a.a.a.A.A.a.A.A.C.A.A.A.A.A.a.A.A.A.A.A.A.A.A.S.A.S.A.V._ Q U U U ~ _ Q D n m D D D D D D D D D D D D D J G D D D D D D D D D m z K U K Q Q Q Q ~ / ) ) ) ) ) ) _ p.~ J D K K D w y l m K K Q a.yXdXuXuXuXdXdXuXdXdXdXdXdXgXdXgXgXgXgXgXgXgXgXgXgXgXgXgXgXgXgXgXgXgXgXgXgXgXgXgXgXgXgXgXgXgXgXgXgXvXbXvXvXbXbXvXvXbXbXbXvXbXbXgXgXvXgXbXbXbXnXbXbXbXnXbXbXMXnXbXbXnXnXnXbXbXnXbXbXbXMXMXMXMXMXbXbXnXnXnXMXbXnXMXbXnXbXbXnXnXnXbXnXMXMXMXnXnXMXMXMXbXbXnXnXMXMXMXMXMXnXMXMXMXMXMXMXMXNXMXMXMXAXAXAXMXDXDXAXAXhXjXpXY.N.M.M.M.M.M.M.M.M.m.m.M.m.M.m.M.m.m.m.m.m.m.m.m.#.m.m.m.m.5.5.5.m.5.5.5.5.#.#.#.{ { #.{ { { [ { { #.#.#.+.#.#.#.#.+.[ ] ] { +.+.+.+.+.+.+.+.+.+.+.+.@.6.b.K.J.P.].oXoXoXoXoXoXoX%X%X%X%X%X*X*X*X*X*X1X*X1X1X1X1X1X1X1XeXeX1X1X1X1X1X1X1X1X1X1X4XrX1X1X3X3X1X1X1X1X1X1X1X1X<X*X*X&X&X<X<X1X1X1X3X1X<X3X1X3X3X1X<X3X3X3X4X4X1X3X4X1X1X3X1X<X<X<X&X&X&X$X#X@XOX X X X X XOX#X&X1X<X<X",
" X X]. X].'.'.'.'.'.'.S.A.a.a.a.) Q Q Q ) _ t.t.t.p.a.a.a.a.a.a.a.a.A.C.A.a.a.C.a.a.A.A.A.A.A.C.A.A.A.A.A.a.A.A.A.A.A.A.A.A.A.A.A.C.p./ U U K Q _ ) D m m m D D D D D D D D D G D D G J G G D D D D D D G G l l K K K Q Q Q Q ~ / ) ) ) ) _ _ t._ U D K K K l w p l D K K Q Q  XuXuXuXuXuXgXgXgXgXgXgXgXgXgXgXgXdXgXgXgXgXgXgXgXgXgXgXgXgXgXvXgXgXgXgXgXgXgXgXgXgXgXgXgXgXgXgXvXbXbXvXgXvXvXgXbXbXbXbXbXbXbXbXbXbXbXnXbXbXbXbXnXbXnXbXbXnXbXnXbXvXbXbXvXbXbXbXbXbXnXMXnXnXnXnXnXnXnXbXMXnXnXMXnXnXbXnXMXbXbXbXnXMXnXnXnXnXMXnXnXBXMXnXbXMXMXMXMXMXMXMXMXMXMXMXBXBXNXMXMXBXSXSXSXAXAXjXsXsXjXpXU.N.M.M.M.M.M.M.M.m.M.m.m.M.m.m.m.M.m.m.m.m.m.m.m.m.m.5.m.m.m.5.5.m.M.5.5.5.5.#.#.#.#.{ { #.{ { [ [ { #.#.#.#.#.#.#.#.#.{ ] ] ] { #.+.+.#.+.+.+.+.+.+.+.+.#.6.J.J.J.].oXoXoXoXoXoXoXoX%X%X%X%X*X*X*X*X*X*X*X1X1X1X1X1X1X1XeXeX1X1X1X1X1X1X1X1X1X1X3X3X1X1X3X3X1X1X1X1X1X1X1X1X*X<X1X*X*X<X1X<X1X1X1X<X1X1X1X3X3X<X<X1X3X4X4X4X3X3X4X3X1X3X1X<X<X<X<X&X&X&X$X@X@XOX.X X X X XOX#X&X&X<X",
" X X X].'.'.'.'.'._._.S.C.a.a.a.~ Q Q Q ) _ t.t.p.p.a.a.p.a.p.a.a.a.C.C.a.a.a.A.A.C.A.A.a.A.A.A.A.A.A.A.A.A.A.A.A.A.A.A.A.A.A.A.A.C._ Q U U K / a.Q D D D D D D D D D D D D D G D D J J G G D D N D G D K m u D K U K Q Q ~ ~ / / ) ) ) _ _ r.t.~ K D K K m w y l m D K Q Q Q ) <XdXdXuXuXuXgXdXdXgXgXgXgXdXgXgXgXgXgXgXgXgXgXgXgXgXgXgXgXgXgXgXgXgXgXhXgXhXgXhXgXgXvXgXvXgXgXvXbXbXbXvXbXbXvXbXbXbXbXvXbXvXbXbXbXbXnXbXbXbXbXnXbXbXbXbXMXnXbXbXbXnXbXbXbXbXbXbXbXbXnXbXbXbXnXnXbXnXbXnXbXbXMXnXbXvXnXMXbXbXbXnXbXnXMXnXnXMXbXbXMXMXnXnXMXMXBXBXMXMXMXMXMXMXMXBXBXNXAXBXMXBXBXAXDXjXwXL.wXjXT.N.M.M.M.M.M.M.M.M.M.m.m.m.m.m.m.m.m.m.m.m.m.m.#.m.m.m.5.m.5.m.m.m.5.#.5.5.#.5.5.#.#.#.{ { { #.{ { [ { { #.#.+.+.#.#.#.#.+.{ [ ] ] +.#.#.#.#.+.+.+.+.+.#.+.+.@.h.J.J.J.oXoXoXoXoXoXoXoX%X%X%X%X&X*X*X*X*X*X*X*X*X*X1X1X1X1X1X1X1X1X1X1X1X1X1X1X1X1X1X1X1X1X1X1X1X1X1X1X1X1X1X1X<X1X1X1X&X&X&X&X<X1X1X<X1X3X3X3X3X1X<X<X3X3X4X4X3X4X4X3X1X1X<X<X<X<X<X&X&X&X&X#X@X@X@X X X{. X X@X$X&X<X",
" X X X X'.'.'.'.'.'._.S.C.a.a.a.Q K Q ~ ) _ t.t.t.p.p.a.a.p.p.a.a.A.A.A.A.C.A.A.A.C.A.A.a.a.A.A.A.A.A.A.A.a.A.A.A.S.S.S.S.A.S.A.C.A.) Q Q K Q _ _ K D D D D D D D D D D D D D D D D G J D G D D D J J J G g l K K U Q Q Q ~ / / ) ) ) ) _ _ t.t.Q J K K J u r l z m D K Q Q ~ ) A.tXdXuXgXuXuXdXdXdXgXdXgXdXgXdXdXgXgXgXgXgXgXgXgXgXgXgXgXgXgXgXgXhXhXbXhXgXhXgXgXgXgXvXbXvXgXgXbXvXbXbXbXvXgXgXbXbXvXbXbXbXvXbXbXbXvXbXbXbXbXMXnXbXbXvXnXMXbXbXMXnXbXbXnXnXbXbXbXbXbXbXnXMXnXMXnXnXnXnXbXbXnXnXbXbXnXMXnXbXbXnXnXMXMXbXnXMXMXnXMXMXMXMXMXMXMXSXBXSXMXMXMXMXMXNXNXnXMXBXnXNXNXAXjX9XG.L.pXwXN.N.M.#.m.M.M.M.M.5.#.m.m.m.m.m.m.m.M.m.m.m.m.m.m.#.m.M.m.m.m.m.m.m.m.#.5.5.5.5.5.#.#.#.#.{ { { #.{ { [ { { +.#.#.+.#.#.#.#.+.{ ] ] [ +.#.#.#.#.#.+.+.+.+.+.+.+.@.c.J.J.P.oXoXoXoXoXoXoXoXoX%X%XoX&X*X*X*X*X*X*X*X*X1X1X1X*X1X1X1X1X1X1X1X1X1X1X1X1X1X1X1X1X1X1X1X1X1X1X1X1X1X1X1X1X1X1X&X&X&X&X&X1X1X<X1X3X3X1X1X3X1X3X4X4X3X4X3X4X3X3X3X3X1X1X1X<X<X<X<X&X&X&X#X@X@XOX X X{.{. X@X&X*X",
"]. X X].].'.'.'.S.S.S.A.C.a.a.t.Q K Q ) ) _ t.p.p.a.a.a.a.a.a.a.a.A.A.A.A.A.A.A.A.a.A.C.a.a.A.A.A.A.A.A.A.A.A.A.A.A.S.S.A._.S.A.C.p.Q Q Q K ~ _ ~ D D D D D D D D D D D D D D D D D G J G G G D D K J G n u D U U Q Q Q Q / / / ) ) ) ) _ t.t.) J K J K m r y n D D J K Q Q / _ ) .XuXuXuXgXgXuXdXdXdXdXdXgXdXgXgXgXgXgXgXgXgXgXgXgXgXgXgXgXgXgXgXgXhXhXhXvXvXbXbXgXvXbXbXbXvXvXbXvXbXbXbXbXbXbXbXbXbXbXbXbXgXgXvXgXgXbXbXbXbXbXbXbXbXbXbXbXbXMXnXbXbXbXnXnXbXbXnXbXbXbXMXMXMXMXnXnXMXMXbXbXMXMXMXbXbXnXMXnXnXnXnXnXnXnXnXMXMXMXMXMXMXMXMXnXMXBXMXMXMXMXMXMXMXnXMXnXMXBXBXMXAXjX9XG.G.9XwXB.M.M.M.M.M.M.M.M.M.M.M.M.m.m.m.m.m.m.m.m.m.m.m.m.m.m.#.m.5.m.m.m.m.m.M.5.#.#.#.5.5.5.5.5.#.#.#.#.#.{ { [ [ { { #.#.+.#.#.#.#.#.+.[ ] ] { #.+.#.#.#.+.+.+.+.+.+.+.@.6.c.J.J.P.oXXXoXoXoXoXoXoX%X%XoX%X*X*X*X*X*X*X*X*X*X1X1X*X1X1X1X1X1X1X1X3X3X3X1X1X1X1X3X1X3X4X1X1X1X1X1X1X1X1X1X1X1X1X<X&X&X&X&X<X1X<X1X3X3X1X1X3X1X3X4X4X3X4X4X4X4X4X3X3X3X1X1X<X<X<X<X&X&X&X$X$X@X@X X X{.{. XOX#X&X",
"]. X].'.'.'.'.'.S.S.S.A.C.a.p.) K Q Q ) _ t.t.p.p.p.p.a.a.a.a.a.a.A.a.A.A.A.A.A.A.A.A.A.a.A.A.A.A.A.A.A.A.A.A.A.A.A.S.S.S.S.A.A.C.) K Q U U ) t.Q N D D D D D D D D D D D D D D D D D G J D D D D J G D z l K K Q Q Q ~ ~ / / ) ) ) ) ) _ t.t.U D K G D u w p n m D K Q Q ~ / ) ) r.1XuXuXgXgXdXdXgXgXdXgXgXgXgXgXgXgXgXgXgXgXgXgXgXgXgXgXgXvXvXgXgXgXhXgXgXgXhXhXvXgXvXvXgXvXbXbXgXbXbXbXbXgXgXgXvXbXbXbXbXMXgXgXbXMXbXbXnXbXbXbXbXbXbXnXMXbXnXMXbXbXbXbXnXnXnXnXnXbXbXMXMXMXMXnXbXnXbXbXbXbXnXnXnXnXnXnXnXnXnXMXMXnXnXnXnXMXMXMXMXMXMXMXMXnXMXnXMXMXBXMXMXBXBXMXMXAXSXAXAXAX9Xv.U.U.wXY.N.M.M.M.M.M.M.M.M.M.M.M.m.m.m.m.m.m.m.m.m.m.m.m.m.m.m.m.m.5.5.5.5.m.m.m.M.#.#.#.5.5.5.5.#.#.#.#.#.#.#.{ { [ [ { +.+.+.#.#.#.#.#.+.{ { ] ] { #.+.#.+.+.+.+.+.+.+.+.+.@.6.c.J.P.P.XXoXoXoXoXoXoX%X%XoX%X%X*X*X*X*X*X*X*X*X*X1X*X1X1X1X1X1X1X1X1X1X1X1X1X1X3X1X1X3X1X1X1X3X1X1X1X1X1X1X1X1X1X1X<X*X&X&X<X<X<X1X1X3X1X1X3X1X3X3X3X4X4X4X4X4X4X4X3X3X3X1X<X<X<X<X<X*X&X&X&X$X@X@X X X{.{. XOX@X",
" X].'.'.'.'.'.'.S.S.A.A.V.V.t.~ Q Q Q ) _ t.t.p.p.p.p.a.a.a.a.a.a.A.a.a.A.a.C.A.A.A.A.A.A.A.A.A.A.A.A.A.A.A.A.A.S.S.S.S.S._.A.A.p.~ Q Q U ~ p.) D N D m D D m m D D D N D D D D D D D D G D D D D G D N z D K K Q Q ~ ~ ~ / / ) ) ) ) ) _ t.) G J G J n w r l l m J K Q Q ) ) / ) _ '.rXdXgXuXdXdXgXgXdXgXgXgXgXgXgXgXgXgXgXgXgXgXgXgXgXgXgXgXgXgXgXhXvXgXgXhXhXvXgXvXvXbXgXbXbXbXgXbXbXvXnXvXbXgXbXbXvXbXvXnXbXbXbXMXMXbXbXbXbXbXnXnXnXnXnXnXnXnXbXbXbXbXMXMXMXMXnXbXvXnXnXnXMXnXnXMXnXnXMXnXbXnXnXbXnXnXnXnXnXMXnXnXMXMXnXMXnXMXMXMXMXMXnXnXMXnXMXMXSXSXSXBXNXMXMXMXSXAXAXwXU.B.B.U.U.N.M.M.M.5.M.M.M.M.M.M.M.M.m.m.m.m.m.m.m.M.m.m.m.m.#.m.m.m.m.m.m.5.5.M.m.M.#.5.5.#.5.5.#.#.#.#.#.#.#.#.#.#.{ { { { { +.#.#.#.+.+.#.+.#.{ [ ] ] { #.+.+.+.#.#.#.+.+.+.+.+.@.j.J.P.P.oXoXoXoXoXoXoXoXoX%X%X%X*X*X*X*X*X*X*X*X*X*X*X1X1X*X1X1X1X1X1X1X1X1X1X1X1X1X1X1X1X1X1X1X3X3X3X1X1X1X1X1X1X1X1X<X*X*X<X<X<X1X3X3X1X1X4X3X4X3X3X4XrX4X4X4X4X4X3X3X3X3X<X<X<X<X<X<X&X*X*X&X#X@XOX X X]. X XOX",
" X'.'.'.'.'.'.'.S.S.A.A.A.a.) Q K Q ) ) _ t.t.p.p.p.a.a.a.a.a.C.a.a.a.A.A.C.A.A.A.A.a.A.C.A.A.a.A.A.A.A.A.A.A.A.A.A.A.A.S.S.S.A.) Q ~ Q K ) _ K N D D D D D m D D D D B D D D D D D D D D D D D D D D m n U K U Q Q Q ~ ~ / ) ) ) _ ) ) t.t.U G K D J l r p l m D K K Q ~ ) ) ) ) t.a.@XuXgXuXdXdXgXgXgXgXgXgXgXgXgXgXgXgXgXgXgXgXgXgXgXgXgXgXgXgXhXvXvXvXgXhXhXvXvXgXvXgXvXbXbXbXvXbXMXbXbXbXbXbXbXvXvXbXbXbXnXbXbXbXbXbXbXbXbXbXbXbXnXnXnXMXMXvXbXMXnXnXnXMXnXnXnXMXMXMXMXnXnXnXMXnXnXMXMXnXnXbXbXnXnXMXMXMXMXMXMXMXMXMXMXMXBXMXMXMXMXMXMXMXMXMXMXMXMXMXBXNXMXnXSXSXAXAXwXB.U.v.Y.Y.B.N.M.M.M.M.M.M.M.M.M.M.M.M.m.m.m.m.m.m.M.m.m.m.m.m.m.m.m.m.m.m.m.m.m.m.m.m.m.5.#.m.5.5.#.#.#.#.#.#.#.#.#.#.#.{ { [ [ { #.#.#.#.#.#.#.#.+.{ [ ] ] #.#.#.#.#.#.+.+.+.+.+.+.+.@.b.K.oXoXoXoXoXoXoXoXoXoX%XoX%X%X%X%X*X*X*X*X*X*X1X*X*X*X*X1X1X1X1X1X1X1X1X1X1X1X1X1X1X1X1X1X1XrX3X1X1X1X1X1X1X1X1X1X<X<X<X*X*X<X<X1X4X3X4X4X3X3X4X4X4XrXrX4X4X4X4X4X4X3X3X1X1X<X<X<X<X<X1X<X&X$X#X@XOX X].'.{. X",
" X'.'.'.'.'.'.'.S.S.S.A.A.p.) Q U Q ) ) t.t.p.p.p.a.a.a.a.a.a.A.a.a.a.A.A.A.A.A.a.A.a.A.A.A.A.A.C.A.A.A.A.A.A.A.A.A.A.A.A.A._.a.~ Q ~ Q Q t._ D m D D D D D D D D D D D D D D D D D D D D D D D D D n l N U U U Q Q Q / / / ) ) ) _ ) t.p./ D K K J m w y l m D K K Q ~ ) ) ) ) ) t.C._.1XuXgXdXgXgXgXgXgXgXgXgXgXgXgXgXgXgXgXgXgXgXgXgXgXgXgXgXgXgXhXhXhXhXhXhXhXvXgXvXgXvXbXvXvXbXbXnXnXbXnXnXbXnXvXbXbXnXnXbXbXnXnXnXnXMXMXbXbXvXbXnXMXMXnXMXbXbXMXMXbXnXnXnXnXbXMXMXnXnXnXbXMXnXnXnXMXnXnXMXbXnXnXnXMXMXMXMXMXMXnXMXMXMXMXMXMXMXMXMXMXMXMXMXMXMXMXMXMXNXNXhXnXSXDXAXpXL.B.B.U.Y.B.M.M.M.M.M.M.M.M.M.M.M.M.M.M.m.M.M.m.m.m.m.m.m.m.m.m.m.m.m.m.m.5.m.5.5.m.5.m.m.m.#.m.m.m.m.#.m.#.#.#.#.#.{ { #.+.{ { [ { { #.#.#.#.#.#.#.+.{ [ ] ] { #.#.+.+.+.+.+.+.{ +.{ +.+.6.K.J.oXXXoXoXXXXXoXoXoXoXoX%X%X%X%X%X*X*X*X*X*X*X*X*X*X*X1X1X1X1X1X1X1X1X1X1X1X1X1X3X3X3X1X3X3X3X3X1X3X1X1X1X1X1X1X1X1X<X&X*X<X<X3X4X4X4X4X3X3X4X4X3X4X4XrXrX4X4X4X3X1X3X1X3X<X<X<X<X<X<X<X&X&X$X#X@X X X'.].{.",
" X'.'.'.'.'.'.'.S.S.S.A.A._ Q Q Q / ) _ t.p.p.p.a.a.a.a.C.A.a.a.A.A.a.A.A.A.A.A.A.A.a.A.A.A.S.A.A.A.A.A.A.A.A.A.S.A.A.A.A.A.A._ Q Q Q Q / p.~ m N D D D D D D D D D D D D D D J D D D D D D G D D D l z G U U Q Q ~ ~ / / / ) ) ) ) _ p.t.Q G K D J p 2 l l n D J K Q ~ ~ ) ) ) _ p.A.a. XtXdXuXdXgXgXgXgXdXgXgXgXgXgXgXgXgXgXgXgXvXgXgXgXgXgXgXhXvXhXgXgXhXbXhXgXvXgXvXgXgXvXvXgXvXbXbXbXbXbXbXbXbXbXbXbXbXnXnXbXbXbXbXbXbXnXnXnXbXnXMXMXMXbXnXnXnXnXnXbXMXMXnXnXbXnXnXvXbXnXnXnXnXbXnXMXMXMXMXMXnXMXMXMXMXMXMXMXMXMXMXMXMXMXMXnXMXMXMXMXMXMXMXMXMXMXMXMXMXMXAXAXAXAXjXT.v.B.B.Y.Y.m.M.M.M.M.M.M.M.M.M.M.M.M.M.M.m.m.m.m.m.m.m.m.m.m.m.m.m.m.m.m.m.5.5.5.5.5.5.m.m.#.#.m.m.m.m.#.m.5.#.#.#.#.#.{ #.#.{ { { { { #.#.#.#.#.#.#.#.+.{ ] ] ] { #.+.#.+.+.+.+.+.+.+.+.+.@.f.K.oXJ.oXoXoXoXXXoXoXoXoX%X%X%X%X%X*X*X*X*X*X*X*X*X1X1X1X1X1X1X1X1X1X1X1X1X1X1X1X1X1X1X1X1X3X3X1X1X1X1X1X1X1X1X1X1X1X1X<X<X<X<X3X3X3X3X4X4X4X4X4X4X3X4X4XrX4X4X4X3X1X3X1X3X<X1X1X<X<X<X<X&X&X$X$X@X@X X X'.'.",
" X].'.].'.'.'.'.S.S.S.A.a./ Q Q Q ) t.t.t.t.p.a.a.a.p.a.A.A.A.a.A.A.A.A.A.A.A.A.C.A.a.A.A.A.A.A.A.A.A.A.A.A.A.S.S.A.A.A.A.S.a.) Q ~ Q ~ _ ) K N D D D D D D D D D D D D D D D D D D N D D D D D G m g D K U Q Q ~ / ~ / / ) ) _ _ ) _ p./ K K K D m r y n m D D K Q ~ ) ) ) / _ p.a.A.C.A.@XuXdXdXgXgXdXdXgXdXgXgXgXgXgXgXgXgXgXgXgXgXgXgXvXgXgXhXhXgXgXgXhXbXbXgXgXgXgXgXvXbXvXvXbXvXgXbXbXbXnXbXbXnXnXbXbXnXbXbXnXnXnXnXMXMXMXnXnXnXnXnXnXnXnXMXMXbXnXnXMXMXnXMXnXMXbXnXnXnXnXnXnXbXnXnXbXnXMXnXMXMXMXMXMXMXMXMXMXnXMXnXMXBXMXbXBXMXMXMXMXNXNXMXMXMXnXMXMXMXMXAXAXjXT.B.B.B.Y.Y.N.M.N.M.M.M.M.M.M.M.M.M.M.M.M.m.m.M.m.m.m.m.m.m.m.m.m.m.m.m.m.m.m.5.m.m.m.m.m.m.m.5.#.m.#.#.m.m.m.5.5.5.#.#.#.#.#.#.+.{ { [ [ { +.+.#.#.#.#.#.#.+.{ ] ] [ { #.#.+.+.+.+.+.{ { +.+.@.@.f.K.J.J.oXoXoXoXXXoXoXoXoXoX%X%X%X%X*X*X*X*X*X*X1X1X1X1X1X1X1X1X1X1X1X1X1X1X1X3X1X1X3X1X3XrX3X1X1X1X1X1X1X1X1X1X1X1X1X<X<X<X<X1X3X3X4X4X3X3X4XrXrX4X4X4XrX4X4X4X4X3X4X3X3X1X1X3X1X<X<X<X&X&X&X&X$X@XOX X].'.",
"].'.'.'.'.'.'.'._.S.A.S.p./ U Q / ) t.t.p.p.p.a.a.a.a.a.a.a.A.A.A.A.A.A.A.A.A.A.A.A.a.A.A.A.A.A.A.A.A.A.A.A.A.S.S.S.A.A.A.A.t.~ Q Q Q ) p.~ D D D D D D D D D D D D D D D D D D N N D D D D G G D l n K U U Q Q / / / / ) ) _ _ ) ) t.t.U D D K D p w l n m D J K Q ~ ) ) ~ / _ p.a.C.A.a.'.1XdXdXdXdXgXgXgXgXgXgXgXgXgXgXgXgXgXgXgXgXgXvXvXvXvXhXgXgXhXgXgXhXhXbXgXgXgXgXbXbXbXbXbXbXbXvXbXnXnXbXnXMXMXnXbXbXnXbXbXbXbXbXbXnXMXMXMXnXbXnXMXnXnXMXMXnXnXnXnXMXMXMXMXMXnXMXMXnXbXnXMXMXMXMXbXnXMXMXMXMXMXnXMXMXMXMXMXMXMXMXMXMXMXnXBXBXMXMXMXMXNXMXMXMXMXMXnXMXNXDXjX9XB.B.N.Y.Y.N.m.M.M.M.M.M.M.M.M.M.M.M.M.M.M.M.m.m.#.m.m.m.m.m.m.m.m.m.m.m.m.m.m.m.m.m.m.m.m.5.m.#.#.#.m.m.m.m.m.5.5.5.5.#.#.#.#.+.+.#.+.{ [ { { +.#.#.#.#.#.#.#.#.[ ] ] [ +.+.+.+.+.+.+.{ { +.+.+.@.@.k.K.J.P.oXXXXXoXoXoXoXoXoXoX%X%X%X*X*X*X*X*X*X1X1X1X1X1X1X1X1X1X1X1X1X1X1X1X3X1X1X1X1X1X1X1X1X1X1X1X3X1X1X1X1X3X1X1X1X<X<X1X3X4X4X4X4X4X3X4XrXrX4X4X4XrX4X4X4X4X3X4X1X3X3X3X3X1X<X<X<X<X&X&X&X&X$X@X.X X].",
"'.'.'.'.'.'.'.'.S.S.A.A.t.Q Q Q ) ) t.t.t.p.p.p.a.a.a.a.a.a.A.A.a.A.A.A.A.A.A.A.A.A.A.A.A.A.A.A.A.A.A.A.S.S.A.S.A.A.A.A.C.A.) Q Q Q ~ _ t.U D D N D D D D D D D D D D D G D D D D D D D D D J K m l G K U Q Q Q ~ / / ) ) ) _ ) ) t.p.~ G G K Q D r y n m D D K Q ~ ~ ) ~ ) ) _ a.C.a.C.A.a. XuXgXdXgXgXgXdXgXgXgXgXgXgXgXgXgXdXgXgXgXgXbXbXvXgXgXhXhXbXbXgXgXgXbXbXbXbXbXbXbXbXnXbXnXnXvXbXMXnXMXMXnXnXnXnXnXnXnXnXbXbXnXbXbXMXMXnXbXnXMXMXnXnXMXnXMXMXbXnXMXMXnXMXMXnXnXMXnXbXMXMXMXMXMXnXnXnXnXbXnXMXMXMXMXMXBXMXMXMXMXMXMXBXMXBXBXMXnXMXMXnXnXnXnXMXnXnXMXAXAXwXU.Y.B.B.Y.B.N.m.M.M.M.M.M.M.M.M.M.M.M.M.M.M.m.m.m.m.m.m.m.m.#.m.m.m.m.m.m.m.m.m.5.m.m.m.m.m.5.5.5.#.m.m.m.#.#.m.#.5.5.5.5.#.#.#.#.+.+.{ { { { { +.#.#.#.#.#.+.#.#.{ [ ] ] [ +.#.#.+.+.+.+.+.+.+.+.+.@.@.c.K.K.XXXXXXXXoXoXoXoXoXoX%X%X%X%X*X*X*X*X*X*X*X*X1X1X1X1X1X1X1X1X1X1X3X1X3X1X1X1X1X1X1X1X1X1X4X1X3X1X1X1X1X1X1X1X1X1X1X1X1X3X4X4X4X4X4XrX4X4X3X4X4X4X4X4X3X4X3X1X1X3X4X4X1X1X1X<X<X<X<X&X&X&X&X#X@XOX X",
"].'.'.'.'.'.'.'.A.A.A.V._ U U Q ) t.t.t.t.p.p.a.a.a.a.a.a.a.A.A.A.A.A.A.A.A.A.A.A.A.A.A.A.A.A.A.A.A.A.S.S.S.S.S.S.A.A.A.A.C.Q U Q K / p.) G D D D D D D D D D D D D D D D D D D D D D D D D G D l z K U U Q Q ~ / / ) ) ) ) ) ) _ p._ G N D K K y 9 p m D D J K ~ ) ) ) ~ ) _ p.V.A.C.C.A.a.a.&XgXgXgXgXgXgXgXgXgXgXgXgXhXgXgXgXgXgXgXgXvXvXvXgXgXgXhXhXbXbXbXgXbXbXbXbXbXbXbXbXbXbXbXbXvXbXnXbXnXnXMXbXbXnXbXbXbXnXnXnXnXbXbXnXMXMXnXnXMXnXnXMXMXMXMXMXnXnXMXMXMXMXMXMXMXMXMXnXMXMXMXMXMXnXnXnXnXMXMXMXBXMXMXMXMXnXnXMXMXnXMXMXnXMXMXMXMXMXMXMXnXMXnXnXnXnXAXAXpXU.B.N.B.Y.B.N.N.m.M.M.M.M.M.M.M.M.M.M.M.M.M.M.M.m.M.m.m.M.m.m.m.m.m.m.m.m.m.m.m.m.m.m.5.m.m.m.m.m.m.m.m.m.m.#.m.m.5.5.5.5.#.#.#.#.#.+.+.+.{ { { { { +.#.+.#.#.#.#.#.+.{ { ] ] +.#.#.+.+.+.+.+.+.{ +.+.+.@.7.K.K.XXXXP.XXXXoXoXoXoXoX%X%X%X%X*X*X*X*X*X*X*X1X1X1X1X1X1X1X1X1X1X1X1X1X3X1X1X1X1X1XrX1XrX4X1X1X1X1X1X1X1X1X1X1X1X1X3X3X3X3X4X4X4X4X4X4X4X4X4X4XrX4X4X4X4X4X4X4X3X4X4X3X3X1X1X1X1X<X<X&X&X&X&X&X@X@X@X",
"'.'.'.'.'.'.'.S.A.A.A.V.) U Q / ) t.t.t.p.p.p.a.a.a.C.a.a.a.A.A.A.A.A.A.A.A.A.A.A.A.A.A.A.A.A.S.A.A.S.S.S.S.S._.S.A.A.A.C.t.Q Q Q U ) _ ~ J D J D D D D D D D D D D D N D D D D D D D D D G G m g D U U Q Q ~ ~ / / ) ) ) ) ) ) t.p.Q D G J K n 8 r n m D D K Q ~ ) ) ~ ~ _ p.a.C.C.A.C.a.p.p.'.tXgXgXgXgXgXgXgXgXgXgXgXgXgXgXgXgXgXgXvXbXbXvXgXgXhXgXhXbXgXbXhXbXbXbXbXbXbXbXbXnXbXbXnXvXbXMXnXnXnXnXbXbXnXbXbXbXnXnXMXnXbXvXnXnXMXnXnXnXnXnXMXMXnXMXnXbXbXnXMXnXMXMXnXbXMXnXMXMXnXMXnXMXnXnXMXnXMXMXMXBXMXMXMXMXMXnXMXMXMXBXBXMXMXMXBXBXMXMXnXnXnXnXnXAXAXDXjXT.Y.N.B.Y.Y.N.M.m.m.M.M.M.M.M.M.M.M.M.M.M.M.M.M.m.M.m.m.m.m.m.m.M.M.M.m.M.m.m.m.m.m.5.m.m.m.M.M.m.m.m.m.5.m.m.#.#.#.#.#.5.5.#.#.#.#.#.#.+.+.+.{ { [ { { +.+.#.#.#.+.#.+.+.{ ] ] [ +.#.#.#.+.+.+.+.+.+.+.+.+.%.c.K.K.oXP.P.XXoXoXoXoXoXoXoX%X%X*X*X*X*X*X*X*X*X1X1X1X1X1X1X1X1X1X1X3X1X1X1X1X1X1X1X3X3X3X3X1X1X3X1X1X1X1X1X4X3X1X1X3X4X3X3X4XrX4XrX4X4XrXrXrX4X4X4X4X4X4X4X4X3X3X4X3X1X3X3X1X1X1X1X<X&X&X*X*X&X&X#X@X",
"'.'.'.'.'.'.'.S.A.A.A.r.Q U Q ) ) t.t.p.p.p.p.a.a.a.C.a.a.A.A.A.A.A.A.A.A.A.A.S.A.A.A.A.A.A.A.A.A.A.A.S.S._.S._.S.A.A.a.p./ Q Q U Q p.) K J D J G D D D D D D D D D D N D D D D D D D D G J G z z U Q U Q Q ~ / / ) ) ) ) ) ) ) t.t.G G K D m u w p m m H J Q ~ ~ ) ) ~ ~ _ p.a.C.C.C.C.p.t.C.A.@XuXgXgXgXdXgXgXgXgXgXgXgXgXgXhXvXgXgXvXvXvXvXgXgXvXgXbXbXbXbXgXgXbXvXvXbXvXbXbXbXbXnXbXvXbXnXbXnXnXnXnXnXnXbXbXnXMXMXMXnXbXbXbXnXMXMXMXnXbXnXMXMXMXMXMXbXnXMXMXMXMXMXnXbXnXnXMXMXnXnXbXnXbXnXnXbXMXMXMXMXMXMXMXMXMXMXMXMXMXBXBXMXMXnXMXMXMXMXMXnXnXMXAXAXAXAX9XB.B.N.Y.Y.N.M.M.M.M.m.m.M.M.M.M.M.M.M.M.M.M.M.M.M.M.M.M.m.m.m.5.5.M.m.M.M.m.m.m.m.m.m.m.m.m.m.M.m.m.m.m.5.m.m.m.m.m.5.5.5.5.#.#.#.#.#.#.#.+.+.+.{ { [ { { { +.+.#.#.+.+.+.+.{ ] ] [ { { { +.+.+.+.+.+.+.+.+.@.6.b.J.K.oXP.P.oXoXoXoXoXoX%X%X%X&X*X*X*X*X*X*X*X1X1X1X1X1X1X1X1X1X1X1X1X3X1X1X1X1X1X1X3X1X1X3X1X1X1X1X1X1X1XrX4X3X3X4X4X4X3X3XrXrXrXrX4X4X4X4X4X4X4X4X4X4X4X3X3X4X4X3X1X3X3X3X1X1X1X<X<X*X<X<X*X&X$X@X",
"'.'.'.'.'.'.'.S.S.A.A.) Q U Q ) t.t.t.p.p.a.p.a.a.a.a.a.a.A.A.A.A.A.A.S.S.S.S.S.S.A.A.A.A.S.S.A.A.S.A.A.S._._._.S._.A.C.t.Q Q Q Q ) p.Q D J D D G D D D D D D D D D D N D D D D D D D G G G D m G Q Q Q Q ~ / / / ) ) ) ) _ ) _ p.) m D D D m u y l l D J K Q ~ ) ) ~ ~ _ t.a.V.V.V.V.C._ p.A.S.'.1XgXgXhXgXgXgXgXgXgXgXgXgXgXgXvXgXvXgXgXgXgXvXbXvXvXbXbXbXbXbXbXbXvXbXnXgXbXbXvXnXnXvXnXnXbXbXnXnXnXnXnXMXnXMXMXnXnXnXnXnXnXMXMXMXMXMXMXnXbXnXMXMXMXMXMXMXMXMXMXMXMXnXMXMXMXnXMXMXMXMXMXnXnXnXMXMXMXnXMXMXMXMXMXMXMXMXMXMXMXMXMXMXMXMXMXMXMXMXNXMXBXMXAXAXwXU.B.B.B.Y.B.M.M.M.M.M.M.M.M.M.M.M.M.M.M.M.M.m.M.M.M.m.M.M.5.M.M.5.M.M.M.M.m.m.m.5.m.m.M.M.M.m.m.M.m.m.#.#.m.5.5.m.m.m.5.5.5.5.5.5.#.#.#.#.#.+.+.+.{ { { [ { { { +.+.#.#.#.+.+.{ { [ ] ] ] ] ] ] ] ] { +.+.{ +.+.+.6.b.K.oXJ.K.XXoXoXoXoXoXoX%X%X%X*X*X*X*X*X*X*X*X*X*X1X1X1X1XeX1X1X1X1XrX1X1X3XrX3X1X3X3X1X1XrX1X1XrXrX1XrX4X4X4X4X4X4XyX4X1X3X4X4XrXrX4XyX4X4X3X4X4X4X4X4X4X4XrX4X4X4X4X4X4X1X<X1X<X<X<X<X*X*X*X&X$X",
"'.'.'.'.'.'.'._.S.A.a./ U Q / ) t.t.t.p.p.a.p.a.a.a.C.a.a.A.A.A.A.A.A.S.A.S.A.S.A.A.A.A.A.A.S.A.S._.A.A.S.S.S.S.S._.A.C.) Q Q U Q _ ) K G G G G G G D D D D D D D D D D D D D D D D D G G G N N U Q Q Q Q ~ / / / ) ) ) ) _ _ t._ K N J D m u p l l m D J K Q ) ) ) ~ ) t.p.V.C.C.C.V.a._ a._.A.S. XrXgXdXgXgXgXgXgXgXgXgXgXgXgXgXgXgXgXgXgXvXbXvXgXgXbXbXvXbXbXbXbXbXbXbXvXbXbXbXbXbXvXbXbXbXnXnXnXbXbXnXnXnXnXnXMXnXMXMXnXMXMXMXMXnXnXnXMXMXnXnXbXMXMXMXMXMXMXMXMXnXbXMXMXnXnXMXMXMXMXMXMXnXMXMXMXMXMXMXMXMXMXMXBXMXBXBXMXMXMXMXMXMXMXMXMXMXMXMXMXMXNXDXjXU.U.B.B.Y.B.N.m.m.M.M.M.M.M.m.M.m.M.M.M.M.M.M.5.M.5.m.#.#.M.5.5.5.5.M.5.5.5.m.5.5.5.5.5.5.5.5.5.5.5.5.5.m.m.m.m.5.#.5.5.5.5.5.5.#.5.5.5.#.#.#.#.#.#.+.{ { [ { { { +.+.+.+.#.+.+.+.{ [ [ [ ] [ ] ] ] ] [ +.{ { +.+.+.+.6.J.oXJ.J.XXXXoXoXoXoXoX%X%X%X%X*X*X*X*X*X*X*X*X1X1X1X1X1X1XeX1X1X1X3X1X1X1X3X1X1X1X3X1X3XrXrX1X3X3X1XrXrX4X4X4X4X4XyX4X4XrX4XrX4XyXrX4XrXrX4XrX4X4X4X4XrXrX4X4X4X3X3X4X3X1X1X1X<X<X<X<X<X*X&X&X&X",
"'.'.'.'.'.'.'.'.S.V._ Q Q Q ) _ t.p.p.p.p.a.a.a.a.a.A.A.A.A.A.A.A.A.A.A.A.A.A.A.A.A.A.A.A.A.A.A.A.A.A.A.A._.S.S._.S.A.a./ Q Q U / _ Q K K K G G G G G K D D D D D D N N N N D D D D G G G G m G Q Q Q Q Q ~ / / / ) _ _ ) _ t.t.~ D D D D l r p l l D K K Q ~ ) ) ) ) _ p.a.C.C.C.V.a.t.t.C.A.S.'.S.@XdXgXgXgXgXgXgXgXgXhXgXgXgXgXgXgXgXvXvXvXbXvXvXvXbXbXbXbXbXbXbXvXbXbXbXbXnXbXbXbXbXbXbXbXbXbXbXbXbXnXnXnXnXnXnXnXMXMXnXMXMXnXMXnXnXnXMXMXMXnXnXMXMXMXMXMXMXMXMXMXnXMXMXMXMXnXnXMXnXMXMXMXMXMXBXMXMXMXMXMXMXMXBXMXMXMXMXnXMXnXMXMXMXMXMXNXMXMXMXNXDXAX9XB.B.U.Y.Y.N.M.M.M.m.M.M.M.M.M.M.M.M.M.M.M.M.M.5.5.5.5.M.M.m.m.#.#.#.5.#.{ #.5.5.5.5.#.5.#.#.#.#.#.#.#.5.#.#.#.#.#.5.5.5.5.5.5.#.#.5.5.5.5.#.#.#.#.#.+.{ { [ [ { { +.+.+.+.#.#.+.+.+.{ +.{ { { { { [ ] ] { +.{ +.{ { +.@.j.K.oXoXXXoXoXoXoXoXoX%X%XoXoX%X%X*X*X*X*X*X*X1X1X1X1X1X1X1X1X1X1X1X1X1X1X3X1X1X1X1X1X1X3XrX3X1X3X1X4X4X4X4XrXrXrXyXyXyXyX4X4X4X4X4X4X4XyX4XyXrX4X3X4X4X4X4X4X4X3X4X4X3X1X3X1X<X<X<X<X<X<X<X&X&X",
"'.'.'.'.'.'.S._.S.a./ Q / / ) _ t.p.p.p.a.a.a.a.a.a.A.A.A.A.A.A.A.A.S.A.A.A.A.A.S.A.A.A.A.S.S.A.A.S.S.S.S._.S.S.S.C.A.t.Q Q G Q t.) U K K J D D G G K K D D D D D N m m N N D N D D D G G N N U Q Q Q Q ~ / ) ) ) ) t.t._ _ t._ K D D D m r u l l D D K Q Q ~ ) ) ) _ t.p.V.C.C.V.a.p._ a.S.A.'.S.'._.1XgXgXgXgXgXgXhXgXhXhXhXgXgXgXgXgXvXvXbXbXbXgXvXbXbXvXbXbXbXbXbXbXnXbXnXMXMXbXbXnXbXbXbXnXnXnXnXnXnXMXnXnXMXnXnXnXnXnXnXbXbXMXMXMXMXMXMXMXMXMXMXMXMXMXMXMXMXMXnXbXMXBXMXMXMXMXMXMXMXSXMXnXMXSXMXMXMXMXMXMXMXBXMXBXMXMXMXMXMXMXMXMXMXMXNXMXMXMXNXAXpXB.B.G.U.Y.N.M.M.M.M.M.M.M.M.M.M.M.M.M.M.m.m.m.5.5.5.5.5.5.5.5.#.#.#.#.5.5.{ #.#.#.#.#.#.#.#.#.#.#.#.#.#.#.#.#.#.#.#.#.#.#.#.#.#.#.#.5.#.#.5.#.#.#.+.+.+.{ { { [ [ { { +.+.5.#.+.#.#.#.+.+.+.+.{ { { { [ ] [ { +.{ { { { +.6.H.K.oXoXXXoXoXoXoXoXoX%XoXoX%X%X*X*X*X*X*X*X*X1X1X1X1XeX1X1X1X1X1X1X1X3XrX3X1X1X1X1X1XrXrX3X1XrX1X4X4X4X4XrXrXrXyXyXyXyXrX4XyXrXrXyX4XyXrXyXyXrX4XrXrX4X3X4X4X3X4X4X1X1X3X3X1X<X<X1X<X<X<X&X&X",
"'.'.'.'.'.S.S.S.S.t./ Q ~ ) t.t.t.p.p.p.p.a.a.a.A.A.A.A.A.A.A.A.A.A.S.A.A.A.A.S.A.A.A.A.S.S.A.A.S.S.S._.S.S.S._.S.C.C.~ U Q K ) p.Q J G K J J J G G K G D D D D D D m N N N m D G D D G G m G U Q Q Q Q / / ) ) ) _ t.t._ t.t.Q D D D D l w p l m D K K Q ~ ) ) ~ ) t.p.a.C.V.C.C.a.t.p.V._._.A.A.S.V.'.tXhXgXgXgXgXgXgXhXhXvXgXgXgXgXgXvXnXgXvXbXvXgXbXbXbXbXbXbXbXbXbXbXbXbXbXbXbXbXnXbXbXnXnXnXnXnXnXnXnXnXnXnXnXbXbXnXnXnXMXbXnXMXMXMXMXMXMXnXMXMXMXnXMXMXMXMXMXMXMXMXMXMXMXMXMXMXMXMXMXMXMXMXMXMXMXBXBXMXMXMXMXMXMXMXMXnXMXMXSXMXMXMXMXnXnXMXnXAXjXT.B.B.U.Y.B.M.M.M.M.M.M.M.M.M.M.M.M.M.M.m.M.m.M.5.5.5.5.5.5.5.#.#.+.+.+.+.+.+.+.+.+.+.{ [ [ [ [ } @.@.@.@.@.@.@.@.@.@.+.@.@.+.{ { +.+.#.#.#.#.#.#.#.#.#.{ { { { { [ [ { +.+.5.#.+.+.+.+.+.#.+.+.+.{ +.+.[ [ ] [ { { { { { { @.6.K.oXXXoXoXXXoXoXoXoXoX@XoXoX%X%X&X&X*X*X*X*X*X*X1X1X1X1X1X1X1X1X1X1X1X3X1X3X3X3X3X1X3XrXrXrX4X4XrXrXrXyXrXyXyXyXyXyX4X4X4XyXrXrXrXrXrXyXyX4XyX4XrX4X3X4X4X3X4X4X3X3X1X3X3X1X<X<X1X1X<X<X<X&X",
"'.'.'.'.'.S.'.S.A.) Q Q / ) t.t.t.p.p.a.a.a.a.a.A.a.A.A.A.A.A.A.S.A.A.A.A.A.A.S.A.A.A.S.S.S.A.S._.S.S.S.S.S.S.S.S.A.p.Q Q Q Q t.) U K J K K J J G G G D D D D D D D m N N N N N D D D G N N K Q Q Q Q Q / ) / / ) t.t.t._ p._ Q D D D m u r l m D D K Q Q ~ ) ) ~ _ t.p.a.C.C.C.V.p._ p.A.S.S.S.A.S.a.p.OXgXgXgXgXgXgXgXhXgXhXvXvXgXgXvXgXvXgXgXbXbXgXvXbXbXbXbXbXbXbXbXbXbXbXbXbXbXbXMXnXnXMXnXnXnXnXnXnXnXnXnXnXnXbXnXnXnXMXMXnXnXMXMXMXMXMXnXnXMXMXMXnXMXMXMXMXMXMXBXMXMXMXMXMXMXMXMXMXMXMXMXMXMXMXMXBXBXMXMXBXMXMXMXMXMXnXMXMXMXMXMXMXMXnXNXMXAXAXwXb.b.T.T.Y.M.M.M.M.M.M.M.M.M.M.M.M.M.M.M.M.M.m.5.#.+.#.#.+.%.@.@.@.%.} } } Y I Z C C b C V C C V V V V C C Z Z Z Z Y | } | } } } } } } } @.@.@.+.+.+.+.+.{ { { { { [ [ { { +.#.#.+.#.#.+.+.#.+.+.+.+.+.+.{ [ ] ] { +.{ { { { { @.h.K.oXoXoXoXoXoXoXoXoXoXoX@XoX%X%X&X*X*X*X*X*X*X*X1X1X1X1X1X1X1X1X1X1X1X1XrX3X3XrX1XrXrXrXrXrXrXrXrXyXyXyXyXyXyXyXyX4XrX4X4X4X4X4XyXrXyXyX4XrXrX4X4X4X4X4X3X4X3X3X4X4X3X1X1X3X3X1X1X<X<X<X*X",
"'.'.'.'.'.S.S.S.p./ Q ~ / ) t.t.t.p.a.a.a.a.a.a.A.A.A.A.A.A.A.A.S.A.A.S.S.A.A.A.S.A.A.S.A.A.A.S._.S.S.S._.S.A.A.A.a.) Q Q Q / t./ K K K K K K J J G G D D D D D D D N N N N N N G K J B z G Q Q Q Q Q ~ ~ / ) ) _ t.t._ t.p.) K m D D l r p l z D J K Q ~ ~ ) ) ) t.p.a.a.C.A.C.a.p.p.V._.S.S._.S.A.C.r.a.1XgXgXgXgXhXhXhXgXhXgXvXgXgXvXgXgXvXgXvXbXbXbXvXbXbXbXbXbXbXbXbXbXbXbXnXbXbXbXbXbXnXnXnXMXnXnXnXnXbXbXMXnXnXnXnXMXMXMXMXMXMXMXMXMXMXMXMXMXMXMXMXMXMXMXMXMXMXBXMXMXMXMXMXMXMXMXMXMXMXMXMXMXMXMXMXMXMXMXMXMXMXMXMXMXMXMXMXNXMXMXMXMXnXMXAXAXsXH.G.9XpXY.M.M.M.M.M.M.M.M.M.M.M.M.M.M.M.M.M.5.5.#.+.@.%.%.| Y Y Z Z R Z V j k g g g g g u t u u u u u r r u g g t s s s f j j j j v V C Z Z Z } } } } @.@.@.@.+.{ [ [ [ [ { { +.#.#.#.#.+.#.+.+.+.+.+.+.+.+.+.[ ] [ { { +.{ { { +.@.b.J.P.oXoXoXoXoXoXoXoXoX@X@X%X&X&X&X&X*X*X*X*X*X*X1X1X1X1X1X1X1X1X1X3X1X3X1X3XrXrXrXrX1XrXrXrXrXtXyXyXyXyXyXyXyXyXyXyXyXyXrXrXrXyXyX4XrX4XrXrXrX4X3X3X4X4X4X4X4X4X4X4X4X3X3X1X1X1X<X1X<X*X",
"'.'.'.'.S.S.A.S.t.U U ~ ) ) t.t.p.p.a.a.a.a.a.a.A.a.A.A.A.A.A.A.A.A.A.S.S.A.A.S.A.A.A.A.S.S.A.A.S.S.S.S.S.S.A.A.A._ Q Q Q Q t.p.Q K K K K J K K K G K K D D D D D D m m m m N N D K D l z K Q Q Q Q Q ~ ~ / ) t._ _ t.t.t._ U D D D D r r l z m D K Q Q ~ ) ~ ) ) t.a.V.V.C.V.V.p.p.a.C.A._._.S.A.a.p.p.V. XyXgXhXvXvXvXgXgXhXhXbXgXbXgXgXbXgXgXvXvXbXvXvXbXnXbXbXMXnXnXbXbXbXnXnXbXnXbXvXvXnXbXnXnXnXbXbXnXvXbXnXMXnXnXMXMXMXnXMXMXnXMXMXMXMXMXMXMXBXMXMXMXMXMXMXMXMXMXMXMXMXMXMXMXMXMXMXMXMXMXMXMXnXMXMXMXMXSXMXMXBXMXMXBXBXMXMXBXMXMXMXMXMXMXAXAX0XG.T.pX9XN.M.M.M.M.M.M.M.M.M.M.M.M.5.5.5.5.5.@.@.%.%.| R P V M B M x h g u y r r r r t y r w w w t t w t t r t r r r r w w r r e t d g g g h h h x z x c v Z Y | } } } } [ [ [ { #.+.+.+.+.+.+.+.+.+.+.+.+.+.+.{ [ ] [ { { +.{ { { { :.J.P.J.oXoXoXoXoXoXoXoXoX@X%X&X&X&X&X*X*X*X*X*X*X*X1X1X1X1X1X1X1X3X3X1XrX3X3XrXrXrXrX1XrXrXrXrXyXyXyXyXiXyXyXiXiXyXyXyXiXyXyXyXyXyX4XyX4X4X4X4X4X3X1X4X4X3X4X4XrX4X4X4X3X3X3X1X1X1X1X*X&X",
"'.'.'.'.S.S.A.C.) U Q / ) t.t.p.p.p.p.a.a.a.a.C.C.A.A.A.A.A.A.S._.S.S.S._.S.A.A.S.S.S.S.A.A.S.S._.S.S.S._.A.A.A.C./ Q Q U / p.) K G K K K K K J J K K J G G D D D N N m m m D D G G N l N U Q Q Q Q ~ / / ) ) _ _ _ _ p.t.~ D m D H l w l n m D K K Q ~ ~ ) ~ ) _ p.V.C.C.C.V.p.p.p.C.A.S._._.A.C.a.t.a.'.'.$XdXgXgXvXhXhXhXhXhXvXbXbXbXbXbXvXvXvXbXbXbXbXnXnXnXnXnXbXMXMXnXnXnXnXnXbXnXnXMXnXnXnXnXMXnXnXMXnXnXMXMXMXMXnXnXMXMXMXMXnXMXMXMXnXMXMXMXMXMXMXMXBXMXMXMXMXBXMXMXMXMXMXMXMXMXBXBXMXMXMXMXMXMXMXBXSXBXMXMXMXMXMXMXMXMXMXMXMXMXMXMXSXSXDXjXL.L.wXwXB.M.M.M.M.M.M.M.m.M.M.M.M.M.M.5.#.@.| o.R T I L B z l l l g k l l l p y p p y t t t t y y u t w u u y t r r r t t r t y u u u t t t t t t t w e e e e s h h j v b b Z } @.@.+.+.+.+.+.+.+.+.+.+.+.+.+.+.+.{ ] ] [ { +.+.{ { { +.7.K.I.K.oXoXoXXXoXoXoXoXoXoX%X&X&X&X&X*X*X*X*X*X*X1X1X1X1X1X1X1X3X1X1X1X3X3X3XrXrXrX4XrXrXrXrXyXyXyXyXiXuXuXuXiXiXuXiXyXyXyXyXrXrX4XrXyXyXrXrX4X4X4X4X4X3X4XrXrX4X4X3X3X3X1X1X1X<X<X<X<X",
"'.'.'.'._.S.A.p.Q U Q ) t.t.t.p.p.p.p.a.a.a.a.A.A.A.A.A.S.S.A.A.S.A.A.S.S.S.S.S.S.A.S.S.A.A.S._._._._.S.S.A.A.A.t.~ Q Q K ) t.Q J J J K K K K J K K K J D D D D N m m m D D D D K D n z U Q Q Q Q ~ / / / ) t.t.t._ _ p._ K D D D D y r z n m D K K ~ ~ ~ ~ ~ _ t.a.C.C.C.C.V.p.p.a.C.A._._.A.C.a.t.t.A.'.'.{.4XhXhXvXgXgXgXgXhXbXbXbXbXbXbXbXbXgXbXbXbXbXbXbXbXbXbXvXbXnXnXnXbXMXbXvXMXnXnXnXnXbXnXMXMXMXMXMXnXMXnXMXMXnXnXMXMXMXMXMXMXMXMXnXMXMXMXMXMXBXMXMXMXMXMXBXSXBXMXBXBXBXBXBXMXBXSXMXnXnXMXMXMXBXBXMXMXMXMXMXMXMXMXMXMXMXMXNXMXnXnXAXSXDXsXL.9XwXY.N.M.M.M.M.M.M.M.m.5.5.M.M.5.5.@.%.| ! U B N N G N z l u w e m N m n z l l l l l l p u p l l u u r r u r r w w r r w r t u u u u u u t t t u e e t t t t t t g h g s s j v Z } } @.@.+.+.#.+.+.+.{ +.+.+.+.+.{ ] ] { +.+.{ { { { @.7.K.K.oXoXoXXXXXoXoXoXoXoX%X&X&X%X&X*X*X*X*X*X*X1X1X1X1X1X1X1X3XrX1X1X3X1X1X3XrXrXrX4XrXrXrXyXyXyXyXyXuXiXyXyXuXuXuXyXyXyXyXrXyXyXrXrXyXyXyXyXrX4X4X4X4X4XrX4X4X4X4X4X3X3X3X1X<X<X<X<X",
"'.'.'.'._._._._ U Q Q ) t.t.t.p.p.a.a.a.a.a.A.A.A.A.A.A.A.S.A.A.S.A.S.A.A.A.S.S.S.S.S.A.A.A.S._._._._._.S.S._.a.) Q Q U Q _ ) U K K J K K K K K K K K J G D D D N m m m N D D K D D u m Q Q Q Q ~ / / / ) _ t.t.t._ t.r.~ m D D D l w p m m D D K Q ~ ~ ) ) ) _ t.V.V.C.C.V.a.p.p.C.S.A.A.S.C.a.p._ a._.'.'.'.OXuXvXgXhXgXgXgXhXbXbXbXbXbXbXbXvXvXbXbXbXbXbXbXbXbXMXnXbXbXnXnXnXnXbXbXMXnXnXnXnXnXnXMXMXnXMXnXbXnXnXnXnXMXMXBXMXMXMXMXMXMXMXMXMXSXBXSXBXMXBXMXMXMXMXMXBXMXMXMXBXMXMXMXMXMXBXMXMXMXMXMXMXBXMXMXBXSXSXMXMXMXMXMXMXMXMXMXMXnXnXSXSXAXjXT.9XU.N.M.M.M.m.N.m.M.M.N.M.M.5.5.6.%. .Y U B N N B N G D D D D D m m m m m m m z l l l l u r r w r w r w w w w w w w w w w w w r t t t t t t r t u u t u u t t t e t t t t q e q q a a v Z } @.+.+.+.+.+.+.+.+.+.+.+.{ ] [ +.+.{ { { +.@.%.k.K.K.oXoXXXoXoXoXoXoXoXoX%X@X%X%X&X*X*X1X*X1X1X1X1X1X1X1X1X1X3X1X1X3X3X4XrXrXrXrXrXrXyXyXyXyXyXuXuXiXuXiXiXuXuXiXiXuXiXyXrXrXrX4XrXyXyXyXrXrXrXrX4X4X4X4X4X4X4X4X4X4X4X3X1X1X1X1X<X",
"'.'.S.S.S.S.C./ U Q / ) t.t.t.p.p.p.a.a.A.a.A.A.A.A.A.A.A.A.A.S.S.S._.S.S.A.A.S.S.S.S.S.A.A._._._._._._._.S.A.p.Q K U Q ) p.~ J K J J K J J K J J K K J D G D D N m m m N D G G D n u D Q U Q Q Q / / / ) _ t.t.t.t.p.) K m D D m y y z D D D K Q Q ~ ) ) ) _ p.a.C.V.C.V.a.p.a.C.A._.S.A.A.A.p.t.p.A.S.'.'.'.].$XgXhXgXhXhXgXbXvXbXbXbXbXbXbXvXgXbXbXbXbXbXbXbXbXMXMXMXbXbXMXMXbXMXnXbXnXMXMXMXMXMXMXMXMXMXMXMXMXMXnXbXnXbXnXMXMXMXnXMXMXMXnXMXBXMXBXBXMXMXBXMXMXMXBXSXMXMXMXMXBXBXBXMXBXBXMXMXSXMXMXMXSXBXMXSXSXSXSXBXMXMXMXMXMXMXMXnXnXNXSXDXAXjX9XU.N.M.m.M.M.5.5.m.M.M.M.m.m.5.6.%.o.P G n n n m m m K K K K K K Q Q Q Q K K K D D D l l y w w w 8 1 1 8 2 0 w w 8 2 8 8 8 0 0 8 2 8 2 8 w w w w w w w w w t t t w w 3 w r t u y w 0 3 4 a s v Z } @.@.{ +.+.+.+.+.+.{ [ [ [ +.+.+.+.+.@.@.,.b.K.J.oXoXoXoXoXoXoXoXoXoX%X@X%X&X*X*X*X*X*X1X1X1X1X1X1X1X3XrX1X3X3X4XrXrXrXrXtXrXyXyXyXiXyXyXuXiXyXiXuXuXuXiXyXiXiXuXuXiXyX7XrXyXyXyXyXyXrXyXrX4XrX4X4X4X4X4X4X4X4X4X3X1X<X1X1X<X",
"'.'.S.S.S.A.p.Q U Q / ) t.p.p.p.p.p.a.a.a.a.A.A.A.A.A.A.S.S.A.S.S.S.A.S._.S.S.S.S.S.S._.S.S.S._.S._._.S.S.S.A.) Q Q U ~ _ _ U D J G K K K K K J J K K K G D D N N N m m D D D m N l m U Q Q Q Q Q / ) / ) ) t.t.t.p.t.Q D D D D p w p z D D J K Q Q ~ ) ~ ) t.p.V.V.C.C.V.a.p.V.S.A._._.A.A.A.p.t.a._._._.'.'._.A.1XgXgXgXgXgXgXbXbXbXbXbXbXbXbXvXbXbXbXnXnXbXnXbXbXnXbXbXnXnXbXnXbXbXMXbXbXMXnXMXMXMXMXMXnXMXMXMXBXMXMXBXMXMXMXMXMXMXMXMXMXMXMXMXMXMXMXMXMXMXMXMXMXMXBXBXBXBXBXMXMXMXMXBXBXMXMXSXBXMXMXSXSXBXBXMXBXBXMXMXMXMXMXMXMXMXnXnXAXSXDXAXjXU.B.N.M.M.M.M.5.m.5.5.M.M.m.m.6.:. .U B D m l n m m D K K K D D Q ~ ~ ~ Q Q Q Q K K K D m l p r r 0 1 2 1 2 1 2 8 , > > > > > > > > > > > 1 8 8 8 2 1 1 2 2 0 w 0 0 0 4 w e e w w t r w w w 3 4 4 s c I } } @.+.+.+.{ { [ ] ] { { +.+.+.+.+.@.f.b.K.J.oXoX].oXoXoXoXoXoXoXoX%X&X&X*X*X*X*X1X1X1X1X1X1X1X3X3X1X1X1XrXrXrXrXrXtXrXyXyXyXyXyXyXiXyXiXuXuXuXdXuXiXiXyXiXuXuXuXyXyXyXyXyXrXrXrXrX4X4XrXrX4X4X4X4X4X4X4X4X3X3X3X3X1X1X",
"'.S.S.A.S.A.) Q U Q ) t.t.r.p.p.p.a.a.a.a.A.A.A.A.A.A.S._._.S._._._.S.S.S.S._._._._._._._._._._._._.S.S.S.A.a.~ Q Q Q ) t.) K G K J K K K K G J K K K K J D D N m D N m D D D N z l K Q Q Q Q ~ / / / / ) ) t.t.t.p.) D z m D l r r l l D D D K ~ ~ ~ ~ ~ _ _ a.a.a.C.a.p.p.V.C.S.S._._.S.C.C._ a.S._.S._.'.'._.A.'.yXbXgXbXbXgXvXvXbXbXgXbXbXbXbXnXbXnXbXbXnXbXnXnXbXbXnXMXbXbXnXnXMXMXnXMXnXnXnXMXnXnXnXbXMXMXMXBXMXMXMXMXMXBXMXBXMXMXMXMXMXnXnXMXMXnXMXSXMXMXBXMXMXMXBXBXBXSXMXMXBXBXBXSXMXSXMXMXSXMXMXMXMXMXMXMXMXMXMXMXMXMXMXAXMXnXnXMXAXAXAXpXB.N.M.N.M.M.m.5.M.5.5.5.5.6.6.7.$.T U D D D l l n m D K K K K K Q K K K K K K K K K K K D D D l l r 2 1 , > > > 1 1 > > ; % $ $ ; ; % ; > ; > > 1 1 1 2 1 1 1 1 1 , , , 2 0 w e e e w w w w w r w w 0 s j C Z } } [ { { { [ [ [ { +.+.+.+.+.@.@.7.b.J.J.oXoXoXoXoXoXoXoXoXoX%X&X&X*X*X*X*X1X1X1X1X1X1X1X3XrX1X1X1XrXrXrXrXtXtXyXyXyXiXyXyXiXuXyXyXuXiXiXuXfXfXuXiXyXiXuXuXyXrXrXyXyX4XrXyXrXrXyXrXrX4X4XrX4X3X4X4X4X3X4X4X3X3X1X",
"'.S.A.A.S.a.~ U U Q ) t.p.a.p.a.a.a.a.a.a.C.A.A.A.A.A.S.S.S.S.S.S.S.S.S.S.S.S.S.S.S.S.S.S._._.S._._.S.S.S.A._ Q Q Q Q _ ) Q K K J K K K K K J J K K G G G D D N m N m N D D D D l N U U Q Q Q Q / / / ) t.t.t.t.t.p.Q l l z l u r u l l D D J Q ~ ~ ~ ~ ) _ _ a.C.V.C.p.t.p.C.S._._._._.C.a.p.t.C._._.'.'.'._.S.C.p.$XgXvXgXbXbXgXvXvXbXvXbXbXbXbXbXbXbXnXbXbXbXbXnXbXnXnXnXnXnXnXnXMXnXnXMXnXbXnXnXMXnXnXMXnXMXMXMXnXMXMXMXMXMXMXMXMXMXMXMXMXMXMXMXMXMXMXBXMXMXMXMXMXBXMXMXMXMXMXMXSXBXMXSXMXMXBXBXSXBXBXBXMXBXMXBXBXMXMXMXMXMXMXAXMXMXnXnXAXAXjXU.6.N.M.M.M.M.M.M.5.5.5.5.6.:.*.E U Q K D l l l l l l n N D D D J D D m D D D D l l l l m J D m l p u w 0 2 ; , > > > > ; % # + + + $ $ $ $ % % % % ; > 1 1 1 > > ; ; $ $ % = > 0 0 0 0 0 0 2 2 0 0 0 w w e e s h v Z } } [ [ [ [ [ { { { [ { +.} %.c.J.J.oXoXoXoXoXoXoXoXoXoX@X%X&X*X*X*X*X*X1X1X1X1X1X1X3X3X1X1X4XrXrXrXtXtXyXyXyXyXiXiXyXyXuXyXyXuXiXuXfXfXuXiXiXiXiXuXuXiXyXrXyXyXrXrXyXyXrXyXrX4X4X4X4X4X4X4X4X4X4X4X4X3X3X3X",
"'.S.S.S.S._ Q U Q / _ t.p.a.a.a.a.a.a.a.a.A.A.A.A.A.A.S.S.S._.S.S.S._._.S._._._._._.S._._._._._._._.S.S.A.C.) Q Q K / p./ K K K J K J K K K J K K J G G G D N D m m m D D D D m l K Q U Q Q Q ~ / / / ) t._ t.t.p._ D g l l p r t p l l D J K Q ~ ~ ~ ~ ) _ p.V.C.C.C.p.p.V.C._._._._.C.V.p.t.p.A._._.'.'._._.C.t.a.{.rXbXdXgXbXvXbXbXbXbXbXvXvXbXnXbXbXbXnXnXbXbXnXnXnXnXbXnXnXbXnXMXnXbXBXMXMXMXBXMXnXMXMXMXMXMXMXMXMXMXnXMXMXMXBXMXMXMXMXMXMXMXMXBXMXMXBXMXMXBXMXMXMXMXMXMXBXMXBXSXSXBXMXMXMXBXMXSXMXMXBXMXBXMXBXBXMXMXMXMXMXMXMXMXMXnXbXhXjX9XN.N.5.5.m.m.5.5.5.5.{ +.6.%.Y B M B J m l y r p p p p u p l l m m m m m m D J J m p r t r u l p u l u r w 8 2 1 , > > > ; $ + $ $ $ $ $ # # $ # $ $ $ $ % % ; ; ; ; % $ % $ O + $ $ , 8 8 8 0 0 2 , 2 2 9 r 0 0 e t f c Z } } [ ] [ [ [ [ { +.+.@.@.1.c.J.P.oXXXoXoXoXoXoXoXoX@X%X%X*X*X&X*X*X1X1X1X1X1X1X3X1X4X3XrXrXtXtXtXtXtXrXrXyXyXyXiXyXiXuXuXuXuXfXfXfXfXuXiXiXuXuXuXiXyXrXrX4X4X4XrXyXrXrX4XrX4X4XrX4X4X4X4X4XrX4X4X3X4X4X",
"S.S.A.S.C.) U U Q ) t.t.p.a.a.a.a.a.a.a.a.A.A.A.A.A.A.S._.S._.S.S._._._.S.S._.S.S.S.S.S.S._.S._.S.A.A.A.A.p.~ Q Q Q ) _ ~ K K G K K J J K K K K K K K J D D N G N m m D D D D z m U Q U U Q Q ~ / / ) ) ) ) ) p.p.Q l l l l u w y p l m D K K Q ~ ~ ~ ) ) p.a.V.C.C.V.p.p.C.A._._._.A.C.a.p.p.A._.'.'.'.'._.A.p.t._.'.OXuXhXbXbXgXvXvXbXbXbXvXbXbXbXbXnXnXbXbXbXnXMXMXMXnXbXMXMXnXMXMXnXMXBXMXMXMXMXMXMXMXMXMXMXMXBXMXMXMXMXMXMXMXMXMXMXMXMXMXMXBXMXSXMXMXSXMXMXMXMXMXMXMXSXMXSXBXMXSXSXSXMXSXSXBXBXSXBXBXMXMXMXMXMXMXMXMXMXMXMXMXMXMXMXnXhXsXwXB.N.N.5.5.5.m.5.5.5.5.+.+.:.| N p l z l t p y y y y y u u u p p n m n n m D D D J D D l r w w w w w r r w w w w 8 2 1 1 > > % % % $ $ % $ $ $ $ $ # $ $ % % % $ $ $ $ $ % % $ X o + + $ % > > 7 8 8 8 1 1 > , , > 7 9 r q s j b ] [ [ [ [ [ { +.{ @.@.@.4.J.J.P.oXoXoXoXoXoXoXoX@X@X%X&X&X*X*X*X1X1X1X1X1X1X3X3X1XrXrXrXtXtXtXyXyXyXyXyXiXyXyXiXuXuXuXiXuXfXuXfXuXuXuXuXuXfXuXyXyXiXyXrX4X4XyXyXyXyXrXrX4X4XrX4X4X4X4X4XrXrX4X3X4X4X",
"_.S.A._.p.Q U Q / _ t.p.p.a.a.a.a.a.a.a.a.A.A.A.A.A.A._._.S.A.S._.S._.S.A.A.S._.A.S.S.A.S._._._._._._.A.C.) Q Q Q Q _ ) J J J D J K J K K K K K K K K D D D N D N m m D D D m l K Q K U Q Q Q ~ ~ / ) ) _ _ ) a.t.D l l l l 9 9 y p l m D K Q Q Q Q ~ ) ) p.V.V.C.a.p.t.V.C.S._._._.C.V.t._ V._._.'._.`._._.V._ V.`.{.].1XgXgXbXbXvXvXvXbXbXbXbXbXbXbXbXnXbXbXbXnXnXnXMXMXnXMXMXMXMXMXnXnXnXbXnXnXnXMXMXnXMXMXMXMXBXMXMXMXSXSXMXMXMXMXMXMXMXMXMXMXMXMXMXMXSXBXMXMXMXMXMXMXSXMXSXMXMXSXSXBXSXSXBXMXMXBXSXSXMXMXMXMXMXMXMXMXBXMXMXMXMXnXbXnXsXwXB.N.N.m.5.5.5.5.#.#.+.@.%.o...L l u u p u r u y u y u y y y u p u m D m m D D J J J D m l y 9 8 2 2 8 8 8 8 w w w w w 7 1 > > ; % % % # % $ $ $ # O O O $ $ $ $ % # $ $ O $ $ + $ X o o o X $ % > 1 1 7 8 9 7 > > > % $ > , 0 q s j C Z [ [ [ [ { { { { } %.h.J.P.oXJ.oXoXoXoXoXoXoXoX%X%X*X&X*X*X*X*X1X1X1X1X3X4X4X3XrXrXrXrXyXyXuXyXyXiXuXyXiXuXuXuXiXiXiXiXuXfXuXfXfXfXuXfXiXiXiXiXiXrXrXrX4XyXiXyX4XyXyXrX4X4X4X3XrXrX4X4X4X4X3X4X",
"'.S.S._._ U U Q ) t.p.p.p.a.a.a.a.a.a.A.a.A.A.A.A.S.S.S.A.A.A.S._.S.S._._._.S._._._._._.S._._._._.A._.A.p.Q Q Q Q ) t.~ K K G J K J K K J K J K K K D D D N m m m m D D D D l z K Q K K K Q Q ~ ~ ~ ) ) _ t.t.p.~ l p p p u 8 r y p l m J K Q Q Q Q ~ ) _ p.a.V.V.p._ t.C.A._._.A.A.C.p._ p.C._._.'.`.'._.C.t.p._.{.].'. XrXnXvXbXbXbXbXbXbXbXbXbXbXbXbXbXbXbXbXbXbXnXMXMXnXnXMXMXMXMXMXMXMXbXMXMXMXMXMXMXMXMXMXMXMXMXMXMXMXMXMXMXMXMXBXMXMXMXMXMXMXMXMXMXSXBXMXBXBXMXBXMXMXMXMXMXMXSXSXMXMXMXBXMXMXMXBXMXMXMXMXMXMXMXMXMXBXMXMXMXMXnXnXjXwXU.N.N.5.5.5.5.#.@.@.:.| | I C B l u u p p p l p u u y u y y w y y w l D D D D K K K K K D n l w 8 2 2 2 1 , , 1 8 8 w w w 8 7 1 > > ; ; $ $ $ $ % O O O O $ $ # $ $ # $ % $ + # # % % + X X X o + $ % ; > 1 8 9 7 > > > = > > > > 2 q s j b Z [ [ { [ [ { @.} :.h.J.J.J.oXoXoX.X.XoXoXoX%X%X*X*X*X*X*X*X1X1X1X3X3X4XrXrXrXrXrXrXyXyXyXyXyXuXuXiXiXuXuXuXiXiXiXiXfXfXfXfXfXfXfXdXfXfXfXfXyXrXrXrXrX4XrXrXrXyXyXrX4X4X4X4XrXrX4X4X4X3X3X4X",
"S._.'.A./ K U / ) t.p.p.a.a.a.a.a.A.A.A.a.A.A.A.S._._._._._._._.S._._._._._.A.S._._._._._._._._._._._._._ Q Q Q Q _ _ U K K J K J G K J K K J J K J D D D m m m m m G D D z u D K Q Q K K U Q Q Q Q ) ) _ _ p._ D p r y u w 9 u y p n D K Q Q Q ~ ~ ) ) t.p.V.V.a._ _ a.C._._.S.A.C.V.p.p.C._._.`.`.`._._.a._ C.].{.'. X'.OXdXnXvXbXbXbXbXbXbXbXbXbXbXnXbXbXnXbXbXnXnXnXMXnXMXMXMXMXMXnXMXMXnXMXMXMXMXMXMXMXMXMXMXBXMXMXnXnXnXMXMXMXMXBXMXMXMXBXMXMXBXMXMXBXBXMXMXMXMXMXMXMXMXMXMXSXSXSXMXMXSXSXSXBXMXMXMXMXMXMXMXMXMXMXMXMXMXMXMXMXbXSXsXU.B.N.5.5.5.6.6.%.o. .I M M k g y u p u u u p l p u u u r r r r w r u m J K J J K J D K K J m l r 8 2 2 1 , > > > > > 8 8 w w 9 8 1 > > > % $ $ $ % % % # O O $ # O O # $ % $ + # # % ; $ o X X o X X X + $ > , 7 7 7 7 > > > = ; % $ = < 4 a j v Z } } } } } } %.:.c.J.P.]..X.X.XoXoXoXoXoX%X%X&X&X*X*X*X*X1X1X1X3X4XrX4XrXrXrXrXyXyXyXyXiXuXuXiXuXuXuXiXiXiXiXfXfXfXfXuXfXfXiXiXfXfXfXiXyXyXyXyXrX4X4XrXyXyXyXyX4X4X4X4X4X4XyXyX4X4X4X4X",
"S.S._.p.Q K Q ) t.p.p.p.a.a.a.a.A.A.A.A.a.A.A.S.S.S.S.A.S.S._._._._._._._._._._._._._._._.'._.S._._._.C.~ Q Q Q ) _ ~ D K G K K G G J K K K G J K G D D m m m D D D D G D u l K U U K K K K K K K Q ) ) t.t.p.~ p p u y r w r r y p l D K Q Q Q Q ~ ) _ a.p.V.a.p.t.p.C._._._._.A.C.p._ V._.S._._._._._.C.p.p._.].].{.{.{.'.&XgXgXvXbXbXbXbXbXbXbXnXMXMXbXbXnXbXbXnXnXMXMXnXnXMXMXnXnXbXbXMXnXMXMXMXMXMXMXMXMXMXMXMXMXMXMXMXMXMXBXMXMXMXMXMXMXMXSXBXSXBXMXMXMXMXBXMXMXBXBXSXSXBXBXSXSXSXMXSXSXMXBXSXSXBXMXMXMXMXMXMXMXMXMXMXMXMXMXMXnXjX9XB.N.N.5.6.6.:.| P L z t u w w y r r p u u p u y y r r y r w r y r p l D D Q K K K K J K D D m l r 9 2 1 1 ; = = $ = ; > , 7 w w 8 8 1 ; > ; > % % % > % % & % $ % $ $ $ $ $ + O # # ; $ $ $ X o o X   X X o # $ % > 7 7 > > > > > & % $ $ > , 3 q s j v Z Z [ [ { @.1.F.J.J.]..X.X.XoXoX.XoXoX%X&X&X*X*X*X*X*X1X3X1X4XrXrXrXrXrXtXyXyXyXyXuXuXuXuXuXuXiXuXfXfXiXiXfXfXiXiXiXiXiXiXfXfXfXiXiXuXyXyXrXyX4XyXyXyXyXyXrX4X4X4XrX3XyXyX4X3X4X4X",
"S.S.S.t.Q Q / _ p.p.a.p.p.a.a.a.A.A.A.A.A.A.A.A.S.S.S.A.S.S._._.S.S._._._._._._._._._.S._._._._._.A._.t.Q Q Q Q t._ K D J D J K K J K J J J G G G D D D m m m N D D D G m u D K U Q K D l m K K Q Q / ) _ p._ D u y y r 9 9 w r y p m D K K Q K Q ) ) _ a.a.V.a.t.p.V.C._._.S.A.C.V.p.p.C.S._.'._._._.C.a.p.S.].].].{.'.'.'.'.3XbXbXbXbXbXbXbXbXnXnXbXnXbXbXnXnXvXbXnXnXMXnXMXnXMXMXMXnXnXnXnXnXMXMXnXMXMXMXMXMXMXMXMXMXMXMXMXnXMXMXBXMXMXMXMXBXSXBXSXSXBXMXMXMXSXBXSXMXSXSXSXSXSXSXSXSXSXSXMXSXBXSXBXSXBXBXMXMXBXMXMXMXMXSXSXNXnXhXjXwXB.N.N.N.6.@.%.Y M g r w w y 9 9 r r y p y y u y r r y y r r u y r y y y l D Q K J K K K J D D m l u w 8 9 1 > = = = $ = > > , 8 w w 8 1 1 > > 1 % 1 > & > > 1 > > > > ; $ $ $ $ $ ; % $ # $ % # # O o X X     X o # % > > 7 7 > > > > > % # % % = ; ; , e h v Z } } } $.y.J.J.J..X.XoXoX.XoX.XoXoX&X%X*X*X*X*X1X1X1X3X4XrXrXrXyXyXyXyXyXyXuXiXyXiXiXiXuXuXuXfXfXfXiXfXfXuXiXiXfXfXfXfXfXfXiXiXyXyXiXyXyXrXyXuXyXyXiXrXrXyXrXrX4X4X4X4X4XrX4X",
"_.S.C.) U Q ) t.p.p.p.a.a.a.a.C.A.C.A.A.A.A.A.A.A.A.S._._._.'._.S.S._._._._._.S.S._._._._._._._._.`._.~ Q Q Q / p.) D D K G D G J K K K K G J G G D D D m D m m D D K D l l K Q Q K K D g r l D K Q / ) t.p.Q g y y 9 8 2 2 2 w r p n D J K K K ~ ) _ p.a.a.V.p._ p.V.C._._.A.S.C.p.p.V.A._.`.`.`.'._.a.t.V.`.].].].].'.'.A.t.'.uXbXbXbXbXbXbXnXbXbXbXbXbXbXnXnXbXbXnXnXnXMXMXMXMXMXMXnXMXMXnXbXbXnXnXnXMXMXMXBXMXMXMXMXnXMXMXMXMXMXMXMXMXBXMXBXSXSXBXSXSXBXMXMXMXMXBXMXMXBXMXSXSXSXSXSXSXBXSXSXSXSXSXMXSXSXBXBXSXMXMXMXMXBXMXnXnXjXpXU.N.N.5.6.@.| Z M g r 9 9 w r 9 w w r y y w u p y r r y y w w y r r u u y p D K K J K K K D D D n p y y w w 8 , ; = = = ; > > > > 1 8 8 0 1 1 , > > > > > 1 1 1 1 > 7 1 > ; % % $ % ; $ # + # $ $ % % # o . . . . . o # # % & > 7 > > > > > ; % % % ; $ % ; , q s j V Z  .&.u.J.J.P.P.P..X.X.X.X@X@X%X%X*X*X*X*X*X1X1X3X4XrXrXrXtXyXuXyXiXuXuXyXyXiXiXyXuXuXfXfXfXfXfXfXfXfXfXfXfXfXfXfXfXfXfXfXyXyXiXyXyXyXyXiXyXyXyXyXyXyXyXrXrX4X4XrXrXrX3X",
"_._.t.~ Q ~ ) t.p.p.a.a.a.a.a.a.C.A.A.A.A.A.A.A.A.A.S.S.S._._._._._._._._._._._._._._._._._._._.A.`.p.U Q ~ ~ ) ) U D D G K K G J K J K K K K J G D D D m D N D D D K m t D Q Q U K K K n 2 2 r n U Q ) a._ N r r w 8 1 1 2 2 2 9 p l D H K K Q ~ ) _ p.p.p.a.t.t.V.C.A.S.A.A.A.V.p.p.C.C._._._._._.A.p.t.A.].].].].].].S.t.t.A.<XMXbXbXnXbXnXbXnXbXnXbXMXnXnXMXnXnXnXnXMXMXMXMXMXnXnXMXnXMXMXnXnXMXMXMXMXMXMXMXBXMXBXMXMXMXBXMXMXMXBXBXMXBXMXMXBXBXMXBXBXBXMXBXSXMXSXBXSXSXBXBXSXSXSXSXBXSXSXSXSXSXSXSXSXBXMXMXMXMXMXMXBXMXMXnXnXpXU.N.N.5.6.:.| C x u r w w 8 8 8 8 8 8 w r r w y y y r r y y w 9 r r y u y u p l J K K J K J D D D l p y r w w 8 1 > > ; > > , 1 8 2 8 w r r w 8 1 > 1 ; ; > > > 1 1 7 7 1 1 , > > > > ; + + + # $ % % & & # o . .   . . o o X # % > > > , , > > ; > ; % ; > % $ = ; 3 t x V I E q.d.Z.P.P..X.X.X.X@X@X@X%X*X*X*X*X1X1X1X3X4XrXrXrXyXyXuXyXyXiXyXiXuXuXiXiXuXuXfXfXfXfXfXfXfXfXfXfXfXfXfXfXfXfXfXuXyXyXiXiXyXrXrXyXiXyXyXrXyXyXyXyXrX4X4XrXyXrX4X",
"'.A.) Q Q ~ _ p.a.p.p.a.a.a.a.a.A.a.A.A.a.A.S.A.S.S.S.S.S._._._._._.'.'._._._._._.'.'._._.'._._._._.) Q ~ Q ~ _ ~ D D K G G K G D K K J J K G G D D D D m m N D D D D l l K Q Q K K K K K l 2 > u D Q _ p.~ u r w 9 1 1 ; 1 8 8 w u l D J K K Q ~ ) _ t.p.p.t._ p.A.S._.S.A.A.V.p.p.a.A.S._._.`._.A.a.t.C.`.'.].{.].].'.C._ a._. XuXnXbXnXbXbXbXnXnXnXbXMXMXbXMXMXnXMXMXMXMXMXMXMXMXMXMXMXMXMXMXMXMXMXMXMXBXMXMXBXMXSXBXMXBXSXMXMXBXSXBXMXMXMXBXMXBXMXMXSXMXMXMXMXMXSXMXMXSXMXSXSXSXSXSXSXSXSXMXSXSXSXSXSXBXMXSXSXBXMXBXMXMXBXSXjX9XB.N.N.5.:.I j g p r 9 0 0 8 9 7 1 8 8 8 9 9 8 w r w w w y y r w r r y r u l l m D J D D D D z n l p u y r r r w w w 1 > 1 8 8 8 0 w r t t t r w w 8 9 > ; > > > > 1 7 8 7 1 , , 8 , > > ; % $ # # $ % & > # X o . . . . . . X o X # ; > 1 , > ; > 1 > ; ; > > % % % > > , s x L T =.q.a.Z.S.]..X.X.XoXoX@X&X*X&X*X1X1X1X3X4XrXrXrXyXyXyXyXyXyXiXuXuXyXyXyXiXuXfXfXfXiXiXfXfXfXfXfXfXfXfXfXfXfXiXiXuXiXuXiXyXrX4XrXyXyXyXyXyXyXyXyXyXrXyX4X4XyXrX",
"_.a.~ Q ~ ) t.p.p.p.a.a.a.a.a.a.A.A.A.C.a.A.S.S.S._._._._._._._._._._._._._._._._.'.'._.'.'._._._.a.Q Q Q Q ) _ Q G G G K K K K D K K K K G G D D D D D m D D D D G m l D K K K K K K K Q K l $ 2 l K ) _ Q u r r 8 8 1 ; 1 8 9 w u l m D J K Q ~ _ p.t.p.t._ _ V.S.S.S.A.C.V.p.p.p.C._._._._.`._.V.t.p._.].].{.].[.]._.r.t.C.'.'.@XuXbXbXnXnXnXnXbXbXbXnXMXbXnXnXbXnXMXMXMXMXMXMXMXMXMXMXMXnXMXMXMXMXMXMXMXBXMXMXMXBXBXMXMXBXMXBXBXSXMXMXBXMXMXBXMXMXBXSXBXMXMXSXMXSXMXSXSXSXSXSXSXSXSXSXSXSXSXSXSXSXSXSXSXSXBXBXBXMXMXBXnXBXMXwXB.N.N.6.6.Y z g p u r 9 w 0 9 9 > 1 7 7 7 8 8 1 8 y r w w r y u r r r r y y l l l m K D D D D l p p u u y y w w r r w 8 1 7 8 w w e t k k g g g t e 0 0 0 8 1 , , , 2 2 2 2 , > , 8 0 , 8 7 > ; $ + # # & > % % # # o . .     . . X # % % & > > > > > > > ; ; > > > > > $ + + , e k N U / q.r.Z.P..X.XoX.X@X%X&X*X*X1X1X1X4X4XrXtXrXyXuXuXyXiXuXuXuXuXiXiXiXuXiXiXiXiXiXiXfXfXfXfXiXfXfXfXfXfXfXfXfXuXfXfXiXiXiXyXyXyXyXyXyXyXyXyXyXyXyXyX4X4XrXrX",
"S.t.Q / / _ t.p.p.a.a.a.a.V.a.a.a.A.A.A.A.A.A._.S.S.S.S._._._._._._._.S._._.S._.'._._.'.'._._._._.) U Q U / p.) K G G D K K K K K K G K K D D D D D D D D D D D G D g l K K Q U K K Q Q Q Q D 2 > r H Q ~ ~ N t e w r 2 1 1 2 9 w y p l m J K Q ) _ t.t._ _ _ p.A.C.A.S.A.C.V.p.p.V.S._._._._.`._.p.t.C.'.[.{.{.[.[._.C._ p._.`._.{.3XhXgXbXMXvXnXbXnXMXbXnXnXbXbXnXnXnXMXMXMXnXMXMXMXnXMXMXMXMXMXMXBXBXMXMXBXBXMXMXMXMXnXMXMXSXMXBXBXMXMXBXMXMXSXMXSXSXSXSXMXSXSXSXSXSXSXSXSXSXSXSXSXSXSXSXSXSXBXSXSXMXSXBXSXBXNXBXSXMXnXbXMXpXU.N.N.6.1.Y z u u u y w w w 9 9 9 1 8 1 1 1 8 8 1 8 r r 9 9 r r y y y y u y y u l p l D D D D H D p y r r y u w w r r w w w 8 8 w t g h k h h k k k h w 3 w t w 0 r 0 3 , 2 2 2 2 2 , , 2 0 0 8 1 > % $ % % & % % % $ o . o     .   . . @ O # % > > > > > & > > ; > > > > > % # $ % ; ; 0 N Q =.w.u.Z.P..X.X@X$X#X&X*X*X1X1X3XrXrXtXrXyXuXyXyXuXuXiXiXfXfXfXfXfXiXiXfXiXfXiXiXiXfXfXfXfXfXfXfXfXfXfXfXiXfXfXiXfXiXiXiXyXyXyXyXyXyXyXyXyXyXyXyXyXrX4X",
"A.) Q ~ / t.t.p.a.a.a.a.a.a.a.a.A.A.A.A.A.A.S.S.S.S._._._._.S._._.'._._.'._.'._._._._._._._._._.C.Q Q Q Q ) t.~ G D G G K K K K K K K K K D D D D D D m m m D D D l u m K K K K K K Q Q Q Q Q l ; > l K Q / Q l e t w w 2 1 2 w r y p l m H K ~ ) _ _ _ _ _ _ V.C.C.S.A.C.C.V.p.a.A._._.`.`._._.C.p.a._.[.[.].].[.`.C.p._ C.`.`.'._.OXuXvXvXMXbXbXbXnXMXnXMXnXnXnXnXMXMXMXMXMXMXMXMXMXMXMXMXMXMXMXMXMXMXMXMXMXBXMXMXMXMXMXMXBXBXMXBXBXMXMXSXMXMXMXMXMXBXMXBXMXBXSXBXSXSXSXSXSXSXSXBXSXSXSXSXMXSXMXMXMXMXBXBXBXBXMXSXSXMXnXAXjXT.6.N.B.:.I z e u p u 9 w w 8 w 9 9 8 8 1 1 1 7 8 1 1 9 8 8 w r y r u l u y y u u p l l D D m m D D m l u r w y u y w r r r w w w 0 r g z z x z z x x x z e w e t g k k t , : ; ; 2 2 8 2 1 0 w 0 0 8 > > % % % % % % % $ O o o .     . . . . . O % & > 7 1 > > > > > > > > > > % % $ $ ; = ; 2 z U =.r.Z.S..XoX.X#X&X&X*X1X1X1XrXrXrXtXyXuXuXiXuXuXiXuXuXfXfXfXfXiXfXfXfXfXfXfXfXfXfXuXfXfXfXvXfXuXfXfXfXfXfXfXfXfXuXiXyXyXyXuXiXyXiXyXyXyXyXyXyXyXrX",
"a.) Q Q ) t.r.p.a.a.a.a.a.a.C.A.a.a.A.A.S.A.S._.S.S.S.S._._.S._._.'._._.'._.'.'._._._.'._._._._.t.Q Q Q ~ _ ) U G D K K K K K D K K G K D D D D D N D N m m D D D u l D K K K K K Q ~ ~ ~ ~ ) Q r ; 8 D Q ~ / K g e r y w 2 2 9 w r p l m D K ~ ) _ _ _ _ _ p.C.C.C.C.C.V.a.p.p.V.S._._._.`._.V.t.p._.'.[.[.{.[.].C.p._ a.`.`.'.'._.'.&XgXnXnXnXnXbXnXnXnXMXMXnXMXbXnXnXMXMXMXnXMXMXnXnXMXMXMXMXMXMXMXMXMXMXMXMXMXMXBXBXMXBXSXMXSXBXSXBXBXSXBXBXSXMXSXSXSXSXMXBXSXMXBXSXBXSXSXSXBXSXSXSXBXSXBXSXSXSXBXBXBXBXBXBXMXBXNXMXAXjX9X6.N.N.6.R l r y y u w 9 9 9 8 w 9 7 8 1 1 1 1 8 8 1 1 8 8 8 9 r y y p l m l l p p p l n m J D m n l n D D l r y y y r r w w w r r w w g x F N c N N B B N z g q t g z x k d 0 : ; ; > 8 w 2 0 2 8 8 8 8 , > % % # % % % % $ o o o     . . . . . o # % % > 1 1 1 > > > > > > > > > > > % $ $ $ $ * < h U q.d.'..X X@X#X*X&X1X1X3XrX4XrXyXyXuXuXuXuXuXuXiXfXfXfXiXfXuXfXiXuXfXiXfXfXfXfXfXuXfXfXfXfXfXfXfXfXfXfXfXfXfXfXuXyXyXuXiXyXiXyXyXyXyXyXyXyXyXyX",
"r./ Q / ) t.p.a.a.a.a.a.a.V.A.A.a.a.A.A.S.S.S.S.S.S.S.S._._._._._.'._._._._.'._.'._._._._.S.A.C./ U Q U ) t.~ D G G K G D K K D G G D G D D D D m m D D m N D D m u m G K U K D K ~ ~ ~ ~ / ~ ) D 1 $ p Q ~ _ / n r u y y y 2 1 2 w u l m D K ~ ) ) _ ) ) _ a.C.C.C.C.C.a.p.p.p.A._._._._._.A.p._ a.].{.{.{. X{.`.a._ p.S.].`.'.'.'.'.].<XbXnXbXnXnXMXMXnXMXMXMXMXbXnXnXMXMXMXMXMXMXMXMXMXMXMXMXMXMXMXMXMXMXMXMXBXBXBXBXMXMXBXBXMXBXBXSXBXSXSXMXMXMXBXBXMXSXMXSXSXSXSXSXSXSXBXSXSXBXSXSXSXSXSXSXSXBXBXMXBXBXBXBXBXBXhXjXjXwXB.N.N.6.| z y r w u y w y 9 9 w w 8 8 8 1 1 8 8 8 7 > 1 8 9 8 1 8 y p p m K K D l p l n l n K J m n m y r l p u y u p u w 9 0 r r t u w , e B L F F B B L B B c h s s h c c x k s 0 3 ; > 8 0 w 8 1 1 8 9 8 > & % # % % % % # O O O o .       . . . o o # $ & 1 7 7 1 , > > > 1 > ; > > % % & % % = = * ; e N ) '.@X@X#X&X*X1X1X1X3X4XrXyXyXuXuXuXyXiXiXuXuXfXfXiXfXfXfXfXfXfXfXiXiXiXfXfXfXiXiXiXfXfXfXfXfXfXfXfXfXfXfXiXuXuXiXyXyXiXyXyXyXyXyXyXyXyXyX",
"_ Q U ) t.t.p.a.a.a.a.A.A.A.A.A.A.A.A.A.A.A.A.S._._._._._.'.'.'._._._.'.'.'.'.'.'.'.'._.'.S.A.p.Q Q Q Q t.) U G G K D K D K D D K K D D D D D m m m N D D D D D l u K K K Q K D Q ~ ~ ) ) ) ) ) ~ l ; 2 m Q ) _ Q l u u u l w > 2 w u l l m K ~ ) ) ) / ) _ V.V.C.C.C.C.p._ t.C._._._.`.`._.C._ p.].{.{.{.[.{.].S.p._ C._._.'.[.].'.'.A.'.uXnXvXbXnXMXMXnXMXMXMXnXbXMXMXBXMXMXMXMXMXBXMXBXBXBXMXBXBXMXBXSXSXBXMXSXSXMXMXMXMXMXSXSXSXSXBXMXMXMXBXMXBXMXMXMXSXSXSXBXMXSXSXSXSXBXSXSXMXSXSXSXSXSXBXSXSXMXMXBXSXSXMXNXAXjXjXpXU.N.N.6.-.B y r y r y u r r w r r w 8 9 8 8 7 8 1 7 1 1 8 1 8 1 1 8 r l p l D K J J D D D n D J K D l m m w y u y u u p y w r w w r u l l t 4 d G L L P L U L P P L B f s c L L c c h e < , 2 0 w w r 2 , 8 8 9 7 & % # % % % # # $ # o o . . . . . . . . o # % % > 1 8 1 8 > > 1 > > > > > > & % % % > % $ , : 3 D ) '.&X&X$X*X1X3XrXrXtXtXrXyXyXyXyXyXiXiXiXiXfXfXfXfXfXfXiXiXiXfXfXfXiXfXfXfXfXfXfXfXfXfXfXfXfXfXfXvXfXiXdXuXyXiXyXuXuXdXdXiXyXyXiXyXyX",
") Q Q ) t.t.p.a.a.a.a.V.V.A.A.C.A.A.A.A.A.S.S.S.S.S._._._._._._._.'._.'.'._.'.'.'.'._._._._.C./ Q ~ Q / t./ K G G G D K G K K D K K D D D D D m m N m D D D D z w n K U Q K D K Q ~ ) t._ ) _ _ ) Q w + r D Q ) _ K l l u l p w 1 2 w u l m D ~ ~ ) ~ ~ ) p.V.a.C.C.V.a._ _ a.A._._._.'._.C.p.t.C.].[.{.{.].'._.a._ a._.'.'.].[.{.[._.a.C.$XgXMXnXnXnXMXnXMXMXMXMXnXMXnXMXMXMXMXMXMXMXMXMXMXMXMXMXMXMXMXMXMXMXMXBXSXBXMXMXMXMXSXSXSXSXSXMXMXSXBXMXBXMXBXMXMXSXSXMXMXBXBXSXBXMXBXMXSXSXSXSXSXSXSXSXSXSXMXSXSXAXAXMXjXsXwXU.N.N.6.h.V e r w t u u u w w w w r 9 9 9 8 8 7 8 8 8 7 1 8 1 8 1 1 8 r p l l l n D K K K D D D D m D l p m l u r r u u y u r w w w r r u l k z t e G Q U T T T ! T T U c f f B L c V c h g e 3 , , 2 t p r 6 > 8 9 > > % # ; ; % $ % # # # o . .   . . . . . o # # % ; > 1 8 1 1 1 > , > > > > % % % % & % % > > = > 0 z / '.&X<X1X1X3XrXrXrXrXuXuXyXyXiXiXiXiXiXfXfXfXiXiXfXfXiXfXfXfXfXfXfXfXfXiXfXfXfXfXfXfXfXfXfXfXfXfXfXfXuXiXiXiXuXuXuXdXdXiXiXuXiXyX",
"/ ~ / _ t.p.p.a.a.a.a.a.a.A.A.a.A.A.A.A.A.S.A.S.A.S._._.'.'.'.'._.'._.'._._.'._.'.'._._._._.p.Q Q Q Q ) ) U G G G D D G G D K K D D D D D D D m m m m D D D D l u G K K U K K Q ~ ~ ) t.t.) ) _ t.) D > > l K / t.) m l l l l p 8 9 w u l l m K Q Q ~ / _ a.V.p.V.V.a.p.t.p.C._._._._.`.S.V.p.a._.].[.{.{.'._.V.t.p.A.].'.].'.].[.`.C.a.A. XrXnXnXbXnXMXnXMXMXnXnXMXMXnXMXMXMXMXMXMXMXMXMXMXBXMXMXMXMXBXSXSXMXMXSXSXSXSXMXMXMXBXSXSXBXBXMXMXSXMXMXBXMXBXBXSXSXSXBXMXMXMXSXMXMXSXSXMXSXSXSXSXSXSXSXSXSXSXBXSXAXAXhXpX9XU.N.N.6.6.T t w r w y u u r w r w r r 8 9 9 8 7 1 9 9 8 1 1 8 1 8 > > 8 w 9 p D m n D D K K D m D n l J D y y l u w w r y u y y r w r e e t u k N x e 4 B ! ! ! ! E R T T T P f s V P P P P L c h 0 : = , w t r w 7 6 > 6 > = > ; % # $ $ # % # o o . . . .   . . o o + $ > > 1 7 8 7 1 > > , 1 > ; % % % % $ $ $ $ ; > > , 0 z / '.&X1X3XrX4X4XrXyXyXyXyXuXiXiXiXiXiXiXfXfXfXiXfXfXfXfXfXfXfXfXfXiXfXfXfXfXfXfXfXfXfXfXfXfXfXfXuXuXdXdXiXiXiXdXdXuXyXyXuXuXyX",
"~ Q / t.t.p.a.a.V.a.a.a.a.A.A.A.A.A.A.A.A.A.S.S.S._.S._._._._._._.'._.'.'.'.'.'.'.'.'._.'.A.) U Q Q ~ t./ G G G G D K G K G G K D K D D D D D m n n m N D D m u m K K K K D K Q ~ ) _ t.t.) ) t.t._ ) l ; 2 n ~ _ p.Q l l n l p w w w r p n m D Q Q ~ ) _ p.a.a.p.p.p._ _ a.C.A._._._._.C.p.p.S.[.'.{.[.{.'._.p.t.C._.'.'.'.'.'.'.A.p.a.'.{.@XuXnXnXMXMXnXMXMXbXbXMXMXMXMXBXBXMXBXBXBXBXBXBXBXBXBXBXMXMXMXSXMXMXMXSXSXSXSXMXMXSXSXSXSXBXBXMXSXBXMXBXMXMXMXMXSXSXSXMXSXSXSXSXSXSXSXMXSXSXSXSXSXSXSXMXSXSXMXBXNXMXsXwXU.N.M.M.6.| x t y 3 w u p u r w r r y r 8 9 9 7 1 1 9 9 8 7 1 8 8 9 1 > 1 y w r m D n m n m K K n m l y m J l y y y 9 9 8 r y r r u r w w u w e g k N N s 4 c ! =.&.......=.=.X.I h a C T R T T P L z t 2 > = , r u r 7 8 7 > > = $ % $ % % % % # # # o . . . .   . . . o + = > > , 8 1 7 , > > > 1 > > > ; $ $ $ + $ = ; > 0 0 0 t N t.@X1X3X3XrXrXtXrXrXyXiXiXiXiXiXiXfXfXfXfXiXiXfXfXfXfXfXfXfXfXfXfXfXfXfXfXfXfXfXfXfXfXfXfXfXiXuXfXfXiXiXuXdXfXfXdXuXfXuXyX",
"/ / ) t.t.p.a.a.A.A.a.a.C.A.a.S.A.A.S.A.A.S.S._.S.S._._._._._._._.'._.'.'.'.'.'.'.'.'._._.a.Q Q / Q ) p.Q m D D D D G G G D D G K D D D D D D z z m D D D m u l K K K G G G Q Q / ) t.t.t.) ) t.t.t._ ~ y $ w K ) _ _ G l n n l u w 9 w r p m n J Q ~ ) _ p.p.p.p.p.t._ t.C.C.A._._._.S.V._ V._.].].`.'.[._.p._ V._.`.].'.'.]._._.V._ C.].{.{.<XhXMXvXnXMXnXnXnXMXMXMXMXMXMXMXMXMXBXSXBXSXBXMXBXMXBXBXMXMXBXMXMXMXMXSXSXBXSXBXSXMXBXSXSXMXMXSXBXMXBXBXBXBXMXMXSXSXSXSXSXSXMXMXSXBXSXSXSXSXBXBXSXSXSXSXSXSXBXNXjXpXU.N.N.N.6.E B g u t w r u u p y w w w r r w 9 8 7 1 7 9 9 8 9 1 8 8 8 8 > 1 y p y u n n l l l m K D l p y p m m u 8 r w 2 1 8 r r r r e r e e e e t g x L P x f c ! =.=.=.=.w.*.*.>...f a P ! ! ! T I L c h q ; $ > 9 r t 8 , , 1 , % & > % % & & % % $ o . . . . . . . .   . O % ; ; > 7 8 8 1 > > > > = , > > > ; % $ % > > 1 8 0 g d h Q S.&X1XrX4XrXrXyXyXiXuXuXfXfXfXfXvXfXdXiXuXfXfXfXfXfXiXfXfXfXfXuXiXfXfXfXiXfXfXuXfXfXfXiXiXiXuXiXiXiXiXiXfXdXfXdXuXyXiX",
"/ / t.r.p.a.p.a.A.a.p.p.a.a.a.A.A.A.S.A.A._.S._._._._._._._._._.'.'._._.'.'.'.'.'.'.'._.'._ Q ~ Q / t.) G D D D K K K G K D D D D D D D m m m z z m m D D m g N K K K G D K Q / ) _ t.t.t.) ) _ t.p.t._ K ; ; l ~ ) t./ m n m m n u 9 8 r p l n m D ~ _ _ t.p.p._ _ _ t.a.V.C.S._._.S.V.t.p.S.`.].[.'.`.`.V._ p.C._.`.'.'.].'._.A.a.a._.[. X X XtXNXgXMXMXMXMXMXMXMXMXMXMXMXnXMXBXMXBXMXBXMXMXBXMXBXSXSXSXSXBXMXMXMXSXSXSXSXBXSXSXSXSXSXSXMXSXSXBXBXSXMXMXBXSXSXSXSXSXSXSXMXMXSXSXSXBXSXSXBXBXBXSXBXSXSXSXMXMXjXwXY.N.N.6.%.B g e u r w r y u l u r r r r r 9 8 8 8 7 8 w w 9 w 7 w 8 8 8 > 1 r l p u p l l l l p p l l p u p m n u 8 w w 8 2 8 w w w w r r r e u u t t z B B F B f j R q.q.q.w.=.>.>.w.*.j s T &.! ..E T P L z t > $ > 8 r w 0 7 8 9 > > > % > > & % % % % @ o o . .   . .     o # % ; > , 1 , 8 , , > = > , > > > ; % ; ; $ % > > 8 t g g h G r.@X1X1X3X3XrXyXyXiXiXuXfXfXfXfXfXfXuXfXfXfXfXfXfXiXfXfXfXfXfXfXfXfXfXiXiXfXfXfXfXfXiXiXfXiXiXfXiXiXdXfXfXuXfXuXuXuX",
"/ ) t.t.r.a.a.a.A.V.p.t.t.a.C.A.A.A.S.S.S._.S.S._._._._._._._._.'.'._.'.'.'.'.'.'.'.'._.A.Q Q ~ Q _ r.Q D G D K K K K G K D D D D D D D m m m z m m m D D l l K U K K G G Q / / ) t.p.t.t.t.) ) t.p.p.p._ l o 2 D ) _ C.~ m l m D l y 1 8 y l l l m ~ _ ) _ _ t._ ) _ p.C.V.C._._.S.C._ _ C.`.].].[.].'.A.p._ V._.`.`.[.{.{.'.S.V.a._.[.{.[.{.{.#XdXhXnXbXMXMXMXMXMXMXMXMXMXMXMXMXMXSXBXSXBXMXBXMXMXSXSXSXBXSXSXBXSXSXMXSXSXMXSXSXSXSXBXSXMXSXSXBXMXSXMXMXMXBXSXMXSXSXSXSXSXSXSXSXSXSXSXSXSXBXSXSXBXNXBXSXAXjXwXU.N.N.Y.:.C z g e r w r r u l l u r y y t r 8 w 8 8 7 8 w r w w w r w 8 9 > > 8 y p p u u l p l l p u p u w r n n l w 1 w 8 2 2 2 0 w r r r w e u g t 4 d z x c B x s s P q.w.w.w.w.w.w.u...j f ! =.=.=.X.! T P F d , $ $ 8 r w 1 1 7 8 6 ; % > > > % & & & % # o o . . . . .   . o # > > > 7 1 8 7 8 > > > > > > ; > > 7 6 ; % $ ; , t k g g g N / '.&X4X1X3XtXuXyXiXiXuXiXiXiXfXfXfXuXfXfXfXfXfXiXiXfXfXiXfXfXfXfXfXfXfXfXfXfXfXfXfXfXfXfXfXfXiXfXuXfXdXdXfXdXdXdX",
") _ r.r.r.p.p.a.A.a.p.t.p.a.a.A.S.A.A.A.A._.S.A.S._.'._._._.'._._._._._.'.'.'.'.'.'.'.'.t.U Q ~ / p.) K G D D D D D D D D D D D D D D D D m z z m m m D m u m K K K G D U ~ / / _ t.t.t.t.p.t.) _ p.a.p.p.~ 2 + t Q ) p.p.Q m D D D n 7 > r p p l m K ) ) _ _ _ ) / _ a.V.V.C.S.C.C.p.) a._.'.].'.'.]._.a.) p.A.`.[.'.].{.[._.V.p.C.{.[.{.{.{. X{.*XhXbXMXNXMXMXMXMXMXMXMXBXMXBXMXMXSXBXSXBXMXBXMXBXBXBXBXBXSXSXMXMXSXMXSXSXSXMXSXSXMXMXMXMXBXBXMXBXBXBXSXBXSXSXMXMXBXSXSXSXMXSXSXSXSXSXSXSXSXSXSXSXBXBXSXjXwXU.N.N.B.9.Z h h u e w 8 y y y l l r r r u y r w 8 8 8 1 9 9 r r r r r w w w 1 ; > 8 p l u p m l l p l u y w 9 w l l p u ; 2 2 > 2 2 8 w r u t w w e u l g e d x B c B B j s T u.u.w.y.e.w.w.u...j j ..q.q.w.O...! T L x q = ; 8 8 8 8 > 6 7 > > > > > & & % & & # o . .     .           O % % , 1 8 7 7 > > > > > > % > > 6 9 6 $ $ ; , e k G G z g x Q a.@X<X4XtXyXyXuXuXuXiXfXfXiXfXfXfXiXfXfXfXfXiXiXiXiXiXfXfXiXfXfXfXfXiXiXfXfXfXfXfXfXfXfXfXiXfXfXfXuXdXdXyXdXfX",
"t.t.t.t.a.a.r.p.p.p.r.p.a.a.A.A.A.A.S.A.S.S.S._._._._.'.'.'.'.'.'.'._.'.'.'.'.'.'.'._._./ U Q Q ) C.~ D D D D D D D D D D D D D D D D N N m m m m m m m l l K K K K G G Q ~ / ) t.t.t.p.p.t.p.t.t.p.a.a.a.p.D > > m / t.a.) D m m D m y > 8 y u n m D Q ) ) ) _ ) ~ _ a.a.C.A._.A.V._ _ C.].'.'.'.].'.C._ ) C._.'.[.[.[.'.'.A.a.a.`.{.{.{. X{.{.'.{.rXnXnXnXNXNXMXMXMXMXMXMXMXMXMXMXMXMXMXMXBXMXMXMXSXSXSXSXMXMXMXMXSXSXBXBXBXSXSXSXSXSXSXBXSXBXMXSXMXSXSXSXSXSXMXSXSXSXSXSXSXBXSXSXSXSXSXBXBXAXAXBXBXSXAXpXU.N.N.B.9.| z l u w w w 9 y y p l l u y y r r r w w 9 7 8 w w u r r p r r r w > > > 1 r p y l D n m u p p y w w 9 u r r l w 2 2 > > 2 2 8 w t u u w 4 t g k k e s x c B L T j s T u.u.y.e.w.e.e.u.X.j v w.w.w.w.0.X.! ! W F t - = , 8 0 6 > > , > > > > & & & & & & # o . .   .           . o X % > 7 7 1 , 7 > > > > % > > 6 9 8 > > , 8 w q N ) U x z x Q A..X1XrXrXuXuXuXuXuXuXuXiXiXfXfXfXfXfXfXfXfXfXfXfXiXiXfXfXfXfXfXfXfXfXfXfXfXfXfXfXfXfXfXfXfXiXiXfXfXdXuXdXfX",
"t.r.t.t.a.a.a.p.r.p.t.p.a.A.A.A.A.S.S.S._._._.'._._.'._.'.'._.'.'.'.'.'.'.'.'.'.'.'.'.a.U U Q ~ t.p.U G D D D D D G D D D D D D D D D m m m m m m m m z l m K K K K G K Q Q / t.t.t.t.t.p.p._ t.t.t.p.C.p.a.) u = w Q _ t.a.Q m D D D m 9 > 8 y l m D K Q ~ / / ~ / p.V.C.C.C.A.C.p._ a._.'.].'.[.]._.a._ p._.'.'.].{.{.]._.C.p.A.{.{.{.{.{.{.[.'.C. XdXMXbXnXMXbXMXMXMXMXMXMXMXMXMXBXBXMXBXSXBXMXMXSXSXSXSXMXMXMXMXSXSXSXMXBXSXMXSXSXSXSXMXSXSXSXSXSXSXSXSXSXSXSXSXSXSXBXSXSXMXSXSXSXSXSXBXBXAXBXBXSXAXjXU.N.N.B.v.-.c g l u u r 9 w y u l m l u p u y r y w w 9 7 w r r l r u H p p u w > ; > 1 8 r y n J D D p p p p u w 8 w r 8 t r 8 8 8 2 2 , 2 w r u u e 3 3 e u N N g g x L P U U V j I w.u.w.e.y.y.e.u.R j I w.w.w.w.w.X.! ! W F k 3 - , 8 8 > > > > 6 > % & & & & & > & # o o               . o O X # % > 1 1 7 1 1 7 > % % ; > 6 > , 1 2 0 0 t 3 x t.t.L z B t.'..X&X1XtXuXuXuXuXuXuXuXiXiXfXfXfXfXfXfXfXfXfXfXiXiXfXfXfXfXfXfXfXiXfXfXfXfXfXfXfXfXfXfXfXfXuXfXfXdXdXdXdX",
"t.p.p.p.p.p.r.t.t.t.t.r.a.A.S.S.A.S.S.S.S.S._._._._.'.'.'.'.'.'.'.'.'.'.'.'.'.'.'._._.) Q ~ Q ) a./ B D D N D D D D D D D D D D D D N m m m m m m m m z l D G D K K K Q Q / ) t.t.t.t.t.a.t.Q _ a.p.t.a.a.p.a.Q 2 = l ~ _ V.p.K D J D J l 8 1 y l m m D K Q ~ ~ ~ _ p.V.C.C.V.C.a._ _ C.'.`.[.].]._.C._ _ C.].].'.].[.].'.A.p.V.].{.{.{.{. X{.]._.V.A.1XMXMXnXMXbXBXSXSXMXMXMXMXMXMXBXMXMXBXSXSXSXSXSXSXMXSXSXMXSXMXSXSXSXBXBXSXBXMXSXSXMXMXMXSXSXBXSXSXSXSXSXSXMXBXSXSXSXSXBXBXSXSXSXSXSXSXSXAXSXMXAXjX9XB.N.B.B.7.C t u u r u y 2 y u e n m l l l u y u r w r w 8 r y r l u l K D D l 8 > > > 2 w r u m K Q K l r r y u w 8 2 w 0 w r w w w w 2 > , w w w u u e 2 3 4 t G G d s c L T T ! V f V w.u.w.y.y.y.u.u.I j I w.u.u.w.w.q.X.! W W F d 3 , , > > > > 6 > & & & % % & > & % # o               . . o o O $ % > > 7 7 7 7 6 > ; > 6 6 , , > 1 0 0 t 0 : G './ F N Q a.]..X@X1XrXtXyXyXiXuXdXuXfXfXfXfXfXfXfXfXfXfXfXiXfXfXfXfXfXfXfXiXiXiXfXfXfXfXfXfXfXfXfXfXfXfXfXdXdXfXfXfX",
"r.p.a.p.p.p.a.p.t.) ) r.C.S._.S.A.A.S.S._.S._.'.S._._._.'._.'._._.'.'.'.'.'.'.'.'.'.a.Q / / ~ _ t.U N N N D D D D G D D D D D D D D m m m m m m N D m l m G K K D J Q ~ / ) _ t.t.t.t.a.p.~ K ~ p.a.r.a.C.a.a.p.D ; 8 D ) _ a.) K J D K D p 1 w l l m D D K ~ ~ ~ _ p.V.C.V.V.V._ _ p.C._.'.[.'.`.C.t._ p._.].].].].].]._.p.a.`.{.{.{.{. X X].S.V.A.'.@XuXnXnXMXMXMXMXMXMXMXMXMXMXMXMXMXMXMXMXBXSXSXMXMXBXMXMXSXSXSXSXSXBXMXMXMXMXMXMXSXSXMXSXSXMXSXMXSXSXSXSXSXSXSXSXSXSXSXSXMXSXSXSXSXSXSXAXSXBXSXAXpXY.N.B.Y.b.R g r l g u u y 3 w u e n m l l l l p u r r u w 8 r y w l m l D n m l w > > 1 8 y r u m J ~ K l r w w u w 2 w w w r u w w r r w , 1 2 3 r r u g e 3 3 3 g L L s s B U U ! ! P j v =.y.1.y.u.u.u.u.I j T w.u.u.u.w.q.X.X.! W L k 3 = > > 6 > > > > & & % % & & & & % # .               . . . o o O $ > 1 1 1 7 6 > > > > > > > 1 1 8 0 0 e 0 0 t.Z.Q Q Q Q d. X.X@X&X1X4XrXrXyXiXdXiXfXfXfXfXfXfXfXfXfXfXiXfXfXfXfXfXiXfXfXfXfXfXfXfXfXfXfXfXfXfXfXfXfXfXfXiXfXfXdX",
"p.p.a.a.p.p.a.p.t.) ) t.V.S._.S.S.A.S.S.S._._._._._.'.'.'.'.'._._.'.'.'.'.'.'.'._.S.t.U Q Q ) a.~ N D D D D D D D D D D D D D D N D m n z z m m m D l l D G K K D D Q / / ) t.p.p.p.p.a.) Q U U ) a.p.a.C.C.C.a.) u ; t Q ) p.a.Q D D K J D r 8 r p m m m K Q ~ ) t.p.V.C.V.a.p._ _ S._._.].'.'._.a._ p.C.`.[.[.'.].]._.C.p.C.{.{.{.{. X X{.`.V.a._..X X&XgXBXbXMXMXMXMXMXMXMXMXMXMXBXMXMXMXMXMXMXMXMXMXMXMXSXSXBXSXSXSXSXBXMXMXMXMXSXSXSXSXSXSXSXSXBXSXSXSXSXSXSXBXSXBXSXSXSXSXSXSXSXSXBXSXAXSXBXSXAX9XN.N.B.U.:.M w r g t t u r 2 r y u m n n n u n l y r p l w 8 r r w l D m D m l l r 1 > 1 1 y p p l m ~ K l r 8 1 w r 9 r w r r y w 0 t y w 2 2 1 8 t w u g g w 3 4 4 g L L h s c T ..! R R c j *.u.y.y.h.e.u.u.v f ! d.d.l.u.w.q.0.X.! W F k , ; > 7 > ; > > > % % % % & & & & % .                   . . . o # % > 1 7 7 8 6 6 > > > > 6 1 r t 0 0 q 0 , k '.A.) U U t.Z. X@X&X&XrXrXrXyXyXiXfXfXfXfXfXuXiXiXfXfXfXfXfXfXfXfXfXfXfXfXfXfXfXfXfXfXfXfXvXfXfXfXfXfXfXfXuXfXfXdX",
"p.a.p.p.p.p.a.a.t.) ) ) a.S.A.A.A.A.S._._.S.S._.'.'.'.'.'.'.'._.'.'.'.'._._.'._.A.t.Q U Q Q Q / G D D D D D N N D D D D N N N N N N m m z z m D D D l l K K K D D K ~ / ) _ t.t.p.t.a.p.Q Q Q Q Q _ a.p.a.C.a.a.a.Q 0 , n ~ _ a._ K G K D K l 8 1 p n l m D D ~ ) _ p.V.C.V.p.p._ a.S._.].].'.].S.t._ V._.`.[.{.'.{.].C.p.V.'.].{.{.{.{.{.{._.a.C.{.OXOX X1XnXMXMXMXMXBXBXBXBXBXMXBXSXMXMXMXMXMXMXMXSXSXBXSXSXMXSXBXSXSXBXSXSXMXSXSXSXSXSXSXMXSXSXSXSXSXSXSXSXBXMXSXSXMXSXSXSXSXMXSXSXBXBXSXMXAXBXAXpXY.N.N.B.z.R z e t g r r u r w u e u D n D z g n l l p l p 9 w y r y D J m D D m n y 1 ; 9 2 w n n l p J H p r 8 1 7 u r w w w w r y w w t e e 0 2 2 w r u t g t e 4 0 e t L U h s V ! ..! E ..v f &.u.1.h.l.l.u.=.j c q.d.d.u.u.w.q.X.! ! W L g 2 > , 7 > > > > % ; $ % & & % & % # o                   . . . . % > > 7 7 8 8 6 , > > > 6 , z W t 0 r q 0 3 L .X X/ / r.Z..X.X@X&X1XrXrXrXyXyXdXdXuXdXdXuXuXdXfXfXfXfXfXiXfXfXfXfXfXfXfXfXfXfXfXvXbXvXfXfXvXfXfXfXfXuXuXfXfXfX",
"p.a.p.t.p.a.a.a.t./ ) ) p.A.A.A.A.A.S._._._._._.'.'.'.'._._._._.'.'.'.'._._._.S.a.) Q Q Q Q ) / G D D B D D D D D D D D N N N D D D D m m n n D D z l m K K G G K K ~ ) ) t.t.t.t.p.a.) U K U Q D K a.p.p.A._.a.a.a.D : 3 D ) t.a.) K D K K J r ; r l l l n m Q ) _ p.a.a.p._ _ p.C._._.`.'.`.`.a.) p._.`.'.].[.{.{._.a.a._.{.{.{.{.{.{.{.`.a.a._.{.OXOXOX@XrXBXMXMXBXMXMXMXMXMXMXMXBXBXMXBXSXBXMXMXSXSXSXSXSXSXSXSXBXSXMXMXBXSXBXSXSXSXSXSXSXSXSXSXSXSXSXSXSXSXSXSXSXBXSXSXSXSXMXSXSXSXSXSXSXnXAXjXU.N.B.B.U.-.c d g u t t u u t r u w r D m D l n m m n m D l 9 y u r p D K D n m m m p 2 ; w y p D J D p l J l r 9 1 1 r w w w 9 8 w y w 0 w u z l 0 , > 2 w t e u u e 3 3 4 h L F h j I ..*...E ..c j R y.h.h.h.w.u.! j L w.n.u.u.u.w.q.q...T W S g , ; > > > > % % % % % % % % # % % # .               . . . . o # % & 6 > 7 8 7 > > > > > = p Q F r > t w 3 3 Q $X Xd.r.d.S.@X.X@X&X1X4XrXyXyXiXfXuXdXyXdXfXiXiXfXfXfXfXfXfXfXfXfXfXfXfXfXfXfXfXfXfXfXvXvXfXfXfXfXfXfXfXfXfXfX",
"r.p.p.t.p.p.a.a._ / ) / t.C.A.A.A.A.S._._.'._._.'.'.'.'.'.'.'.'.'._._._._._.A.C.p./ Q Q Q / _ U N D D D D D D D D N D D D N N D D N N m m n D m z u z D K K D K U Q / ) ) t.t.t.p.a.p.~ K K K D u u ) A.a.C._.C.C.C.) u = u Q ) a.t.Q D K K K D 9 8 y l l l m K ~ _ _ p.p._ ) _ V.A.S._._._._.C._ _ S.`.'.'.[.].]._.C.p.C.].{.{.{.{.{.[.'.V.t._.{. X XOXOXOX$XgXSXMXMXBXMXMXBXMXMXMXBXSXMXSXSXSXMXMXSXSXMXSXSXMXSXSXMXSXSXMXSXSXSXSXSXSXSXMXMXSXSXSXSXSXSXSXSXSXSXSXSXSXSXSXSXSXMXSXSXBXBXBXBXAXjXwXB.N.Y.Y.b.Z d t u u u u u u r t u 2 r D D D l G K D m J Q l y y u w l D J m n n n m p 8 ; 8 l D H K K n p J D u 8 > 1 w w w w w w 9 w w w w u z z u 3 ; 2 w g t w w u e 3 e q d B c f c I =.=.&.E E C j R y.u.e.h.l.w.T v P w.n.n.u.w.w.q.=.! W P c d 8 > > > & % % % % % % % % # % % @ @ .           . # . . . o @ # & > 6 7 7 8 9 7 7 6 > ; 8 ~ C.D % 7 w 2 , , ) @X'.d.u.d. X@X.X@X&X<X4XyXyXyXdXdXfXyXuXdXuXfXfXfXfXfXfXfXfXfXfXfXfXfXfXfXfXfXfXfXfXfXvXfXfXvXfXfXfXvXfXdXfX",
"a.p.p.p.r.p.a.a.t.) _ / t.a.A.S.A.A.S.'.'.'.'._.'.'.'._._.'._.'.'._._._._._.A.a.t.Q Q Q / ) / G B D D D D D G G D N D N N N N D N m m m n m D m l l D K K K D K Q Q / ) _ t.t.t.a.a.) K K K D z u t D p.a.a.A.C.C.C.A.Q 2 , m ) t.C.t.K D K K K n 9 w u p l D K Q ) _ _ _ ) ) t.C.A.S._._._.C._ _ V.]._.'.'.{.[.'.C.p.V.`.{.{.{.{.{.{.[.C.p.V.[. X X{. XOXOX{.<XBXMXMXMXBXMXMXBXMXBXSXSXBXSXSXBXBXSXSXSXSXSXSXSXSXSXSXSXBXBXSXSXSXMXMXSXSXSXSXSXSXSXSXSXSXSXSXSXSXSXSXSXSXSXSXSXMXSXSXSXSXBXAXAXpXB.N.B.B.B.1.h e t u u g g t r r r u 2 u K J n n K K K D K ~ m p r y y m D J D m n n m p w ; 1 n D K D J H y p m p w > ; 8 w w w 8 r w w r t e t k l z g 3 2 2 w u t w e u e e e e z F x s c ! =.=...! ! P f C w.u.h.e.u.q.R j I u.n.w.w.e.w.*.=...! L c k 8 , ; % & % & % % % # % # # % % # # . . . @ . . # . . . . # # % & > 6 8 8 9 9 9 8 > > $ p J 9 ; > > > > ; 3 t.@X'.S.d.Z..X&X@X@X&X1X4XrXyXyXyXuXuXiXuXdXfXfXfXfXfXfXfXfXfXfXfXfXfXfXfXfXfXfXfXfXfXvXfXfXfXfXfXfXfXfXfXfX",
"a.p.p.p.p.a.a.a.t.t.) ) t.p.a.S.S.A.S._._._.'.'._.'.'.'._.'._.'.'.'._._.S.A.S.A./ Q Q Q ) t.Q D K D D D D D D G G D D D D m m m N m D m m D N m m D Q ~ Q K D D Q ~ / ) ) t.t.p.a.t.Q K K K D u u l l ~ C.C.a.A.A.C.A.p.D ; 0 Q t.a._.~ K K K K K u w y u l D D J ~ ) _ ) ) _ a.C.A.S.S._.S.p.) t.A.`._._.'.].].A.a.p.S.[.{.{.{.{. X{.`.V.a._. XOX X X X{. X[.`.uXMXMXnXMXMXMXBXMXMXMXBXSXBXMXBXSXSXMXMXSXSXSXSXSXSXMXMXMXMXSXSXSXSXMXBXSXSXSXSXSXSXSXSXSXSXSXSXSXSXSXSXSXSXSXSXSXSXSXSXSXBXAXpXU.B.B.Y.Y.B.Y g y e u u g u u u u u u w l K D n m K Q Q Q Q K D l y p p m D J D D m m m l w 1 ; p D Q ~ D D u 9 l r r 1 % 8 r w w w w w w w u 0 e z z g k k 0 0 3 0 t e 3 e u t t e d c U V h V ..=.q...R I c f P w.e.g.n.u.=.I j R n.d.u.e.e.w.=.o...R L x u 8 > % & % % % % % % % % # # # # . . o # % @ . # . o . @ @ # # % & > 6 8 8 w r 9 > > % & > % & % % % % > , l A. X'.'.S.S..X$X@X&X&X<X4X4XrXyXyXiXuXiXuXuXfXfXfXfXiXfXfXfXfXfXfXfXfXvXfXfXfXfXfXfXvXfXfXfXfXvXfXfXvXfXfX",
"p.p.p.p.a.p.a.p.r._ ) ) _ p.p.A._.S._._.'.'.'._._._.'.'.'.'.'.'.'.'.'._._.S._.a.Q Q Q ) t.) U N K G D D D D D D G U D D D m m n n m m z m m m m D D Q Q Q K K Q ~ Q ~ ) ) _ t.p.a.~ K K K K l w u z z Q t._.C.a._._.A._.) u + l ) a.C.a.Q K K K K D u w u n N D D Q ) ) ~ ~ t.V.C.S._._._.V._ _ a._.`.'.'.].'._.a.t.C._.{.{.{.{.{.{.`.A.a.S.{. X X X X X{.{._._.iXBXMXMXnXMXSXSXBXMXMXMXBXBXMXMXBXSXMXMXSXBXBXSXMXSXSXMXBXSXSXSXSXSXSXMXSXSXSXSXSXSXSXSXSXSXSXSXSXSXSXSXSXSXSXSXSXSXSXSXAXAXjXY.N.Y.B.Y.Y.h.M u y e u u l u u u u u u r n K D D J Q ~ ) ~ Q K m p p p m D H D K J n m n u w 2 ; r D H ) H H n r p r y w ; 8 r r w w 9 w w 0 g k t k G x z N g 3 ; 2 0 e 0 2 0 e 0 0 t g U ! x a V E =.*...! W P f C w.e.u.l.w.*.C j *.d.n.u.y.e.>.>.....T F k t 0 > % % % % % % % % # # # # # # # % & & # @ # . o . . @ # # % % > > 6 8 9 r 9 7 > % & > & % % % & & > > > G  X]..X].S.'..X&X&X&X&X<X1XrXyXyXuXfXuXfXfXfXfXfXfXfXfXfXfXfXfXfXfXfXfXfXfXfXfXfXfXfXfXfXbXbXvXvXvXvXfXfX",
"t.p.p.p.p.p.p.p.r.) / / ) t.t.a.S._._._._.'.'._._._.'.'.'.'.'._._.'._._.'.'.A.) Q Q / t.p./ G G K J D D D D D D D K ~ U J N m l l l l u l g l z z m K K D D D Q ) ~ Q / ) t._ a.t.U G K U D t u l l m K ) C.A.a.C._.A.C.a.Q ; ; N _ a.C._ K K K K K l w r l n N J K Q ~ ~ ) p.V.C.C.S._.C.t._ t.A._._.`.].].`.A.p.a.'.[.{.{.{.{.[.`.C.V.V.{.OX X+X X X X[.`.C.OXbXgXMXMXMXMXBXSXBXBXBXSXSXBXMXMXSXBXSXMXBXMXSXSXSXSXSXSXSXSXSXMXMXSXSXBXSXSXSXSXSXSXSXSXSXSXSXSXSXSXSXSXSXSXSXSXSXSXSXSXAXjX9XN.Y.Y.Y.Y.U. .h u u u u u g u u u u u u r N K K K K Q ~ ) ~ Q K u u l y D K K D ~ J l m m l r 8 ; ; m J Q K H D p r r r r 1 8 w r w 9 9 w w 0 g F z k N L L N x z 3 : 3 e e 0 0 0 t t e d h U ! c s P ! ....X.! R P f V =.u.u.u.=...v V w.n.l.u.u.e.w.<.<...L S k t 8 % % % # % % # # # O # # # % % & & % # @ @ . . . . @ # # % # % > 6 7 8 9 w 9 7 & & & % % % % & % % > 2 2 Q  X].'..X].].@X&X&X&X&X<X4X4X4XiXdXfXdXfXfXfXiXfXfXfXfXfXfXfXfXfXfXfXfXfXfXfXfXfXfXfXfXfXvXvXvXfXvXvXfX",
"t.r.p.p.p.p.t.p.p./ / / ~ ) t.a.A.A.S.'.'.'.'.S._._.'.'._._.'._.'.{.'._.'.'.p.Q Q Q ) t.t.U G U U G D D D N m m z m Q K D N m l g l l u l u u l l z N D D N z l D D G K Q _ t.t.Q G J K K k u l z z D Q ~ p._.C.C.A.A.C.V.a.z = 0 Q t.p.A.) K K K K J u 3 u l m D D K Q ~ _ a.V.V.C.C.C.p._ _ a._._._._.'.'._.p.p.S.{.[.{.{.{.{.{._.V.p._.{. XOX+X+X+XOX{._._.cXJXgXdXnXMXBXBXBXMXMXMXMXSXMXMXMXMXSXSXMXBXMXBXSXMXSXMXSXSXSXSXSXBXBXMXMXSXSXSXSXSXSXSXSXSXSXSXSXSXSXSXSXSXSXSXSXSXBXSXBXAXwXB.N.B.Y.N.Y.k.M g g r p u t u u u u u l u w D Q ~ Q Q Q ~ ) Q ~ Q y l m w D Q Q D K J n D D l r 9 8 + 9 D K K D H l 8 r w w 9 8 9 w w 9 9 w r w 0 N G z h L ! L c x z 4 , 0 w 0 w 0 w t e e s z ! ! j h ....E ....! ! P s c *.u.u.u.=...v I u.x.u.u.u.u.w.w.*.T L c k t 6 & & # # # # # # @ # # % % & & & % # # . . . . . o @ # # % ; > > > 7 9 w r 8 & & % & & & & & % % & > ; : / ].]..X.X X X@X&X<X<X&X<X<X3XyXuXuXfXfXfXfXfXfXfXfXfXfXvXfXfXfXfXfXfXfXfXfXvXbXfXfXfXfXfXvXfXvXvXfXfX",
"t.t.t.t.p.p.t.p.p.) / / Q / t.t.a.A.S.A.S._.S.S._._.'._._.'._.'.]. X'._.S.A._ Q Q / ) ) ~ G D U U D G N m m n l l n N D N n n l u z m m n u u u u g l m z z l p y z D D m K ) ~ Q K K K m t l l m D K U Q ) C.A.C.A._.A.A.S.) r > g / t.C.a.Q U U K U D e w g m m N D K ~ _ p.a.V.V.V.V.) ) a.C._._._.`.`._.C._ a.'.{.{.{.{.{.{.'.C.a.A. X XOXOXOX XOX{.[._.[.mXUXfX<XbXBXMXSXSXSXSXNXSXSXSXSXBXSXSXSXSXSXMXMXSXSXSXSXSXSXSXSXSXSXSXSXSXSXSXSXSXSXSXBXSXSXBXSXSXSXSXSXSXSXSXSXSXBXBXnXAXpXY.N.N.N.N.N.U.*.z g t u l u u u u g l g n g 3 m Q ~ U Q Q Q ~ K Q K y l J r D Q Q J K J D H D n r 9 r $ 8 l D ~ Q D l 8 9 w 8 r 8 7 w w 9 8 9 w t 3 z L B h B ! ! T L M h q 3 0 0 w 0 3 q q 0 0 t c / ! s c q.*.X...R W T P f c q.w.w.w.=...v R u.n.l.u.u.u.e.>...T L c g q > % % # # % @ @ # # % % & & & & & % # . . . o o o # # % > % # ; > > 7 9 w 9 7 & & % % & & % % & & > > = e p. X X.X.X.X@X@X<X1X<X<X<X<XyXiXiXdXfXfXuXfXfXfXfXfXfXfXfXfXfXfXfXfXvXvXfXvXbXfXvXfXvXvXvXvXvXfXfXfX",
"t.t.t.t.t.t.t.t.t._ / / Q Q / t.p.a.S.A._._._.'._.A._._._.'.'.'.'.'.'.S.S.t./ Q Q Q / Q U D G Q U D N m m n l l l l l n N z l m z l z D D u r r e r y p p l l l l m m m m D Q Q K K K D l t l z m D K Q / / _ A.A.A.S.S.S.a.C.K > 2 K t.a.A.t.U G U Q Q n w u l n m m D ~ _ p.p.V.C.p._ ) t.C.A._._._.`._.C.p.t.S.{.{.{.{.{.{.[._.a.V.]. X XOXOX X{. X[._.[.<XgXPXdX#X4XNXBXNXMXMXSXSXSXSXSXNXSXSXBXBXSXSXBXSXSXSXSXSXSXSXSXSXSXSXSXSXSXSXSXSXSXSXSXBXSXSXMXSXSXSXSXSXSXSXSXSXSXBXnXAXpXY.N.N.N.N.N.B.k.Z g l t u l g u u u l n l m n w n J Q ~ Q K Q K K K K r D D r m K K J J D D J m l u 8 y > > D K ) _ D l r > 1 > w 8 7 9 9 8 7 8 9 w 3 g G L x f T ! / ! P j h 4 3 0 0 0 3 3 4 3 3 e h B q.W f I q.q.q.q...I P v f c =.w.w.w.o.R v o.n.u.l.l.l.e.w.w.X.T c z g 7 % # # @ @ # @ # % & & & & & & & % # o o . o o o # # # % # # # ; > , 8 8 w 9 & & % % % & % # % % > = = , F '..X.X@X.X@X@X$X&X&X<X<X&X<XyXdXdXfXfXfXfXfXfXfXfXfXfXfXfXfXvXvXfXfXfXfXfXbXvXfXfXfXvXbXvXvXfXfXvX",
"t.t.p.t.t.t.p.p.t._ ) / U U U / t.p.a.C.a.a.S.'.'.'.'.'.'._._.S.a.a.A.C.a.) Q / / / / Q U G G U U D N l l l l p l l l l l l l D K l u u t l u u u w r r r r y l l l m D K K K K K K K D z l m D D K Q Q / ) / a._.A.A._.'.A.A.p.l > u ~ a.A.'.~ D U K Q K u 2 u n n l D Q ) p.p.p.p._ ~ ) V.A.A._._._.`.S.a.t.V.{.{.{.{.{.{.{.`.V.a._.{. X X XOXOX X X_._.7XfXdXDXyX$X,XfXBXSXMXBXSXSXSXSXNXMXNXBXMXMXBXMXBXSXSXSXSXSXSXSXSXSXSXSXSXSXSXSXSXSXSXSXSXSXSXSXSXSXSXSXSXSXSXSXSXSXSXBXSXjXU.N.N.N.N.N.N.B.:.x g k u u l l g u e z N n m N u m K Q ~ Q Q K J D K D y K D y l K K J K K K K m l l 2 u 7 $ p K ~ ` H p l 7 > > 7 8 7 7 9 8 8 8 w w w 3 z U P s x &.! &.^ P B z e 3 0 w 2 , 3 3 3 4 e d L q.P j I =.q.w.w.q.! P c f v *.w.w.=.X.I C w.n.n.n.u.e.u.w.=...W F k r 6 % # O . . % % & & & & & & & & & % # o . o @ @ @ O @ O # % % % > > > 7 w r > & % % % # # # # % % $ = - 0 U ]..X.X@X@X@X@X&X&X<X&X&X$X<XiXdXfXfXfXuXfXvXfXfXfXfXfXvXfXfXfXfXvXfXfXbXvXbXfXfXfXvXbXbXbXbXvXvX",
") _ t.t.t.t.t.r.t.t.) Q U K K Q _ t.r.A.C.a.C.S._._.{.].'.'.].'.A.A.A.A.p.) ~ / / / / Q G D K U G n z l l u u u u u l l u u u l D D w = , u u u l r r w r w 0 r l l D D K Q K K K K J D m m m D D K Q Q / / ) p.A._.A._.'._.A._./ r > m ) a._.C.Q G U Q Q D w r l l n D K ~ _ p.p.t.) / _ C._._._._._._.C.p.a._.[.{.{. X X{.'.A.p.C.{. X X XOXOX X X`.V.2XmX7X7XFXcX+X+X2XNXBXBXSXSXNXBXSXSXSXSXSXBXSXMXMXSXSXSXSXSXSXSXSXSXSXSXSXSXSXSXSXSXSXSXSXSXSXSXSXSXSXSXSXSXSXSXSXSXAXSXSXAXwXN.N.N.N.N.N.N.9. .z g k g u z z l g u N U D D D l m Q ~ Q K Q J J D J m y K D u l Q J H Q Q K K J l l 1 u u ; 8 m K K J p r 7 1 , 1 8 1 > 8 9 8 9 w e e 3 d L ! V s T =.=.=.&.T L z 3 0 0 2 2 2 , 3 2 3 e d L q.C j R w.w.w.w.q.X.W v f v o.e.w.R  .Z I u.l.u.l.u.e.w.q.q.! L x p 8 % . o . @ > & > & > > > > > > & # O o . @ @ @ . @ o o # # # $ % > > , 8 r w > % # # # # @ # % % % ; > , e / '. X.X#X%X#X&X&X&X<X<X<X&X<XrXiXuXfXfXfXfXfXfXfXfXfXvXvXfXfXfXvXvXfXfXfXfXfXfXbXvXfXfXvXvXbXbX",
"/ / ) ) ) ) ) t.p.t.) / U G K U U Q Q ~ Q U G D n n G Q ~ / / / ) ) t.t./ Q U U U U K D m D N m n g u u u r w w r r p r 2 9 r > > y l w + w l u u u r w w w 2 , w r l m D Q K K K J D m n D m D K Q Q ~ / / _ a.A._.A.A.'.'._._.C.G * 3 U t.C.'.) G U Q Q U l w r u n D K Q / t.p._ ~ ) p.C._._._._._.C.p.t.C.].].[.{.{.{.'.S.a.V.'. X X X X XOX X[.V.{.ZXZX7X4XdX2X+X#X2XDXBXnXSXSXSXSXSXSXSXSXSXSXSXSXSXSXSXSXSXSXSXSXSXSXSXSXSXSXSXSXSXSXSXSXSXSXSXSXSXSXSXSXSXSXSXSXBXBXBXSXSXMXT.N.N.N.N.N.N.B.7.P h g z g u m N n l g N Q G D D n n K Q K J K D D D D l p H m y l Q J D K K D Q K n u 2 y l % > y D J D D 1 7 1 > ; 8 7 > 8 8 7 8 w t t d e x ! ! f c ......=.! T L g e w 2 2 2 , , 2 3 3 e h P ! c j ..w.w.w.w.w.q.X.v f v  .=.| I I v X.e.e.l.u.u.w.w.q.! W F k 9 # . . @ & & & > 6 8 8 > > > > > # o o o o # o . o . o # # # % % > > 1 1 9 y 8 & % # . @ O o # % % # = * : l r.'..X.X.X&X#X$X&X<X<X<X<X<X<XrXuXdXfXfXfXfXfXfXfXfXvXvXvXfXfXfXbXvXbXfXfXvXfXbXfXfXfXfXvXvXvX",
"U Q / ) / ) ) ) _ ) _ ) G N z g z D G m l l l u w 3 3 3 g g 3 2 e t k k m U G B N N z z n l u u l u u r r y r r 9 9 r r 8 8 8 > 1 1 9 l u 1 r l p p l y w 8 , , 2 8 w r p l m D D D l l D D D K K Q ~ ~ / ) _ a.A.S._._._._._.S.'.t.l ; u ~ a.S.A.~ K Q Q Q D u 2 u m D D U ~ ) ) ~ ~ _ V.A.A.S._._.A.a.p.a._.].[.{.{.{.[._.V.a._.{.{.OX XOX X{.{._.V.OXJXPX7X,X#X#X#X,XZXPXDXNXSXBXSXSXNXNXNXNXSXSXSXSXSXSXSXSXSXBXMXBXSXSXSXSXSXSXSXSXSXSXSXSXSXSXSXSXSXSXSXSXSXSXSXBXNXAXSXSXAXMX9XN.N.N.N.N.N.6.$.V l g z g l N N m l l G ~ G K U D n J U K J K D D m D l n D m u n K K D D D D Q Q l w 2 w l ; ; 8 l H p l 9 9 7 > $ 1 8 > > 1 7 w t t t e 4 e L q.T a I =.=.=.=.E ! L h e 0 0 2 , , , , 2 , 4 d L T h j =.w.w.w.w.=.w.X.v f v ..w.R I v C q.u.n.u.u.w.w.q.q.! W m 8 @ . # % 6 6 > > 8 i i 8 > 8 8 w > o @ @ . . . o o o o @ @ @ O # & > 1 1 7 r r 8 & # . . @ . . # O O % $ ; 3 G r.].@X@X%X%X&X&X&X<X3X3X<X<X<XrXuXuXfXfXfXfXfXfXfXfXfXvXvXfXfXvXvXvXvXvXvXbXvXfXvXbXvXbXfXfX",
"B G U Q U U Q ~ / Q U U N m z l l l z z z n l l g e w u l u e g z z N z N U N z z z z m z l u g l u w 9 8 8 8 1 > 1 8 1 > > > 1 1 1 w l D r 2 w l u l u w 8 , > 2 2 w w w y l m D D z m K K D K K ~ ~ / / ) t.a.A.S.'.'.A.A.'.'.S._./ 2 ; m _ C.A.p.Q K Q Q Q N w w l N D K Q ~ ~ ~ ) p.a.V.C.C.S._.C.t.p.S.].].[.[.[.].].C.p.C.{.OX XOXOXOX{.{._._ {.2XNXFX4X,X,X#X#XZXUXPXbXnXBXMXSXSXSXSXSXNXNXSXSXSXSXSXSXSXSXSXBXSXSXSXSXSXSXSXSXSXSXSXSXSXSXSXSXSXSXSXSXSXSXSXSXSXSXSXSXSXAXAXwXB.N.N.N.N.N.:.E B z k g g z N N m n l U ) K Q ) J g D U J D D m n n m l n D m p n K Q D D J D K Q l w ; > l w > 8 w p p r w 9 7 > ; > 1 > > > 8 w t d g e w 3 h ! q.V j q.w.w.w.*.=.! F d 0 0 , , , ; ; 3 2 3 4 g P U s v q.w.u.u.w.w.w.o.C f v w.u...C j C X.w.u.w.w.q.q.q.Q F p > @ # & > > > > 8 r i g g t r t q 2 + @ o o . . o o o o # # o o # % % > 7 1 7 y r & @   . . . . # O O $ > > ; w U V..X@X%X&X&X*X&X<X4XrX4X1X$X1XuXuXuXfXfXfXfXfXfXfXvXfXvXfXfXfXvXvXbXvXvXvXvXfXvXvXfXvXvXvX",
"U G B D N N G J K K D D N m l l l l l l l z l g g g u g z l l z N m N N N _ U l z k l z g u g u u w 2 > ; & % % % % & & % $ $ % > 1 9 w l l w 9 8 p l u t r 8 1 , 1 8 w 9 w r y p l D K Q ~ ) ~ Q ) ) / ) t.a.A.A.A._.'._.A.'.'._.'.C.N * w Q p.C.A.) U U Q Q K l 2 w n D K K K K Q _ a.a.V.C.C.C.C.p._ V.'.].[.{.{.[.'.S.a.V._. XOX XOX X X{._.p.{.mXfX7XfX2X,X,X#X,XPXUXJXdXyXNXSXSXSXSXSXSXSXNXSXSXSXSXSXMXBXSXSXSXBXSXSXSXSXSXSXSXSXSXSXSXSXSXSXSXSXSXSXSXSXSXSXSXSXSXSXAXSXSXAXjX9XB.B.B.N.6.| U N N z g l n N D m m n K ) K K ) D u N J N m D m n m m n l n l l D Q ) D D D D J Q m w ; + l u 1 7 > r l r r w 8 8 > ; > > > > 1 0 t k z g e 2 4 L q.&.j I u.u.u.=.q.q.! F d q 0 8 , $ > > : 2 3 3 h W V s P w.w.w.u.u.w.w.=.I j v q.w...v j I w.w.w.*.! ! P F k > % % 6 6 > % ; 9 9 r p k S D k g t g , @ . # @ . o o o . # # # O X # $ > 1 1 > 9 y 7 #   . . o . O O O + ; > ; : g Q '.@X@X&X<X<X<X<X1X4XrX4X4X<XrXyXiXfXfXfXfXfXfXfXfXfXfXvXvXfXfXvXbXbXvXbXvXfXfXbXfXvXvXvX",
"Q Q K G N z z n z n m m N z l l l u l u u u u u u g l l l z l z z k m n N t./ m m m z l l g l r 3 2 1 1 1 1 1 1 1 > 7 7 1 > & % % > 1 > r p 8 8 9 r l l y r r w 8 2 8 2 8 8 2 w w w r l D D K ) _ ) ~ / ) a.A.A.C.A._.S.'.S._.'.'._.'._ r * l ) C.A.C.Q K Q U Q D w 2 l D D N m D Q _ p.p.a.C.C.C.p._ p.A.`.'.[.{.{.]._.a.p._.[. X X XOX XOX[.C.C.cXZX2XaXmX2X#X+X+X+XfXFXPX7X3XgXNXSXSXSXSXSXSXNXBXSXSXSXSXBXBXSXSXSXSXSXSXSXSXSXSXSXSXSXSXSXSXSXSXSXSXSXSXSXSXSXSXSXSXSXSXSXBXBXMXAXpXU.N.N.N.6.Z L N N z l n m G D m N N U ~ K U ~ n u m N m m D m l m l l l l l l n Q _ K J D D H Q l w > + p l 7 1 > w y t r w 8 w 1 ; > > > > , 2 t z z z u 4 < s ! q.P j =.u.u.w.w.w.q.! L h 0 1 8 > ; ; ; , 3 3 q z W c h ! w.w.e.w.u.w.q.w.E j V =.q.! v v q.d.w.q...T L z 0 ; 6 6 & 6 & > i m p r g k S F S z k k 9 % o @ o o o . . . . @ o o o o # & > > & > y 9 & o   . . . . o + + $ = ; ; ; z C.@X.X#X<X1X<X<X&X4XyXyXyX3X1X4XyXuXuXfXfXfXfXfXfXfXfXfXvXfXfXvXbXbXvXvXvXvXvXvXfXbXvXvX",
"Q Q Q U J N g u u u l z z l l l l p u u y y u u u u u l m m l u u u u g N K K N n n l l u t l r u y 8 1 8 9 9 8 8 8 8 8 9 9 8 1 > > & > 1 y 8 ; l u y u u u r r w 9 w 1 8 w 8 8 9 8 8 w y y y n Q Q Q ) ) p.A.A.a.A.a.a.'.'.S.'.'.'.S.A.Q > 2 D a.V._.r.J J Q Q U z 2 r m m z z D Q _ p.p.a.V.a.a._ _ C.A._.'.'.{.{.'.S.p.C.{. X X X X X X{.`.p.[.FXZX7X7X3X,X#X+X,XcXfXcXNX7X2X3XgXSXSXAXAXSXSXAXBXSXSXSXSXSXSXSXSXSXSXSXSXSXSXSXSXSXSXSXSXSXSXSXSXSXSXSXSXSXSXSXSXSXSXSXSXSXSXSXMXAXhXqXG.B.v.| V L G N m l n N G D N G U / / J G K n r l l l m m l p n l p l p l l u K ) K D n n m Q n 9 1 $ u l 0 8 > w t t r 0 w 0 w > > > > ; > 1 e z N x k t 3 < V =.=.v v w.u.u.u.u.w.q.=.T z 2 8 8 > > > : 3 0 q q z L k x ..w.w.w.w.u.w.w.w.R j C w.w.I j I w.w.q.! L S g 0 6 6 6 6 6 > p F F k p g k z F S S k k i 6 O o o o .   . @ o o . . # # # & & & > > 9 u > o .   . . o o X # $ $ = ; ; 2 U  X@X@X&X1X3X<X<X3X4XyX4XyX4X1X4XyXfXgXbXvXfXfXfXfXfXvXfXbXbXfXvXbXbXvXfXbXfXfXfXvXfXfX",
"Q U U Q Q Q D l r y u p l l p p p p u y u r r w w w r r l D l r r e e l m m N N n l l l l n z u r w 8 1 9 r r 9 9 9 7 > 1 8 8 1 > 7 > > % % r 2 r l l u p p 2 8 w w w 8 8 8 7 1 1 > 1 8 w r y u n D Q ) _ t.a.'.A.a.p.p.S.'._._.].'.A.S.V.n ; 3 ~ V.A.'./ J U Q Q U u 2 u l l z D U / _ p.p.a.p.) ) p._._.`.`.].[.'._.C.V._. X X X X XOX X[.C.V.,XJXZX,X,X#X#X#X,XFXJXcX7XdX4X$X,XyXMXSXSXSXSXSXSXBXSXSXSXSXSXSXSXSXSXSXSXSXSXSXSXSXSXSXSXSXSXSXSXSXSXSXSXSXSXSXSXSXSXSXSXSXSXSXSXSXSXSXjX9Xb.k.Z M U U N N n z K J U U U Q / ) U N N l u u l g n m l p l p p p y y n y D ~ K D m l l Q n 1 % $ t l w 8 2 w w r t 0 2 8 w 1 > = > ; > , w z B N z g 3 < s E u.I f ..d.u.u.u.d.u.w.q.! z e 2 8 8 , ; , 0 , 0 e N c d c X.w.w.w.w.w.w.w.w...j P w...v v ! q.q.W x t q 8 6 > 6 & $ t K F F F z p k z F H F z k i 9 # o o . . .   @ @ o o o # # # # % & > & > p w o   . o o . O # O $ $ = ; > ; w ) @X@X#X&X1X3X3X1X1X4X4X4XyXrX4XyXuXdXfXbXfXfXfXfXfXfXfXvXvXfXvXvXvXvXfXvXfXvXvXfXvXvX",
"~ ~ Q Q Q Q Q m u u r 9 w r y y u y y r r w w 8 8 8 w r w u p u e t u l n l g l l l l m m l u w w w 9 8 9 8 8 1 > 1 > 1 7 > > & & > > 1 % o 8 p y p l y u y 9 8 8 7 1 7 8 1 1 7 1 ; $ > 8 8 r l l l D ~ t._ _ p.V.p.t.a.S.'.'._.'.'.'.S.'.) t , l ) a.A.A.Q K Q Q Q D w 2 t u z D K ~ ) p.p.p.t./ _ C._._.'.`.].`.S.V.a.A.{.{. XOX X X X{._.C.,XaXZXcX,X,X,X#X,XFXUXZX2X7XfX2X$X$X<XbXSXBXSXSXSXAXSXSXSXSXSXSXSXSXSXSXSXSXSXSXSXSXSXSXSXSXSXSXSXSXSXSXSXSXSXSXSXSXSXSXSXSXSXSXSXSXSXnXnXAXsX8Xw.C U Q Q N N N G Q Q / U U U Q / Q m N l l l n l l n p p l u p u y r n l D Q K D l p l Q n 8 > % w l t w 8 0 0 t u w 8 8 w w , ; > ; ; > 0 z F B x z t < < V q.*.v v u.l.u.n.n.l.w.q.q.! B q , 0 1 > , 0 , 3 3 d x B f v q.d.u.w.w.w.q.q.w...j I X.P c v T W c d t 8 > > > 6 % 6 W Q W W W F g k z S F H k g p r % O @ . . .   . o . . . . o # # % % & % % r u > O   . o . O O O O # $ = ; > ; g C.@X@X#X<X4X4X3X1X3X4X4XyXyX4XyXuXfXdXfXfXvXfXfXfXfXfXfXfXfXfXfXvXfXfXvXvXbXbXvXbXbX",
"l m N N D Q Q n p r u y r r r r r r r r w 9 8 8 8 8 8 w w 9 r y r u l l D D n l p p y u r w t t w r 8 > > & > & & % & 7 > % # # # % & > & > 1 p m p n p r r w 8 8 9 7 1 8 1 8 8 9 1 % > 1 1 8 r p p y K _ p._ ) _ _ t.C._.'.'._._.'.'.'._.A.Q , 2 J p.C._._ U U U Q ~ m 2 w u z D K Q / _ p._ ) ) a.A.S._.`.`.'._.C.p.a.[.{.{.OXOX X X X`._ OXfX7X4X7X<X$X,XOX3XPXUXJX7X3X<X#X$X#XgXFXBXMXSXNXSXSXSXSXSXSXSXSXSXSXSXSXBXSXSXSXSXSXSXSXSXSXSXSXSXSXSXSXSXSXSXSXSXSXSXSXSXSXSXSXSXSXSXnXnXAXAXeX! G U Q Q B G N U ) ) ) Q / ~ / / ~ m D n l u g g l l u p l y p y y 8 l l m Q J D l u l Q n 8 1 % 1 l r w w w w r t w w w r t 1 > > > > > w x L B c x g 3 < f ! w.X.j ..n.u.n.n.n.d.w.w.q.! V q < 0 8 1 2 0 , 3 0 t c h f R w.d.n.u.w.w.q.w.w.X.v V W c c W L x d t 7 > 6 6 > $ S / W W W W W k k z z z S k g k r > % @ @ # o . . o o o @ o o # @ % $ % % # 7 u 8 %     o . o o O O # $ ; > > 2 : D .X@X@X&X1X4X4X4X1X3XrXyXiXyXyXiXdXdXfXvXfXfXfXfXfXfXfXfXbXvXfXvXfXfXvXvXfXfXbXbXbX",
"w w y p l l l p y u r r r r y r r r w r w 9 9 8 8 w 9 8 7 7 9 r r r r l D D D p p u r r 9 9 r r w y 8 O % & 1 7 % # $ & > % # O o o O # # # > 8 p l l l u r w w 8 8 8 1 > 1 1 1 8 8 8 1 > > 8 r u p y z Q r.a.) _ t._ C._.S.'.'.'.'.].'.'._.a.l ; u / V.A.'./ K Q Q ~ U u 2 r m D D K Q ) _ ) / _ V.C.A._.].`.`._.p.p._.{.{. X X X X{.[.C.a.,X2X,X7XfX,X#X#X XOX7XJXPX7X$X,X$XOXyXPXDXiXSXMXBXSXSXAXSXSXSXSXSXSXSXSXSXSXSXSXSXSXSXSXSXSXSXSXSXSXSXSXSXSXSXSXSXSXSXSXSXSXSXSXSXSXSXNXnXNXMXDXeXV U U K Q G G N U ) / ) / _ / ~ Q ~ N D m u u u u l n p p l r p y u w l m l K J J n r l Q l ; > % 1 p u w w w w w w r r w r t w ; > > > > 2 N U L B z z s 4 4 x =.q.v v n.d.e.n.n.l.u.w.w.*...P s , 2 8 1 , , 2 3 t k x j v =.d.u.n.u.w.w.w.0.w...c c c x F c z g t > > 6 6 % 0 Q / ! W W W W z g k k k k g k p 9 8 % # @ @ . . . o @ o o o . o o @ X $ & % % p y % . . . . o X X O $ % % ; > 2 , 3 ) *X@X&X1X4XrXrX4X4X4XyXyXyXyXyXfXhXvXvXfXuXfXfXfXfXfXvXbXvXbXvXvXbXvXbXvXvXbXbXbX",
"y 9 w y u u y y y y y r r r r r w 9 9 w w 9 9 8 8 8 8 9 8 7 8 8 8 8 8 w r r p l l w 9 r w 8 w r 9 8 1 $ % & & & # o . % 7 % # # O o O O O O % % r p u u u r r w 8 8 8 1 > > > > 1 8 8 1 & % 7 r r 9 r l N Q ) ) ) p.p.C.A.A.S.'.].'.'.'.'._.'.) r 2 m _ C._.a.~ J Q Q Q D r w l D D K K Q ~ ~ / _ V.S.S._._.`.`.p._ S.[.{. X XOXOX{.`.V.V.7XJXcX<X4X<X#X$X X4XaX3XFXJX7X$X<X#X$XmXJX4X#XfXSXSXBXBXAXSXSXSXSXSXSXSXSXSXSXSXSXSXSXSXSXSXSXSXSXSXSXSXSXSXSXSXSXSXSXSXSXSXSXSXSXSXSXSXBXnXNXSXAX.XM / U K Q K U U Q _ ) _ ) _ / ~ U Q N n n u u u r l n l p l r u y y r r m n Q Q J n y l K l ; ; $ 1 u l u w w w r w w w w r r w 8 , > > > , x U U L c z h 4 q s P q.I j o.u.w.l.n.n.n.u.w.w.=.=.P 4 , 0 0 0 2 2 8 w q g c j V w.n.d.u.u.w.w.q.q.q.R j c x x c k k t > > 6 6 % k ) / ! Q Q F z k k S S k i i i i i 9 > % @ @ @ o . . o o . . o @ @ o X # % % $ u p & @ . . . o o o o # % % % = , , 2 z  X%X&X1X3XrXyXyXrX4XyXiXyXyXuXdXdXfXfXfXfXvXfXfXuXfXvXbXbXvXfXvXbXvXvXvXmXbXvXbX",
"r r r r r r w r t y r r r r r r r 9 9 9 w 9 9 8 8 9 8 9 8 8 7 9 9 8 8 > 1 9 y n D w $ 9 y 9 1 7 1 % % % O .   . # # $ > & $ # # # O # # O # % $ 8 r w y y y r w w 8 8 1 1 > & > 7 8 8 8 7 > 8 9 > 1 9 u g n D D K ) V.A.'.'.S._.].'._.'.].'.'._.K 2 3 U V.S._._ G K U Q Q l 8 w l D D K K Q ~ ) p.a.C.S.C.C.S.V._ a.].{.{. X XOX X{.C.p._.fXUXmX,X<X#XOXOX3XPXPXmXcXaX,X$X#XOX<XfXmX#X{.1XnXSXAXSXSXSXSXSXSXSXSXSXSXSXSXSXSXSXSXSXSXSXSXSXSXSXSXSXSXSXSXSXSXSXSXSXSXSXSXSXSXSXSXSXSXAXNXAXjXq.C ^ Q U U U Q Q / r.) / / ~ ~ / K K N l z u u u e l z l p p r p u u w 0 l l D Q D l l l D l 1 > % 2 r l u w r r r w w w r r t 8 w w 7 > , , h U T P B h h e e 4 c q.=.v P u.e.u.u.l.l.u.u.w.*.=.=.L s 3 w 0 3 2 8 8 w t h c c I u.n.u.d.d.u.w.=.q.q.P f j k x h z t = > 6 > > L ) / / Q F k k z z k k q 8 9 0 r 9 8 6 > # O # @ . . o o o o o @ @ o o # # % $ w l > # . . . . X o o O % > ; $ > 2 w : / *X$X*X1XrXrXyXyX4XyXuXiXyXyXfXfXfXfXfXfXvXfXfXuXfXvXbXvXbXfXbXvXvXbXvXbXvXbXfX",
"9 r 9 9 9 9 w 9 9 9 w 9 w r r r w 9 9 9 w r 9 8 8 8 7 8 8 8 8 9 9 8 8 8 8 8 r p D l 8 7 r 9 8 1 7 > & % # # O # # & 8 y 8 $ # # # # # # # # % o O 8 9 w y u r w w 8 7 > 1 > & & > 7 8 8 8 7 8 8 > > ; ; 2 w t w r l K ~ ) a.'.S.S.'.'.'.]. X'.'.p.l 2 u ) C.S._.~ D K K Q Q t 1 p m D D G D Q ) p.a.C.S.S.A.C.p._ A.].].{.{.{. X{.[.p._.2XcXPXcX,X,X$X#XOXFXUXFXfX7X3X#XOXOX,XvXyX$XOXOX$XuXBXNXSXSXBXSXSXSXSXSXSXSXSXSXSXSXSXSXSXSXSXSXSXSXSXSXSXSXSXSXSXSXSXSXSXSXSXSXSXSXSXSXSXSXSXNXAXeXB U ^ Q U U U ) _ ) V.) ~ ~ Q ~ ~ J G z u l u y u e l m l p u w p p p w w r m m K D l l l D m 9 1 % > w u r r r r r r w w y t r w w w 9 % > , d U ! T L x z h e q s ! w.I j X.w.e.u.l.l.l.u.u.w.<.=.! F s 0 0 0 2 , , 8 q s h v c ! n.d.n.l.u.u.w.=.X.! L s h z h x t $ - 8 > 8 Q ) / W S k k D S k i 8 6 9 r 6 6 6 9 9 r 6 # O @ . o @ o o . o @ @ o o o # % % w m 7 # . . . o o o o o # > > > > , , : d '.&X&X*X1X4XyXyXyXyXuXdXdXdXuXbXgXbXvXfXfXfXfXfXfXfXbXvXvXvXbXbXbXfXfXvXvXbXbX",
"r r 9 8 9 9 8 8 8 8 8 8 9 9 9 9 8 8 9 8 8 9 8 8 8 7 7 8 9 9 8 8 8 8 9 9 8 8 9 8 p l y 7 9 1 8 8 1 > > & & & & # # % > 8 & % # % % # # # % $ # # # > 2 8 y p y w w 8 1 > > > > $ % 1 7 7 8 8 9 8 & % % % % 7 w 7 > > > 7 r D p.A.A.'.'.'.].].'.'._.~ w 2 D a.A.'.V.K G K Q ~ D 8 0 l D D D D Q ) p.C.C.C.C.A.a.p.C._.].{.{.{.{. X{.V._ 3XmXdXyX2X,X#XOX XOXNXJXmX2X2X,XOXOX#XyXyX{.[.OX$X$X<XgXSXNXBXSXSXSXSXSXSXSXSXSXSXSXSXSXSXSXSXSXSXSXSXSXSXSXSXSXSXSXSXSXSXSXSXSXSXSXSXSXSXBXSXSXMXDX.Xn U / Q Q Q Q t./ / r.~ ~ ~ Q Q U U K z u l t w e w u m l p p y p y y 8 w w m K D D z l l K D 8 1 % 1 w y r w y u t t w w u p r r w r r % > , s P T T T V x h d d < c q.! j I w.u.l.l.l.l.u.u.u.w.w.*...C d q 0 8 6 > , 3 e s c v v q.n.l.l.u.u.u.w.q.X.X.x s h x F r $ , 6 > t / ) Q z k S H m i r 9 i k H m p r r r r 9 8 % # o . . . . . o X X O o # # % & % 7 D 8 # o o . . . o o o o # > 1 ; > , 2 : Q &X&X*X1X4XyXiXuXyXiXuXfXgXdXfXgXvXvXvXvXfXfXvXfXfXvXbXbXvXbXbXbXbXbXbXfXvXbX",
"9 9 8 7 8 8 8 8 7 7 8 8 8 8 8 8 7 7 8 8 8 8 9 8 8 7 7 8 9 9 8 8 8 9 9 9 9 y p y 9 9 9 r 9 & > 9 9 2 > $ $ % & & > & > 1 & & % # % & $ % % % $ % % > 1 9 y p y 9 9 1 > > & & > & O % > 7 7 9 9 8 & # # % % 7 7 6 & & & % > r Q p.V.'.'.'.'.{. X'.'.A.G 2 u / A.S.]._ J U U ~ Q l 8 l D m D D K ) t.p.V.C.V.a._ r.A._.'.{.{.{.{.[._._ {.fX7X7X7X2XOXOXOX[.[.3XJXfX<X$X#XOXOX<XyX{.C.{.#X$X$X$X4XnXSXMXSXSXSXSXSXSXSXSXSXSXSXSXSXSXSXSXSXSXSXSXSXSXSXSXSXSXDXSXSXSXSXSXSXSXSXSXSXSXNXSXSXnXNXp.N Q t.Q Q / / _ Q / t.Q Q U U U J U J N u u u w w w p n l l p u p y y 8 8 w l U D K D z u D D 9 1 > 1 w y u w u u u g u 0 u l w r r t t > > , s L I T T I M x d s 4 s T q.P c w.u.u.n.l.l.n.l.u.u.u.w.=...V d 0 , 6 6 , : 0 q q c v b w.n.l.d.d.u.w.w.q.X.P c j c F 0 $ 6 6 > g / Q S k H S p r r m H K K H S k i i i r r i 9 > X . @     . o O O O o # # $ & % > D r % o o .   . . @ o o o % , > , 1 1 : e C.&X*X4XrXyXyXyXiXyXuXdXgXgXfXvXvXbXvXvXvXfXvXvXgXvXbXnXvXbXbXbXbXbXbXbXvXvX",
"9 8 8 7 7 8 7 7 7 7 8 7 8 8 7 7 7 1 7 1 > 7 7 7 7 9 9 8 8 8 8 8 7 7 9 9 r y y p r 7 8 9 r 8 1 8 9 r 8 1 $ $ % > 7 > 1 1 % $ % # $ & & & & % & > & > 1 9 r y u r w 1 > > & % & > % % & 7 7 8 9 9 7 & # % & 6 > & > & & & > 1 n ) C.C._.'.'.'.{.{.'.'.p.l : z t.S.'._.~ K Q Q ~ K t w l l n D K ~ ) _ p.V.a._ ) V.S._.].].[.{.[._.a.p.iXDX4X<X<X#X+X XOX4XfXnXNX4X<X$X#X#X#X<XOXV._.[.OX#XOX#X$XyXSXSXSXSXSXSXSXSXSXSXSXSXSXSXSXSXSXSXDXSXSXSXSXSXSXSXSXSXDXSXSXSXSXSXSXSXSXSXSXSXNXNXSXAXuX/ B ^ t.U U / ~ ~ U / t.~ J G B G U J J G g r u e 0 0 p l p u y y u y y w w r u K G G B z u m m w % ; 1 1 y u w u u u g g w t l w w y r y 8 > , e L T T ! E I B f q s < c =.! j ! w.u.l.l.l.n.n.d.u.u.w.w.q.! B h 0 2 8 , > , 0 3 f v j R u.n.d.d.d.u.w.q.! T L c c N , = 7 7 > l Q S k z k i 9 l K ( ` ` ~ Q H k k i p i i p u w > # . .   . . # @ # o O O # & & > l u ; . # O   . . o o o X # ; > 8 7 2 2 2 n  X*X*XrXyXyXyXyXyXdXfXfXfXfXfXfXvXvXbXvXfXvXvXvXfXvXbXbXbXvXbXvXbXbXvXbXbX",
"8 8 7 1 7 7 1 1 > > 7 7 1 > & > 1 1 > > > > 1 > 8 r 9 8 8 8 9 8 7 7 9 r p p r 9 r r 9 8 9 r 8 8 y p r r 8 1 1 7 7 7 8 8 & % & & % % & & & % & > > 1 1 9 r r y y r 1 & & % % % & > > > > 1 8 9 8 7 & % % & 6 & > & & & & > 1 w n ~ t.V.A._.'.'.{.'.'.'./ w 3 U p.A.'.C.U U Q Q Q D 8 8 u m D K U ~ _ _ t._ ) t.S._.'.[.{.[.]._.V.V.{.ZXJX<X$X$XOXOX{.vXUXJXgX3X3X&X$X#XOXOX[.a.C.[. XOXOXOX#XOX&XdXSXSXSXSXSXSXSXSXSXSXSXSXSXSXSXSXSXDXSXSXSXSXSXSXSXSXSXSXSXSXSXSXSXSXSXSXSXSXSXNXSXNXSX.XB J / t.U Q / ~ U G U _ Q B B N N K G D N g w u e w 0 y l p u y y u y r 8 w r w N G D B z u n m p 1 > 1 2 t u r u u u g g e e p p r y t t r > > e L T E E R T L h s s s h T / c V w.u.u.l.l.n.n.z.u.u.u.w.w.=.T V d 0 8 2 > > , 3 3 z v v X.n.n.u.u.u.w.q...! W P F N , ; 8 8 ; l L x z g 0 0 r n ( ~ ` ' ` ( K H k g p p g l l p r > o o . . . # # # # # O # % > > l p % o # o   . . . . o o O $ > 9 8 , 2 0 : U #X*X1XtXyXyXyXyXdXfXfXfXgXvXvXnXvXnXvXvXvXbXvXfXvXvXvXbXbXvXvXbXbXbXbXbX",
"8 8 7 > > 1 > > > > > > & > & > > > 1 > > 7 7 > 9 r 7 7 7 7 8 8 9 9 9 r p p p r r 9 9 9 9 r y p H K m D p y r 9 8 8 9 9 8 7 > > > > & & & & > 1 > > 1 8 r r y p y 9 > % # O # % & & > > > 7 7 7 1 & & & & > & & & & & & > w y l U _ V.C.S._.'.{.'.'._.A.U 2 u ) A.'.{.) G Q Q ~ Q u 2 p D D D G Q ) _ ) ) ) a.S._.`.'.].]._.V.p._.3XNXmX,X$X#X$X{.#XFXFXyX$X$X#X#X#X#XOX{.A.C.[.OX#XOX#X#X#X@XOX<XBXSXSXSXSXSXSXSXSXSXSXSXSXSXSXSXSXSXSXSXSXSXSXSXSXSXSXDXSXSXSXSXSXSXSXSXSXSXSXSXSXnXhXV.Q Q t.r.U Q ) ~ N B U / J B B B B G N N z u e e e w 1 r l p u r w r y r 2 w e 4 l D G G m g m n l w > 0 w t g e t u u g g g t g l y r t r r 8 > 0 B T ! ! ! ! P c h s f s c / P h =.u.u.l.l.z.n.n.n.l.u.e.w.w.=.! B d 0 2 , > % > , q c L W w.l.u.u.u.w.q.X.! T W U m ; > 7 7 > g D z g 8 2 0 9 9 l Q ' ` ' ) Q H S k g g k k k k g r > $ o . . # # # # # # # % & = p l > O o .   . . . . . o # $ % w w > , , 2 3 / &X*XtXyXyXdXyXdXfXfXfXfXfXfXfXfXvXvXvXvXfXvXvXvXvXbXbXbXnXvXbXvXfXbXbX",
"8 8 7 > > > > > > > & & & > 7 > > & > > & 1 7 7 8 9 7 > 1 1 > 7 9 r 9 8 8 r y y r 9 8 8 9 9 p D D K H n p r 9 9 7 8 9 9 9 9 7 1 > & & & & > 8 7 > > 8 9 9 9 r y y 9 % % O o o O % % & > > 1 7 7 > & > > & & & & & & & > 1 1 9 p m ~ ) p.C.'.'.'. X{.'.'.r.u ; N p._.'.S.~ Q Q Q ~ J 2 8 l D D J Q / ) ) ) p.C.S._.`.'._._.V.p.C.$X3X<X$X$X#X#XOX[.`.{. XOX#X#XOXOXOXOX[.`.A._. X@XOXOX#X#X@XOX{._.rXSXSXSXSXSXSXSXSXSXSXSXSXSXSXSXSXSXSXSXSXSXSXSXSXSXSXSXSXSXSXSXSXSXSXSXSXSXSXSXSXAXtXa./ / r.r.Q / p.Q z N L / U J B G G G B N k g u r u w > w l p p r w w u y 2 0 g e g N G U G g z n l r 1 w e e g t e g g g g g t t g u t w t w w > > k T T E E E I P j s s s f W ! f I u.u.l.l.z.n.n.n.n.l.g.u.u.w.X.W c d 3 , 6 % > , , q S W X.w.u.u.u.w.q.q.! ! W Q k $ 1 > > > t z k q > 6 r i r 9 k ) i.' ` ~ K H S k k k k z x z k t , + . o # # # O O # # % & > l l > % . . . . . . . . o X # # > 8 1 , 2 2 3 u t.1X1XtXdXfXyXfXfXfXdXfXfXfXfXfXvXvXvXvXfXvXnXbXfXbXvXnXvXbXbXfXfXvXbX",
"8 7 7 > > > & > 1 > % & & > > > & & > > > > 7 7 1 7 7 > > > > > > 7 > 7 > 7 8 9 9 9 9 9 9 r y l D H D p r 9 7 7 8 7 8 9 8 9 9 8 7 > > 1 7 7 8 8 7 1 9 r 9 9 9 y p r > $ # O o o # % & & & > 1 1 & & > > & & & & & & & & & > 1 9 y l J ~ p.A.'._. X{.'. X{.Q : 2 Q A._.'.a.Q Q Q Q ~ l , r D D D U Q Q ~ ) a.C.S.S._._._._.t.p.OX<XOXOXOXOXOXOX'.C.a._.OX#X#X#XOXOX@XOX`.C.S.{.OXOXOX@X@XOXOXOX`.V.{.vXDXSXSXSXSXSXSXSXSXSXSXSXSXSXSXSXSXSXSXSXSXSXSXSXSXSXSXSXSXSXSXSXSXSXSXSXSXSXSXAX&Xt.^ / r.t.Q / _ G z N B / / L B B B B N N z g u r r w 2 w p u p y r w u u 2 3 l u g B L Q U g g m g r 2 w t e g g t g k g g g t t u u u w t w 9 9 > d P T R ! T T T B 4 4 d q c ! c v w.d.e.l.n.n.n.n.n.l.u.u.l.w.w.q.P c g 0 , > > ; = , d L ! =.u.u.w.w.q.=.! ! W Q t $ > > > > r l w 6 > 2 9 i i i i Q i.i.' ( K F F x z x x c c x z k t 1 $ o # # o o O # # % > > l l 8 $ . . . . . . . . o # # $ % % > , , > 2 u n Z.eXeXrXdXdXdXfXfXgXdXdXfXfXvXbXbXvXbXvXbXvXvXfXvXbXbXbXbXvXvXvXbXbX",
"> > > & > > > > > > > > > > > & & & > > > > > > & & & & > & > & % & % & % % > 1 7 8 9 9 8 8 9 y p n p 9 1 7 1 7 7 7 8 8 7 7 9 8 8 9 9 9 9 9 9 8 7 1 9 r 9 r r r y y 8 % $ # o o o # % % & > > 1 > > > > & & & & & & & & & > > 1 2 9 y m Q p. X'.'.{.{.'.'.C.m ; e _ _.'.'.) Q Q Q Q K y 2 u m D K K D Q _ p.V.C.C.S.S.A.a._ p.{.{.[. X X X X X_.a.C.OXOXOX#X@XOXOXOX[.A.C.'.OX@XOX@X#X@XOX X'.C._.].1XSXDXSXSXSXSXSXSXSXSXSXSXSXSXSXSXSXSXSXSXSXSXSXAXSXSXSXSXSXSXSXSXSXSXSXSXBXNXSXbX.X_ ~ / r._ / ) ~ N n N z ~ / L B B N N m N k g t w w r w w t r y r r w r r : 3 l g z N G Q U l g z u t 2 w g u l g u k x z k k t e g u u t r w 9 r > 3 V T R E ! I I U h 4 q 4 s L L h ..d.u.l.n.n.n.l.n.n.l.n.l.e.w.w.! L B d , , > = $ - 0 f P ! =.u.w.=.*...! T W W 3 = > > > > 9 r 9 > > 6 8 r i p r H i.i.' ( W F F F c c c B c B x z k u 8 $ O # # o O O # % & > p l w #     . . . . . . O # O % % $ > , 1 2 2 3 z C P.*XrXdXfXdXuXdXfXfXfXfXfXfXvXbXvXvXvXbXvXvXfXbXbXvXvXbXvXbXvXbXbX",
"> & & & & % # % & > 8 7 > > > & > > & & & % % & & & % & & & & % % & % $ # # % > > 7 8 8 1 7 1 9 9 r 9 8 > % > 1 1 7 7 7 7 1 7 > 7 8 8 8 9 r 9 8 7 8 r y 8 9 r 9 9 r 9 & % $ . . o o $ % % & > > > > & & & & & & & & & % % & > > 1 2 w 9 p K C. X'.'. X'.S.[._ u ; N C._.'.A.) Q Q Q ~ J 8 2 l D D N m U _ p.a.V.C.C.A.a.p.p.C._.'.{. X X X X'.C.V.'.OXOX@X@X@X@XOX{.C.V._.{.OXOX@X#X#X@XOX{.C.V.{. X@XdXSXSXSXSXSXSXSXSXSXSXSXSXSXSXSXSXSXSXSXSXSXSXSXSXSXSXSXSXSXSXSXSXSXSXSXMXAXAXgX.X) / t.t./ / / U N z n g Q ~ J B B N N n n z u u r e e w w w r r r w 9 w w > 3 g k z N G Q Q n g l t u w w k g z k l z z z z z g e g g e t 0 r 9 9 > : c T T R E T I T V s q e q c P h I u.l.l.z.n.l.l.n.l.l.n.l.e.w.w...T L c t 2 , ; = > 3 q x I ..=.w.=.=...T U W F , % > & > > 7 w 8 > ; , 6 9 i i r K s.s.' ~ K F F F F F F F B F B N x k g 0 $ O O o @ # # # % > p l w #   . . . . . . . . o # O O % > > 1 2 2 2 e M U S.rXtXyXdXfXfXfXfXfXfXfXfXvXvXvXvXvXvXfXvXvXvXvXvXfXvXmXvXvXvXfX",
"7 & & & & & % & > 7 7 > & > > % % & & & % & & & % % % % % % & > & % % % # % % & > > 8 9 8 8 7 9 9 9 9 7 1 & % > 1 & > > 1 1 1 1 1 1 1 1 8 8 8 8 9 9 r 9 9 8 r r 8 1 7 > % % o . . @ # & % % > 7 > & > & & & % % % % % % # & & & % 7 8 8 w y K C.].'. X X'.'._.U : w ~ _._.[.p.U Q ~ / ~ l 2 u m m l m Q ) t.p.a.V.C.a.p._ a.'.{.{.{. X{. X{.C.a._.OXOXOX@XOX@X@XOX].C.C.OXOXOX#X#X#X#XOX{._.V._.OXOX@X<XvXDXSXSXSXSXSXSXSXSXSXSXSXSXSXSXSXSXSXSXSXSXSXSXSXSXSXSXSXSXSXSXSXSXSXBXSXSXuX Xt.t.r./ Q ~ ~ U B z z s Q ~ B B N N N n z n l g u u u w w w w r r 9 8 w w ; 2 g z x N B U Q B g l e u w 0 u l z k g z N N N x z g t l w w w r t r w , k I T T T T T P P h < q q h P x V w.u.l.g.l.l.l.l.l.l.u.u.w.w.w.q.E T L z 0 , , > = - 3 h L ..*.>.=.o...T P L k > & % & > ; > 7 6 > > > 8 i i i t Q s.s.) Q F F L L L L L L L F B B B B c h 0 % X . . # O # % > k p 8 & . o . . o o . . @ o O # # $ % > > > , , 3 h n C .XeXuXdXiXdXfXfXfXdXdXfXfXfXfXgXbXvXvXbXvXvXvXvXvXvXbXvXbXbXvX",
"> > > & & > % % 7 > > > & & > % % % % $ # % & & & & % % % % & & % % % % & % % $ % & 1 8 8 8 7 8 9 9 8 1 1 > & > 1 % & > 1 1 > & & & % > > > 1 8 9 9 9 8 8 8 9 8 8 1 7 7 % # # o o @ # % # # & 1 > 1 > & & % % % & % # # # % % & & > 1 1 9 t l Q _.'.'. X X_.].p.z > l p._.'.'.) Q ~ ~ / K u 2 u z l D K ~ ) t.a.a.a.p.p.p.C.'.].{.{.{.{.{._.p.A. XOXOXOX@XOX#XOX[.A.C.].OXOXOX#X#X@XOX X_.C.A.{.OXOXOX#X4XSXSXSXDXSXSXDXSXDXDXDXSXDXSXSXSXSXDXSXSXSXSXSXAXSXSXSXSXSXSXSXSXSXSXSXSXSXuX'.t.t.r./ Q Q U L N z z s U / G B N N z n z N l g u u u w 2 2 w w w 2 1 8 8 ; 2 g z N N L Q Q B z z u t r w u l g z g k B N B N N k e u r 8 8 w t i w 2 s C I T T T T T P B q < e d B c c =.e.e.g.h.l.l.l.g.u.e.w.w.w.w.=...! P x g 0 : 1 ; + : f C ..=.q.w.o.! ! P F p , % O % & & > > > > > > 9 i i t g ) i./ Q W F F P P P L L L L L L L L V B x z t + o o o o # # > l r > & o o . o . o . o o o o O # # $ ; > > , , 2 e h h T .XtXuXuXiXdXfXfXfXfXfXdXfXfXfXgXvXvXvXfXfXvXvXbXbXvXvXbXbXvX",
"> 1 > > & & % 1 9 7 7 7 > & & % % & & & % & & % % % % & & % & & % & & % % % % % % > > 8 8 8 1 7 8 9 7 1 1 > & > & > > > 1 1 > & % % % % % % > > 8 8 2 1 1 1 1 1 8 1 7 7 % % # @ o o @ # # # & > > > & & & % % % % % # # # # % & & % & 1 7 r l D / _.'.'. X{.].]./ 3 : K C.`.].C.Q Q ~ ~ ~ D w 0 l z D K Q ~ p.p.p.p._ p.C._.'.].{.{.{.].'.C.a.{.OX XOX@X@XOX@X{.A.C._.OX@X@X@X@X@X@XOX{._.C.'.OX#X@X@X@X$XgXSXSXSXDXSXSXSXSXSXSXSXSXSXSXSXSXDXSXSXSXSXSXSXSXSXSXSXSXSXSXSXSXSXSXSXMXrXA.) ) t./ U L G L N z z g N Q U B z N N N z z z l g g u r 2 2 2 8 9 2 1 2 1 ; 2 g z N B U T ^ L l n u e u t t l g N g g G B B B N N e t u 1 w w r w 8 1 4 B T T T R R R P P z < q q z c j R e.e.e.u.h.g.e.e.e.w.o.o.w.w.o...! P B z t 2 3 , = < f C ..*.q.q.X.! W L g 8 > O   # % & & & > > > 7 9 r w 0 c ! Q Q W W U W W W W P P P U P P P L C L B B x e $ o o # $ $ 7 p 9 & & # . . . . . . . o . o # # $ $ ; ; , 9 w 2 3 g g d U .XtXdXdXiXuXfXfXgXfXfXgXhXhXbXvXvXvXfXfXvXvXfXvXvXvXbXbXvX",
"> 7 7 1 & & 8 p y 7 7 8 7 > > % % % & > > & % % % & & & & % & % % & & # $ % % % & > % 1 9 8 1 8 9 8 1 1 1 > > > % & & % > > > & & & % % % % > & > > 1 1 1 1 > > 1 > 1 9 7 & % # o o o # # # & > 1 > & & % % % % % % % # # % # % & & % 1 8 w u l K p.].'. X X].'.S.U > w ) _._.[.p.Q Q Q ~ ~ l : u z D K K ~ ) _ _ _ _ a._._.'.{.[.{.].'.A.a._. XOXOXOXOXOXOX X`.a.C. XOXOX@X#X@X@XOX{._.C._.OXOXOX#X@X$X$X1XMXSXSXSXSXDXSXDXDXDXDXDXDXSXSXDXDXSXSXSXSXSXDXSXSXSXSXSXSXAXSXSXSXSXSXnXrXC.t.) ) ~ B G G G N x N z k Q U B z N B N z z z l g g u u r 2 2 1 2 1 1 2 1 > 2 g z N N C U ^ U z N g t u t r l g N k d G G B L B G t w u 1 9 r r w 9 8 3 x I T T R R R I T L q 3 q t x j V w.e.e.e.e.e.e.e.w.w.=.! R ....! W L c N z t 0 3 3 s B Y ..*.=.=.q.! c g w > & .   O # & & & > 7 7 w w w 0 h L W ! W W W W W ! ! T T U U T T T T I I P P P L N r o o # $ % w y & # $ & o . . . . . . . . o o O # $ ; $ ; 1 w 2 2 3 e 4 s Q .XtXdXfXuXuXfXfXdXfXfXgXhXbXbXbXbXbXvXvXfXfXvXfXvXvXvXvX",
"& > 7 7 7 r l p 9 7 9 8 > & & % % & & 7 & % % % & & & & & & & % % % % & % # % % % > % > 8 8 8 8 8 7 1 > > > > > > > > > > > > > & > % % $ $ $ % & & > & & > % & > > > 7 8 7 % # @ o @ o o # & 1 1 > & & & % % % # # % # % % % % & > & > 1 8 8 r l ~ C._.'.{.{.'.S.a.N ; n t._.[.`.) Q ~ ~ ~ Q r 0 l K K K Q ~ _ ) ) _ C._._.'.].'.].'.A.p.A.{. XOXOXOXOXOXOX].C.C.{.#XOX@XOX@X@XOXOX'.C._.OX#X@X@X#XOX#X$XOX4XSXSXSXSXSXSXSXSXSXSXSXSXSXDXSXDXSXSXSXSXSXSXSXSXSXSXSXSXSXSXSXSXSXSXbX1Xa.) ~ / ~ N N B B B N N N k U Q G N N N N z z n l l t e u e w 2 2 2 1 1 1 1 1 2 g z N B M U ^ Q B N l w u t w g z z z t B G L U L B g 3 u w > w r 7 w 9 3 h L T I R E ! R T P h 3 e e s h c X.w.e.u.e.w.e.w.w.q...T L L ! ! W L F N D z d 0 q z V R ..o.=.=./ F w 8 7 > % .   . # & & % > 7 9 8 , 0 k U W W ! T T ! ! ! ! ! ! ! T R T T T T T T I I I P G m 2 $ # # > p 9 X . # % # .     . o . o . . o O # $ $ $ = ; , 0 3 3 e e 4 s Q @XtXuXdXuXfXfXfXfXhXgXgXbXbXbXbXfXfXvXvXvXvXvXvXvXbXbX",
"& & > 7 8 p H r 9 p y > & > & & & > > > & > & % & & & % % % % % % % % % # % & & % % & 1 1 1 1 7 7 1 1 > > 1 > 1 > > > > > > > > > > % % $ $ $ % % % % % % % % % % & & > 8 7 & % % # # o o # % 1 > & & > & % % # # # % # % % % % & > % % > ; > 8 8 y K _ `. X].{.'.S.) w , Q C.S.].C.~ Q Q ~ ~ D 0 t D K K K Q ~ ~ ) t.C._._.`.'.].`.C.p.V.]. XOXOXOXOXOXOX{.C.C.`.OX@XOXOXOX@XOXOX[.A.C.[.OX#X#X#X#X@X@XOX'.'.dXSXSXSXSXSXSXSXSXSXSXSXSXSXSXSXSXSXSXSXSXDXSXDXSXSXSXSXSXSXSXSXSXSXbX1Xa./ Q Q Q B N B G G N N N z B L B B N N N N x N N N t e u u e 2 > 2 1 > , 1 > 2 g k N B B U ^ Q L N k w u w w u z z z g N B B C B G k : e r > 8 p w 8 8 8 u N I T R E ..! I P B e q 0 0 s x T w.w.w.w.w.X.! ..! ! W F k l g g t u g g k h d d x L ! ..=./ Q x 3 1 1 > & & O     o # & & > 9 p t g x U ! ! ! ! T T ! ! ! ! ! ! ! R ! ! E E R E E T T T I L N z t = > y y #   . # $ # o . . . . . . . o o o o X # $ $ ; > w 0 2 3 e e e g ^ %XtXtXyXdXfXfXfXgXfXfXgXvXvXvXfXfXvXbXvXbXvXvXfXbXbX",
"& & % 7 9 p r 7 y p 8 % & & > > > 1 > & > 7 > & & & & & & & % % $ % % # O % > % $ % > 1 1 1 7 8 8 7 1 1 1 1 1 1 1 > > > > > > > > > % % % % % % % % % & % % $ $ % % % & 6 > & % % # # # . # % & > & & & % % % # # # % # # # # % % % $ $ % % 1 1 1 ; 2 u D _ {.OX]._.V.K * u _ _._.[.t.~ Q ~ / Q u 0 l D K K K U Q _ a.C.S._.`.`.'.A.p.t._.{.OXOXOXOXOXOX X_.V._. XOXOXOX#X@X@XOX{.S.V.'.OXOX#X#X@X#X$X@X{.A.C.@XMXSXSXSXSXDXDXSXSXSXSXSXSXSXDXSXSXSXSXSXSXSXSXSXDXDXSXSXSXSXSXSXSXgX1Xa.Q U U U B N B G G B B N z N G G G B B N N N N N N g e u u u w > 2 1 ; , > & 1 u l N B C U ^ T L B z w e r w u z N N z z B L L L L F e e u 1 > y t 7 8 8 w h L T ! E E ! R P L d , 0 2 4 h L ! X.X.=...! W W U F z r 8 9 1 1 > > ; > 0 w w t z B L ! Q G g ; > % # % % > #       $ & & > 9 l z F L W ! W T T T T ! ! ! E E E E E ..........! ! ! E E T P L L F p p r &     . o O # o . . . o . o . o o o o o X $ $ ; > 8 8 , 2 e u u e s ^ %XtXrXyXdXhXfXfXfXdXfXvXfXvXfXfXvXbXvXbXvXvXvXvXbX",
"> & & > 7 y 7 1 p y 1 > > 7 8 7 > 1 & > > > 1 > > > & & & & % % % % % % $ % & & & % 1 1 7 8 8 8 7 1 1 7 1 1 1 1 1 > > & > & > > > > & & > & > > > % & & & % # # $ # # # & & % # % # @ o o o % & > > > % % % % # % % % % # # # # # # # $ % & > > > $ > 1 ; 3 J C.{.`._.a.l ; N a._.]._.) Q ~ ) ) K t w z D D D D U p.C.C.C.S._._._.a.t.V.[. XOXOXOXOXOX{._.C.C. XOXOXOX#X@XOX@X X_.V._. XOX#X#X#X@X#X#X XS.A._. XyXSXSXSXSXDXDXSXDXDXDXDXDXSXDXSXSXSXSXSXDXSXDXSXSXSXSXSXSXSXSXSXSXgX*Xr.U U U L B N B B G G G B z z G L G N B x z z N N N k u u u u w 1 > > > 8 > & 2 u g N G L P ^ ^ L B n 3 3 t w e l N z g s B U U U L G g 3 u > % 1 r 7 8 w w e c T R E E ....T P B q , 2 3 d c P ! ! ..! W F x k t w 8 1 & > 7 7 7 7 1 > > > > 8 , 0 , , > # % > > # # & & % # X X % & & > , g F L L P W W T W ! ! ! ! ! ....E E ........&.....&.&.! ! E T ! L F D p & .       o o # # . . . . o . . . o o O O O + $ $ = > 1 2 2 w g u e 4 s ^ *X4XyXiXdXfXdXgXfXfXvXvXvXvXfXbXbXbXvXvXfXvXvXvX",
"> > 6 > 7 9 7 r p 8 7 > > 8 9 8 7 & & > > > 7 7 > & % % % % % # # % % % # % & & & > 1 7 1 7 7 1 7 8 8 8 7 1 1 1 > > > > 1 > > > 1 1 > 1 1 1 1 1 > & > % & $ # $ % # # # % % % # % # @ o o o # & > 7 & % % % # # # # # # # # # # # # # % & % % > > ; & & 1 1 > u ~ C.`.`.~ w 2 ~ _.'.[.a.~ ~ ~ ) ) m w g m m D D K _ a.V.V.A.S.S.C.p.p._.{. X X X XOX X_.V.C.].OX@X@XOX@XOXOXOX].C.A.{.OX#X#X#X#X#X#XOX`.V.C.]. X$XhXDXSXSXSXDXSXSXSXSXSXSXSXDXSXSXSXSXSXSXSXDXSXSXSXSXSXSXSXSXSXSXuX1Xt.L B U L G N N G G G G B z h N G G B B N h z N N G z g l l l u 1 ; > 1 1 1 ; 2 u g x B U T ^ ^ U L N e w t w 0 u N z z d B U L V P L z 3 u 1 > ; 1 8 1 8 w 0 s L T R ....E ! T P h , , 2 t x F ! ! U F k t r r 9 8 8 7 6 > > > > > > > > 7 > > 6 > % > & # % % > > # % % , w 8 > & & % % $ 3 N W P T T W T T T ! ! ! E ........*.=.....&.....&.&.^ ! ! T T L N l > X       . . . # o . .   . . . . . . o o O # # $ % % ; , 2 2 3 e t 4 4 4 s / %X1XtXuXfXiXfXfXfXvXvXbXgXgXbXbXvXvXvXvXfXvXvX",
"> > > > 7 > & r 9 > 7 > > r 9 8 7 % > > 1 7 7 > > & & % % % % % % % # o # % % % & 1 8 9 1 7 8 1 8 9 8 7 8 8 7 > > > > > 7 1 > 7 8 7 1 1 8 7 1 1 & & 1 % & # # % % % # # # # % # # # # @ . @ # % & 6 & % % % # # # # # # # # # # # # # # % % & > % & & & > 1 8 1 w D ) C._.U : g _ _.`.{._ Q Q ~ ) Q u r l m m D K ~ _ p.V.C.C.V.p.p.C._.{.{. X X X X{.C.V._. XOXOXOXOXOXOXOX[.S.S.{.@X$X#X#X@X#X#XOX[.S.V.`.OX XOX3XNXSXSXSXDXSXSXDXDXSXSXSXDXDXDXSXDXSXSXSXDXDXSXDXSXDXSXSXSXSXBXuX1X) G B L L B N N B B G L B z x B G L B N N x N x N B N k k z l m w $ > 1 > ; ; 1 e g z M Q ! ^ =.! L N u w r r 8 0 N z z d N U P L P L N 3 t w , > = 1 , , 8 8 e z P E ....E ! ! T c 3 > > , t k S S i r r r 9 9 9 6 8 9 i i i k k t q 0 2 > > 7 6 6 6 6 & % % & & & 6 8 q k l t 8 > % & % # # 0 L ! T W T T T ! ! ! ! ! ..=.=.=.=.=.=.....&...&.&.! ^ ! E T L l 7   + > .   .   . . . o .   . . . . o o o o o # # # % % ; > , 2 3 3 3 e e 3 w z q.oXrXdXfXfXdXfXfXfXhXgXhXhXbXbXhXbXbXvXvXfXvX",
"& & & & > & % 8 8 7 7 > 7 r 9 9 1 > 7 7 1 > > > > & & & % % % % % & o o # % % % 1 7 9 8 7 8 8 8 8 8 8 8 8 8 8 1 > > > > 1 > > 1 7 1 1 7 8 8 7 1 > > > % % % # # # % % % @ @ # # # # # @ # # # # # % % # % % # # # # # # # # # # # @ # @ # % & > & > & & & & 1 8 8 1 w K a.t.l 2 G C._.[._.~ K ~ ~ ) K r r l n N J ~ ) p.V.V.V.p._ p._.].{.{. X XOX{._.C.A.{.OX@X@XOXOXOXOX{._.A.'.OX#X#X#X#X#X#XOX{.A.C.S. XOXOXOX#XyXBXDXSXSXSXSXSXSXSXSXSXSXSXSXSXSXSXSXSXSXSXSXSXSXSXSXSXSXSXNXuXeX) B N G G N B N N B B G G N N B L L B N B N N N N G B z k l l D 0 + ; 1 ; ; ; 2 w g x B U T ^ ^ ^ U B l t w r w 2 z z z z h L U P P P G w 0 r 7 > ; , 1 , 1 8 w t B T E ..E ! E ! L t , , > 8 t t 8 7 9 8 9 9 8 , 0 k F W ( ) ) / Q Q W K k 9 8 , 6 6 & 5 & % % & 7 i k c N c x z t , = > & % % t P T T T ! ! ! ! E ....=.*.*.=.=.=.=.=...&.&.=.&.! ! E ! Q x 2 + = k N >   . .     . . .   . o . . . o o o o # X o O $ % > > 2 3 2 3 s g e t d U r..X1XdXfXfXfXfXdXfXfXgXhXhXbXhXbXbXvXvXfXvX",
"& & > > & & > 7 1 7 7 7 9 8 8 7 > 7 7 7 1 > > 7 > % % % # # % # # % % # % % % % > 7 8 7 1 1 7 8 8 9 8 8 9 8 8 1 1 > > > > > > > 1 1 1 1 7 8 8 8 8 8 > & % & % # # % % % # # # # # # # # # # # # # % % # % # # # # # # # # # @ # # # # # # % & > > % > > > > > 1 8 w w l Q _ ~ u r ~ S.].OXa.Q ~ ~ ) ) m w r z D J Q ~ _ p.p.p._ t.C._.].{.{.{. X{._.C.C.].OXOXOXOXOXOXOX X_.C._.OXOX@X#XOX#X#XOX{._.C.A.{.OXOX#X$X@X&XgXSXBXSXSXSXDXDXSXSXSXDXDXDXSXDXSXSXSXSXSXSXDXSXSXSXSXSXAXNXuXtXt.B B B L N G B N G N G G B N B B G G B N N z N m G D z l l l D 0 $ ; > ; ; > , w g N M U ! ^ ^ ^ ! G n u 8 r r 0 g N z x h B T I U P U g 8 w > > > > , , > 8 w e h P E ..E ! ! ! L z , , > > 8 9 9 9 9 9 9 8 0 g L ! q.q.q.) ) / / / / Q W K D t > & & & % & % > 9 g F P T ! ! ! T P d = # & % + t W ! T ! ! ! ! ........*.*.*.&.*.*.*.&.&.=.*.*...! E I g ; X - c W L d X         . . . . . . X . . o . o o o o X # + $ % ; , 2 : 4 n s 4 4 e z B 2..XeXyXdXfXfXdXfXfXfXfXhXfXfXbXvXvXfXvXvX",
"& & > > & 6 8 7 > 7 8 7 7 8 7 & 7 9 7 8 7 1 > % % $ % $ O O # % % % % % & & & > 1 7 8 7 1 7 7 8 8 w w w 9 8 8 1 1 > > > > 1 1 1 8 1 > 1 7 1 8 9 9 w 9 1 & % > & % % % % % # # # # # # # # @ # # % & & % # # # # # # # # # # @ @ @ # @ . . # & > > % > > 1 1 > > > 8 r l D Q ) U w n p._._.]._ Q ~ ~ ) K y 8 u D D K ~ / _ _ _ _ p._.S.'.{.{.{.{.'.V.a._. XOX@XOXOXOXOXOX{.C._.[.OX@X@X#X#X#X#XOX'.C.A.[.OXOX#XOX@X@XOX4XBXSXSXSXSXSXSXSXSXSXSXSXDXSXDXSXSXSXSXSXSXSXSXSXSXSXSXSXNXgXtXt.B B B L N B B N B N N G B B N B L U G G B N N n B N m z u u D y ; $ $ ; ; > 2 e z N B U U E ^ =./ L N g 8 w r w t G z N h M ^ T I P L k 2 w , > > > > > , 8 0 4 h P T E ! E ! W L z 8 > > > > 9 9 9 9 0 0 g K / q.q.) q.q.q.q.0./ ) ! W Q Q Q G g > % & 5 & & > 9 k P T o.-.<.<.e.e.w.P q = % O + t U ! ! ! ............*.=.*.&.=.*.=.=.&.=.*...E E P h : + 3 L ! T P L 0       .   . . . . o o . o o o o o o O X # O # % ; > > ; 4 U L d e w t s C r.oXqXtXdXfXfXgXgXfXfXfXfXfXfXfXfXfXvXbX",
"% % % 7 7 7 7 7 > > 7 7 8 8 7 > 9 8 1 7 1 > > % % % # # # # $ % % & & & & % & 7 1 1 8 8 8 9 9 8 8 9 8 w 8 w w 1 1 8 > > ; > 1 1 8 8 8 9 8 1 8 9 9 9 9 7 & % % & & & % % % # # # # # # # # # # # # # % # # # # # # @ @ # . @ .   . . . . . # & > & % & > 1 > > 1 > 7 w y z m / ) l u ~ C._.{._.Q Q ~ ~ ~ D w r n J K K ~ ~ / ~ _ C.S._.'.].{.{.'.C.p.C.{.OXOX@X@XOXOXOX[.S.A.[.OX#X#XOX#X#X#XOX{.A.C.`.OX#X#X#X#X#X#XOXOXyXDXSXSXSXSXAXDXDXSXSXSXSXSXDXSXSXSXSXSXSXSXSXSXSXSXSXSXNXhXtXt.B G B U B N B x N N N L G B x N G U G G B z N N m N N m u t K l 2 + + $ $ > , w k x B T U U ^ q.q.U z g w 8 r w w N N z h s Q E U P L N 3 w 8 > > > = > , 1 3 0 d x P T ! T U P N g 8 > & > 7 9 8 6 , t S Q q.q.q.q.0.q.q.q.q.0./ ) ! ! ! ! W W G k 8 > & % > % 6 c I  .-.>.y.h.f.h.4.y.=.c q , ; O , L ! X.X.o...&...=.*.=.*.=.=.=.=.*.*.*.....T P s : * e L ! ! R I I F +           . . . . o o o o o o o o O O o O $ % % > > : : U r.Q N t t e h E Z.oX*XyXdXfXfXhXgXbXhXfXfXfXfXfXfXfXbX",
"% > > 7 7 7 7 7 > > 1 7 7 7 1 8 8 > 7 7 7 1 > % % & & % & & & & & & & & > & > 1 & > 8 8 8 8 9 8 8 w 8 w 8 w w 2 1 1 1 ; > ; > 8 w w 8 8 7 7 7 8 8 9 8 8 7 > % % & & % % # # # # # # # # # # # # # % % # # # # # . . . # @ # . . . @ . . o # % > 1 & > > & & & > > 1 8 r y l K _ Q r l _ `.'.[.a.Q ~ ~ ~ ~ l w u D J J K K Q ) p.C.S._._._.]._.C.p.V._.{. XOXOX@X@X#X{._.C.`.OX#X#XOXOX#X#X@X{.C.V._. XOX#X#X#X#X#X#XOX'. XgXDXSXSXDXSXSXDXSXSXSXSXSXSXSXSXSXSXSXDXSXSXDXSXSXSXSXAXgXuXt.B B N Q U B G N x B G L L B z z L L B G L N N z k N N N u e D z w + + + $ > 2 e k N B T Q T / q.q.Q N l 8 8 w 0 2 g G x z 4 U ! T T U G 3 0 8 > > = % = > , w 0 e d B P W P F N k w , , > 7 9 8 , , d W / ) ) ) ) ) ) q.q.q.q.) / ) ! ! ! ! W W W F k 8 % & & % > c E *.>.1.h.h.c.c.h.h.e.w.! c , = $ : x ! X.o.......=.*.X.=.=.=.=.=.=...E ! ! V h : * g W ! R ....! R ! t   .     . o . . . . . . o o o o . O o o O $ % % % > , : z / r.U d 3 h s j ^ Z..X*XuXfXdXdXfXgXbXgXfXvXfXfXvXvXvX",
"& 6 6 7 > 7 7 7 > > > > 1 7 7 8 7 > 7 1 > > & % % & & > > > > & > & & & > > & > % & 1 1 7 8 9 9 8 0 0 w 8 r t 0 2 1 1 > > > , w r w 9 8 7 7 1 7 7 9 9 8 8 9 7 & # # % # # # # # # # # # # # # # # % % # # # # # @ . . . o # . . . o . . o @ % & > > > % & > & & > 1 1 9 r l l Q p.m : D C.].[.`.~ Q Q ~ ) K r w l N D D D K _ V.V.S._._._._.S.a.p.S.{. X XOXOXOXOXOX`.C._.{.OX#X#X@X#X$X@XOX_.V._.{.OX#X@X#X#X#X#XOX{.'.A.<XSXSXSXSXDXSXSXDXDXDXSXSXSXSXSXSXSXSXDXSXSXDXSXSXSXSXSXgXgXC.B N N U U N G B N B L G U L z z L U B N U G N z l z m N k e m m u ; + + $ > 1 e k B C T ! T ^ q.q.Q N l 8 8 w 0 3 d U B z s V ! T T U U s 0 8 > > % $ $ = > w 0 0 e k N G F z g t 0 w w 7 6 6 7 0 z ! ) ! / / ) ) ) ) ) q.) ) ) ) ) ! W ! ! W W W W F t 7 & % % ; j  .-.1.h.7.l.n.c.c.j.h.1.1.<.T h , * * h ! q.X.....*.*.=.=.=.*.*.*.=...&.T z 4 * * z T ! X.o.o.o.X.X.! L =   .     .     . . . o o o o o . . o o O # $ $ $ ; , 2 4 z q.q.z l g s h M 2.Z..XrXfXdXdXfXbXbXbXgXfXvXbXvXbXnX",
"8 6 6 7 7 7 7 7 > > > 1 1 1 7 7 7 7 1 > > & & > > > > > > > & & & & % & > 1 > > & & 1 1 8 9 9 8 8 w 9 w 8 w y w 0 8 1 7 1 , 8 r r r r w 9 8 1 1 1 9 9 9 r 9 8 > % % # # # # # % # # # # # # # # # # # # # # # # # @ . . . # @ . . . . . . @ & & & > 1 1 1 > & & > 8 8 8 r r u u / _ w 3 ~ _.[.{.V.~ Q ~ ) ) D 2 w n D m N J ) p.V.A.A.S._.S.V.p.V.]. X X X XOXOXOX].C.C.{.#X@XOX#X#X@X#XOX`.V.A.{.OXOX#X#X#X#X#XOX[._._._. XuXSXSXDXAXSXSXSXDXSXSXSXSXSXSXSXSXSXSXSXSXSXSXSXSXSXSXgXgX XL L N L U B L G z B L B Q U x z B Q B z L B N m z z z N N u l l u 1 ; + $ 1 1 e k B L U ! ! ^ q.r.Q N l w 1 0 0 e t N B N g M T T Y P U x 0 7 > > $ $ $ % > 0 r w w t u l g u w w 8 8 8 7 7 6 2 k Q ) / / / / ) ) ) 0.) ) ) ) ! ! ! W ! W W W W W W F k r & % & > s E <.h.h.h.c.J.n.c.c.c.k.7.1.y.=.W h : - s P =.=.*.*.=...X.*.=.X.=.! ! B e : * < c R E X.>.>.*.*.O.O.X.! d     .   .   . . . . o o . o o . o o o o O $ $ $ ; ; , 3 e N r.r.U h s z s M r.Z..XrXdXdXfXhXbXbXgXfXfXbXbXvXbX",
"9 7 7 7 7 7 7 1 7 1 > 7 > 7 8 7 1 1 > % & & & & & % & & & & & & > > > & > > 1 > & & > 1 8 r w 8 8 w 8 w 8 w u e w 0 2 0 0 0 u u t t w r w 8 8 1 1 7 7 r y r 7 > & % % % # # % % % # # # # # # # # # % # # # # # # @ o . . # # . . . . . . o o % & & > 1 7 7 & & & & 1 7 8 9 y r l ) K 2 l p._.{.[.p.Q ~ / _ ~ l 3 g n l D K ~ _ V.C.C.S.S.a.p.p._.{.{. X X XOXOX{.C.V.'.@X$X@X#X#X#X@XOX{.C.C.].OXOXOX#X#X#X#X@X{._.C._.{.OX<XnXDXSXDXSXSXSXDXSXSXSXSXSXSXSXDXSXSXSXSXSXSXSXSXSXAXhXdX*XQ B z B U L L L x N U B U Q B z N U L N L N z z k g z N l g t u u 0 > + + > 2 e k N L P T ! ! q.r.~ G k w 8 8 w u u z U N h x P T T P U V e , > > $ + $ $ % 0 t w w t r w y t w 8 w w 8 6 6 8 q z Q / ) / ) ) ) ) ) ) ) ) ) ) ! ! ! W W ! W W W W W F k t 7 % & & e E 1.h.h.j.c.b.b.c.c.c.c.h.h.1.1.w.=.I f < < h T q.q.=.*.o.o.=...! G r : * : a V E ..*.w.w.e.w.>.>.>.o.X.F + . .   . X . .   . . . . . o o o o o o O # # $ + ; : 3 e g U Z.2.U h s s s C u.P.%XtXdXgXgXhXgXfXfXfXbXbXgXgX",
"8 7 7 7 1 1 7 7 7 1 > 7 7 9 8 > & & & % % & & & & & & & & & & > 7 1 > > & & > > & % & > 8 r w 8 9 8 w w 2 r e u u e r w w w t u u e w t w w 8 7 > > & 7 w 9 7 > & % # # # # # # # % % # # # # # # # # # # # # # @ . @ o @ # # # . @ @ . . o o # & > > > 1 7 7 & & % & > 7 8 w w 2 z ~ n 2 K _.'.{.'._ ~ / ) ) K r 2 u l D U Q ) p.V.C.C.V.t.p.C.].{.{. X{. X X{.S.V.S. X#X#X@X#X#X@XOX{.A.C._.{.OXOXOX#X#X#XOX X'.S.A.'. XOXOX4XDXSXSXDXSXDXSXDXDXSXDXSXDXSXDXDXDXSXSXDXSXSXSXSXSXnXgX1X/ G n n U U L U B x L L L U L N N L Q N F G x z k g l l g u t t u w 2 $ X ; 2 e g c L L U T ! / r./ G k w 8 8 w r w k U N z z L T T T T P t , ; ; $ + + # % , u t w w w w r w 8 9 8 , 0 t p t d S W ! ) / 0.0.) ) / ) ) / ! ! ! ! ! W W W W W P P P F z k t > % % 3 R >.1.h.l.c.b.b.c.c.c.c.z.l.h.e.>.<.1.=.R j < a j P ! ! ! T W c d 0 = + : x I  .o.>.e.e.w.w.w.w.e.>.>.X.W 0 . .   . X . . . . . o o . o o o o o o o O # + + = : 2 3 e z ^ r.r./ z d h s P Z..X%XuXgXhXgXfXbXvXhXgXfXgXhX",
"> 1 7 7 7 1 7 7 7 > 7 8 8 1 > & & & % % % % & > 7 7 7 7 7 7 7 > > > & > 1 > > > & % % > 8 w w 9 9 w w > 0 u g g t e e w e e e u u e w e w 0 8 7 > > > 7 7 7 1 > & % % % % # # # # % % # # # # # # # # # # # # # @ @ # # @ @ # @ . # # o . o o # % & > > > 1 7 7 > $ % > 7 9 r y u 2 z K e 3 ) ].'.{.C.) ~ ~ ) ) m 2 w n D K Q ~ _ a.V.V.t._ p._.].].{. X X X{.S.V.C.{.OX#X@X@X$X@XOXOX_.C._.{.OXOX@X#X#X#XOXOX[.S.C._.{.OXOXOX$XfXDXSXSXSXSXSXDXDXSXDXSXSXSXSXSXSXSXSXDXSXSXSXSXSXnXgXrXt.U B z U U L U L x B U L U L N z G ~ B N G N z k g u g u g u e w w 8 ; + + 2 e g x L L U T ! ^ 2.q.L z t 0 2 w r w l L N k h M P T E E U l , ; % % + + # $ , p l w 8 w 0 8 2 8 8 , 0 z Q W F V L ! ! ! ) q.0.0.) ! / / ! ! ! W W W W W W W P P P P L F x g , # % : P >.:.h.h.c.b.c.c.c.c.c.c.c.c.c.e.1.e.1.<.=.R j < < q d g t 3 > - - : s P =.*.>.e.e.e.g.e.e.e.e.w.w.>.O.! z o         . . . . . . . . o o o o o o o O O o + + ; 2 3 4 e M ^ 2.Z.V.B h x h U S..X*XuXgXgXgXbXbXhXhXbXgXhX",
"& 1 7 7 1 > 7 8 7 > 7 8 8 > > & & & & & & > > 1 8 7 7 1 > 7 7 1 > > > > 7 > > > > % % > 8 w w w 8 r 8 2 u l g g g t g u g u u g l t e t e w 8 8 > > 7 7 > & > & % % % % & % @ o @ # # # # # # # # # # # # % % # # @ # @ # @ # # . # # @ @ o . O % % % > 1 1 7 7 8 > % & 7 8 w w y 0 2 m D 3 l p.].[.{.p.~ ~ ~ ) Q u 2 g D J K Q / p.p.p._ p.C._._.].{.{.{. X'.V.V.].OXOX@XOX@X$X@XOX_.V.S.[.OXOX@XOX#X#X#X@X{._.V._.{.OXOXOXOXOX<XnXSXSXDXSXDXSXSXSXSXSXDXSXDXDXSXDXSXSXSXDXSXDXSXMXhXrXp.Q B z L Q U L U G B U L L U B z B Q L x N N z k t t g u u u e 0 w 8 > $ + > w g g G C U T E ! ^ / L N t e , 2 r w t N N z s M I T T T U z , ; % % + + O # > p m r 8 8 , 8 , 2 , 0 F Q ! ! ! W W ! / ) ) q.) ! W W W W W W W W W W W W W P P P P P L L F z w # # = V >.,.1.h.j.j.j.c.b.H.H.H.H.H.c.c.j.h.4.1.1.e.<.R f : , 6 6 , , , q x T ..=.<.e.f.f.g.l.h.g.h.h.e.e.>.O.X.L ;         . . . . . o o . o o o o o o o O O O $ + ; : : 4 4 a M T 2.oXZ.n z x h Q ].$XrXuXgXgXgXhXbXbXnXhXgX",
"1 8 7 1 7 7 7 7 7 > > 7 8 7 > & > > > > > > > > > > 1 7 1 1 7 8 1 > % 1 8 > > > > & % % 1 9 w w 0 2 2 u k g g z z g z z z g g g g g e u g w 8 8 7 1 > > > & & & % # # & & & % o # # # # # # # # @ # # # # # % % # # @ . # # # # # # # @ . o o O # # $ % > 1 7 7 8 8 7 7 7 > 8 w r w 8 w m m w U S._.OX_.) ~ / / / D 3 3 l D J U ~ ) _ _ _ a.S._.'.].{. X{.].C.p._. XOXOXOX@X@X#X@X{.V.V.`.OXOX@X@XOX#X#X#XOX_.C._.[.OXOXOXOX#X#X&XrXSXSXSXSXSXSXSXSXDXSXSXSXSXSXDXSXSXSXDXDXSXSXSXNXnXtXA.Q L n B U U U U U N U U L U U x N Q Q N z N m g u t t t u u e 2 2 0 1 > ; > 3 u g z B L U T E ^ / U N k e 3 3 w w u z N z h M I T T U U N 2 ; % # # + # # % p m w , , , 8 2 8 d F W ! ! ! ) / ! ! / ) ! W L S S c c c V S L L W W W W W P P P L L P L L N t $ + = j -.:.1.h.h.k.j.c.b.b.b.c.H.H.H.b.b.b.b.c.h.1.1.<.=.L 4 - < q d c P ! =.>.e.e.f.f.f.l.l.l.l.l.h.g.e.e.w.X.! q           . .     . . . . o o . o o o o O O # + + ; : 3 4 4 s M ^ Z.%Xr.h k B h ! .X&XtXgXgXvXbXbXbXbXhXhX",
"9 8 8 > 1 7 > 7 7 > > 7 7 1 > & > > & > & & & > > > 1 8 7 8 9 w 8 1 > 8 8 > > > & % % % > 1 9 w 0 , 0 l k k z x N N N x z z x z h g t u l t 2 1 1 1 > > & & & & % # % & > > & @ # # @ # # # # @ @ # # # # % % % % # # # # # # # # # # # . o o o o # $ $ ; > & 7 8 8 8 7 7 7 8 w w w r 0 t N l u ) [.[. XC.~ ~ ~ ~ ~ l 2 y D J Q U Q ~ / _ C.S._.'.].'.{.'.C.a.C. X X XOX@XOXOXOX{.S.V._.{.OX@X#X#XOXOXOX X`.C._.].{.OXOXOX#X#X#X$X$XgXDXDXSXDXSXSXDXDXDXSXSXSXSXSXSXDXSXDXDXSXSXSXnXMXgX@XQ L B N U U U U U N U U G U Q B N B Q G x z m t u e e e u e e 3 2 w 2 > ; ; 2 e g z B L Q U T T ^ U B z t 3 3 3 3 t g z g h M P I T T P L e ; & # $ # # # % r w > > > , 8 0 e G W W ! / ) q.q./ ! ! W L S S S S S S S S c S L W W W W P P P L L L P P P F k > # + s o.-.:.7.h.h.j.c.b.b.b.c.b.H.H.b.b.b.b.c.c.z.h.y.e.w...V j V I ..o.>.e.e.f.f.g.l.l.n.l.z.l.h.h.g.e.w.e.O.X.S .       .   . . . o o . o o . . o o o O o X + + + = : : 3 4 s h C ^ P.%Xt.x x j h q.oX%XtXhXgXhXhXbXbXhXhX",
"r 9 8 > > 7 > 7 8 7 > 7 7 7 1 > > & & & & & & > > 1 7 7 8 9 w w w 8 1 7 8 1 1 1 > > > > % > 7 w 2 2 l z k z N N N B N x x B G B B z t e l u 2 8 8 1 > > > > & % % # % > > > & # o o o # # @ # @ . @ # # % % # # # # # # # # . # % # # # . . o o o $ $ $ % % & 7 8 8 8 7 8 8 8 9 w w r w 2 l D 3 m A.{. X{._ Q ~ ~ ~ Q u 3 l D K K J K / p.C.A._.'.].'.'.S.V.V._. X XOXOXOXOX@X XS.V.C.{.OXOXOX@X@XOXOXOX[.C.A.`.{.OXOXOXOX#X#X#X@X'.@XMXDXSXSXSXSXSXSXSXSXSXDXSXSXSXSXSXDXDXSXSXBXMXNXhX*XQ B B h B U Q U Q N B U U L Q U N N U U B z z g u t e e e e e 0 0 w 0 2 ; ; ; w u g N B U P T U T ! L N k e 2 2 3 w e g h z M C P T U P U k ; % % % O X # o % 1 > = ; , 0 d z F ! ! ! / / / / / ! L S S S L L F F F F S S L W W W W W W P P P L P P P P L z 8 + X 4 | :.:.1.h.h.k.c.b.b.b.b.b.H.b.b.b.H.b.b.b.c.c.c.h.e.h.u.=.w.w.f.g.h.g.g.l.l.l.n.n.n.z.n.l.l.l.h.g.w.w.O.X.W >     .     .     . . . o o . o o o o O O X + # $ = ; : 3 4 4 4 M ^ t..X*Xa.V j j x q..X%XyXgXgXhXhXbXbXhX",
"8 9 8 > > 7 7 7 7 1 > > > 7 7 & & > & % & & & > 1 1 7 8 9 r 9 w r 9 9 1 1 1 1 1 1 7 8 8 1 1 7 7 2 w l N l z N N B B B B B B B B B N g e l g 8 8 8 1 > > > > > & % # # % > > & % @ o o # @ . @ @ . . # # % % # # # # # # @ # @ # % # # # @ o o o o O O O $ % & 1 7 8 7 7 7 8 8 8 w w r t 2 t D z 3 Q ].{.{._./ ~ ~ ) ) J w w n J D D G / a.C.C.S._.'._.S.C.V.S.]. X XOXOXOXOXOX_.C.V.'.OXOX@XOX#X@XOXOX{._._.`.[. XOXOXOX@X#X$X@X XS.'.rXSXSXSXSXSXSXSXSXSXSXSXSXDXSXDXSXSXSXSXSXSXBXMXhX1X^ L L h N Q U U ^ B z Q ! U Q Q N N G G G x z g t t e e e e e w w w 8 1 > ; ; 2 u g z N B L U U T ^ U B N d 4 2 w e e g z z M C C P P P P N ; % # # # o # % > 8 > % ; 8 r d B c W q./ / ) / ! W F x x S F F F F S S S L L W W W W W W W W P P P P P I P P N r # + < Y :.:.1.7.h.j.c.b.b.c.b.b.H.H.H.H.H.b.b.b.n.n.n.c.z.z.h.g.g.e.f.l.n.l.l.z.z.l.z.n.n.z.n.z.l.l.l.g.e.u.w...! t   .     . . .   . . . o o . o o . o o o X # + + = = : 3 4 4 4 e B U q.%X%Xd.c s x x r..X&XdXhXfXhXbXbXhX",
"7 9 9 6 > 7 7 7 7 7 1 1 > > 7 & & & & & & % > 1 1 8 8 w r r r r r w w 2 1 1 1 8 9 9 9 9 9 1 1 1 0 w u z z k N B B L U L C B B B V U N g g t 8 8 7 1 > > ; > > > % # # # % & > & # o o # . . . o . . # & & % # # # # # # # # # # % % # % # o O o o O O O # # & > > > > 7 7 8 8 7 w w t u 2 0 l K u u t.{. XOXp.Q ) _ ) ) l 2 g N m N D ~ p.V.V.V.S._.S.V.p.V.'.{. X X XOXOXOX].V.V._. X@XOXOX@X@X#XOX{.`.A._.{.{.OXOXOXOX#X#X$XOXA._. X$XgXDXSXDXSXSXSXSXSXSXSXSXSXSXSXSXDXDXSXSXSXSXBXbXuXr.U Q B N Q Q U Q L z Q ^ U U Q B x N N G N k g e e e e e e u r w 0 8 2 2 > + ; e u g N B C C U T E U B B d 3 0 e t e g x z M M V C C P P B 2 $ % % # o # > 7 > $ + , 0 g d x L c ! ) ! ! ! L F F F F F F S z z k d k S S S V L P P W ! ! W P P P P I I P B g = # * Z :.:.1.7.h.k.j.b.b.b.b.b.b.b.b.b.K.H.b.b.b.b.n.n.n.n.n.n.z.g.g.l.n.n.z.n.n.l.l.n.z.z.z.z.z.z.l.h.h.e.e.o.=.z . .       .     . . . o . . o o o o O O X O # $ ; ; > 2 2 3 4 2 4 n C u.oXXXr.x h B M ^ P.*XdXgXgXgXbXbX",
"7 6 7 7 7 7 7 6 7 7 7 7 6 & & & & & % % % % > 8 8 w r r w r t u u r w , 8 8 w w r r w r w , 1 0 0 u l m z k x F B B L B C V V P T T B h g e 0 9 7 > ; ; > 1 1 > & # # # # # % % % # o o . .   . . # > 7 6 % # # # # # # # # $ % % % # % # % $ O . # # O O # % & > > 7 7 7 8 7 1 w w r u r 2 w m m 2 D _. XOX{.) ~ ~ / _ U r w u l m K ~ / p.C.C.S.S.a.p.V.S.].{.{. X XOXOX].C.p.S. XOXOXOX@X#X#X@XOX`._._.]. XOXOXOX@X#X#XOXOX_.C.'.#X$X3XNXDXSXDXDXAXAXDXDXDXDXSXSXSXSXSXSXSXSXSXSXSXnXvXS.G Q L B U Q Q U U z L ! U U Q U N x N G N k g e e t e e e e t w w 2 8 2 > $ = w r w n N N M U U U P C B s 4 w 0 e t s x j N N V C P I I P t + % # # % > > & X + > k c x x h B F L ! ! ! W x F F F L F c k S K F S S L S V V P v P T ! ! I I P P P T R T V h = $ = C :.,.4.h.h.h.h.c.b.b.b.b.b.b.b.b.b.K.b.b.b.b.b.n.n.n.n.n.n.z.g.g.l.z.n.n.n.z.z.z.z.z.z.z.h.z.h.h.h.y.e.*.o.c X                     . o o o o o . o o X O O $ $ $ ; > > : 2 4 4 s M U Z.P.XXa.B h M C &.].*XdXdXdXfXfX",
"7 6 9 9 8 7 7 > 6 7 6 6 > & & & % % % & & % 1 8 w w r t t u u g y w w 1 2 t l u r w w w w 2 2 1 2 y l m z k x F G L L L C C C P T T V z z g w w 8 > > r y r w 1 > & % % % $ o   o $ % & % # O . # 8 9 7 7 & # # # # # # # # # % % % % & % & % # o # # O . O # % & > 7 7 7 1 1 8 8 8 r y u 2 2 w z e w ~  X X@X_.~ ~ ) ) _ D 2 w l D K U ~ _ p.V.V.p._ a.A._.].].{.{. X X].C.V.C.{.OXOX@XOX#X#X#XOX].S._.'.{. XOXOX#X#X#X#X{._.C._.OX#X#X$XyXDXSXSXDXSXSXDXDXDXSXSXSXSXSXSXSXSXSXSXSXSXnXbX@XU Q U B U U Q Q U N B U U U U U B z N N N x z g e g w w t e r w w 0 0 8 2 ; = > r w g N N z C L L L V B s 4 4 3 e g t h N M M V C P P I P k ; # % 7 8 > # o . $ k W W c z h x L V P W F c c F G W F g q x W / ) ) ) ! W W P P v P ! ! ! T I I I I R E R V k > # = v -.:.1.1.4.7.h.k.c.b.b.b.b.b.b.b.K.K.K.K.K.K.b.n.n.n.n.n.n.n.l.g.g.l.n.n.n.z.z.z.z.z.z.z.z.z.z.h.h.y.e.>.o.L X                     . . . o o o . . o O O X o + + $ > : ; 2 3 3 4 j C ^ Z.oXoXA.L x P P =.P.eXuXdXfXfX",
"7 8 9 7 & & > 7 8 7 6 > & & & & & % & > > > 8 w w r t t u g g l u 3 w 2 2 l z u u t r t w r 0 1 1 w u z z z N F L L L P P P P P C V M j N x e 3 3 , 2 u g t t 2 > > > > 7 8 8 7 > > 7 1 & % # O 7 9 r 9 7 & # # @ @ @ # # # # % % % % > > & & % # # # O @ # # # & & > 7 > > > 1 1 1 r t y r w 0 u z e l a. X XOXa./ ) ) _ ~ u 2 g D K K ~ ) _ V.p._ _ p.S.'.].].{.{.{.].S.p.C.{.OX@X#XOX#X#XOXOX[.C.C._.[. XOXOXOX#X#X$XOX'.C._. X#X$X$X<X&XvXDXSXAXSXSXDXSXDXSXSXSXSXSXSXSXSXSXSXSXSXMXbX1X/ U Q B B U Q Q U L B B L U U Q L h x z z z k g 4 e w e u e r r w 0 0 8 2 > ; ; 8 w e z z z M P L P C B s 4 3 3 w g e h N N M V C P P C P N > % 7 i 8 % @ . + r F W L S c F c F L c c f c G F F z q 0 t U i.!.s.i.i./ ! W L P V W ! ..! T I I I T E ..E C x w # = j -.:.1.1.4.4.h.h.k.v.b.b.b.b.b.K.K.K.K.K.K.K.K.K.K.K.K.K.n.n.l.g.g.l.n.n.n.z.n.n.z.z.z.z.z.z.z.l.h.e.e.>.*.T =                       . . . o # o . o O # O X X + $ ; > ; ; 2 3 4 g M U 2..X@X.X'.U B E ! 2..XeXdXdXdX",
"6 & % @ % & > 8 9 6 > 6 & % & & & % & > > 1 9 w r r u u g l l l r 2 w 0 w n z u u t t t w t w 2 2 0 t l z x N B L L L U I P I P P V M M V B z e s g g z z z z u 8 1 > % > 8 9 9 8 8 8 1 & & % & 8 > 8 9 7 & # # # # # # # # # % & > > 8 8 7 > % O # O O # # # # % % & > > > > > 8 1 7 w u r r 2 r u l g K _.{. X{.) / / / _ U 3 w m J K K ~ ) _ _ ) _ V.S.'.'.].{.{.{._.V.p.S.OXOXOX#XOXOX#XOX{._.V.S.]. XOXOXOX@X#X#XOX[.C.C.{.$X#X$X$X$X$XrXMXSXSXSXSXDXSXDXDXSXSXSXSXSXSXSXSXSXSXSXMXbXuXt.U Q L N U U U Q L N N L U L U U h k z z z k h e 4 4 w e w u t w 0 8 2 2 2 ; + > 2 3 g z z B P L U B B d 4 4 0 w g 3 g N N M V C C C C P L 2 & 7 9 6 # . o 8 D K W W L F L F F c h z x c G F p 8 > , 0 D ) !.!.i._ / W L V P ! ! ! E ! T T I I T E ..&.P x t # * j -.:.4.4.4.7.7.7.l.z.b.b.b.b.K.K.K.b.K.K.K.K.K.K.K.K.K.K.n.n.l.g.g.g.h.l.z.z.n.n.n.n.n.z.z.l.z.l.f.e.e.>.=.! 2                       . . . . o O . . o O O O + $ $ ; ; ; ; : 3 4 s h M U a..X@X.XA.U x L E u.oXuXdXdX",
"& # # % & > 6 7 9 7 7 7 & & 1 & % % 1 1 1 8 w w w t u g g k l e w w e w u m z g u u r w r t u e 2 8 w t z x z N G L P P P L C C P C M V P I P B B B B B M N N z u 3 ; % % & > & 7 9 8 7 > & % & > > 7 9 7 % # # # # # # @ O # % & > > 8 9 7 > % # O O O # O # $ % & % & > > > > 1 8 1 8 9 w r 0 8 w t N N _ {.{.OX_./ ~ ) / / m 2 g D K K Q ~ / ) ) V.S.S.'.].{.{.{.'.C.V.S.{.OXOXOXOXOX#XOX{._.C.C.].OXOXOXOXOX#X$X$X X_.V.].#X$X$X$X$X$X&X$XtXSXSXSXAXSXSXSXDXDXSXSXSXDXSXSXSXSXSXSXSXhXgXS.U ^ U B L U U U U G x G G L G L N h z h x z g g w e e e t u r t w 2 2 2 2 2 = ; 2 2 u z g z L L U L N g 4 e w 3 t 4 e N N M M C C C C U L w > 7 5 & o . # t F L Q W W L L F c c h g x F F l > > > r p i H Q.!.!.s.q.! W L W ! ! ! ! R T I I R R E ..*.R c t % + a o.:.,.1.4.7.7.7.h.j.b.b.K.K.K.K.K.K.K.K.K.L.K.K.K.K.K.K.n.n.g.e.e.g.h.h.z.n.z.n.n.n.z.l.l.l.h.h.g.e.e.w.>.! w   .                   . . . o . o o o o O O + $ $ + $ ; ; * ; : 3 4 s h B t.S..XoX XS.B s I =.u.%XuXgX",
"# # # > & 7 7 8 9 7 6 7 > & & & % % 8 8 8 9 w w r u g l z g u u t g g w g N z g g u e e l l g e 0 w w 0 t z z c N B P P P L P I I P C C P T T I C V B B M c M x h e 1 & % & % & > 8 7 7 > % % & & & > > % % % # @ o o # @ . # % & > 1 w r 8 1 % $ # O O O o # # # % & & > > & & > 1 1 7 8 9 w w 2 0 r l N D V.OX{. Xp.~ ~ / ) ~ l 3 l D K K K Q ~ p.C.S.S._.].].{.'.V.p.C.{.OXOX XOXOXOXOX X[._._.]. XOXOXOXOX#X$X$XOX_.C._.OX$X&X$X$X&X&X&X$X#XgXDXSXDXDXSXSXDXDXSXSXSXSXDXSXSXSXSXSXSXbXgX@XU Q Q L x U U U L L N N B B N L G g z g z z g t e w e e u u t t w 2 2 2 1 2 = $ > 3 3 g g h B L P U B z 4 e w 3 t e 4 B n x M C C C C C G t 8 i 7 # . @ > g F L W W W L F F c x k z x c l , % > > r p t l ' `.!.!.i.! W W T T ! ! ! T P I T Y R E ..*...F t & + a | -.,.1.1.4.7.7.h.j.z.b.b.K.K.K.K.K.K.L.L.K.K.K.K.K.K.J.n.n.g.e.e.e.g.h.z.z.z.n.z.z.l.l.h.h.h.h.f.e.e.>.>.=.t   .                     . . . o o o o X X O + + $ $ + = ; = ; ; 3 4 4 s h Q S.J..XoX%XS.M j / ^ r.*XdX",
"% % % 6 6 6 > 7 7 > 6 > > 7 > & % > 8 9 9 9 w t t u g l l u t g g z l 3 u m z l u e e z z l l w w r 0 2 0 g z N N B P U U U T T T T I Y Y Y Y T P C C C V M B c x x k 7 & & % % & > & & % % & & % % % # # # # @ @ . . . . o # > 1 1 w t t 9 7 & % # # O O O # # # $ % % & & & & % > 1 8 7 8 8 w w 0 r u l m ~ [.].OX{.) Q ) ) _ Q w w m K K D D Q a.A.A.S.S.'.'._.A.p.a._.{. XOXOXOXOXOX X`._.C._. XOXOXOXOXOX#X#XOX`.C._.OX$X$X&X$X$X&X$X#XOX].$XNXDXSXDXSXSXDXSXSXSXDXSXSXSXDXSXSXSXDXNXhXtX~ U Q U x B U L L L x x G B G L U k s g h z k t e 3 e w e u t w 0 2 2 1 2 2 ; $ = 2 2 g h g N B U U N l 3 4 w 3 e e 4 N N x x V C C C V L k r p & . . # 9 k L W W W W W L F x z z x x g , $ = > , w i p t ) `.!.i./ ! ! ! ! ! ! T T T P T R R E  ...*.=.L l % X a o.-.,.,.1.1.7.4.f.f.j.c.b.b.b.K.K.K.K.K.K.K.K.K.K.J.J.n.n.n.g.e.e.e.e.g.l.z.l.l.l.l.l.h.h.h.h.h.f.e.e.e.=.X.l .                           . o o o o o o o + X + $ + + ; ; ; ; ; < 4 e h x =.S..X.X@X*XS.L P q.q.d.%X",
"7 > & & > > & 7 7 7 6 & 7 7 1 & > 7 8 8 9 9 r u u u l g g n N n g l g 3 k N z g u e w z m z k g w w 2 2 3 q h N B B P U T T T T T I E E T T R T Y I P C C V V B c B z r 7 % % $ # # # $ & > & & & & % % # o # # # o o @ o # % 7 8 9 r t r 9 7 & % # # # O O # # # # # $ % % & % % % > 1 1 1 8 2 8 0 w r u G D t.{. X#XA.~ ~ ) _ _ m 2 u D D D J Q p.V.A.S.S._._.S.a.p.S.[.{.OXOXOXOXOXOX[.C.V.C.[.OXOX XOXOXOXOXOX[.S.A.{.$X&X&X<X&X$X$X$XOX[._.'.yXSXSXSXSXDXDXDXSXSXSXSXSXSXDXSXSXSXSXSXhXgXp.U Q U N z L G U G N z B G G B L N e h g k z g 4 w w w e w t w 0 2 2 1 2 2 > ; = , 0 e g g z B U U z h e 3 0 w 4 t e x N x x V C C C L G z p i # @ . $ i S W W W ! W W W F k k z F z t > % % > > 6 i k t ( `.!.) / ! ! ! R ! ! T T T T T R R ....*.*.=.U k & X a  .-.:.:.:.1.1.1.e.e.l.z.b.b.b.b.b.b.K.b.K.K.K.K.K.n.n.n.n.n.l.e.e.e.e.g.h.l.l.l.l.l.l.l.h.h.g.f.f.e.e.w.=.=.F #                       . . . o o o o X o o + + + + + $ ; ; = = = : 3 3 s h M 2.Z..XoXoX*X.XU P q.u.Z.",
"6 & % % & > & > 7 7 6 & > > & 1 8 8 1 8 w w r e e e e g N G G N z z t 4 N N k g u u u z N z z k u w 2 2 3 3 4 h x B L U T I T E Y E E E R E E T T T T I C C V V V B N z g 2 = $ % # # & & & & % & 1 % % # . . @ o @ @ @ o % > 1 1 w u u t 8 8 1 & & $ # # # # # # # # $ % % & % % # % > > > 2 8 2 2 w 0 w D K Q _. XOX@Xt.~ ) ) _ ~ u 3 g n D K U _ p.V.C.S._.S.V.p.V.].{.{. X X XOXOX{._.V.C.`.{.OXOXOXOX#X#XOX{._.C.[.#X$X$X<X<X&X$X$X#X{.`.`.{.1XbXSXSXSXDXDXDXDXDXDXSXDXSXSXDXSXSXSXSXNXuX XU Q L B h x G G L G z z B G F G G d g h k z g e 0 e e w e t w 8 w 8 8 1 1 > > ; ; 2 0 t g z N L G N z e : 4 0 2 t e h x x c V P C C C G z l 8 # @ . > g S L W W Q Q W L x k k S z r , > > > > % r k k g ) s.) ! ! ! ! ! ! ! ! ! T R R R R R ..*.*.*.=.W k & + 4 | -.:.,.1.1.,.,.,.1.4.h.z.c.b.b.b.b.b.b.b.n.b.n.n.n.n.n.n.l.g.e.>.>.e.e.f.l.h.h.h.h.h.h.g.f.f.h.f.e.e.>.>...L ,                     . . . . o o o o o o o o o $ $ + ; ; ; ; = * : 3 3 e h h C 2.oXoX.X%X*X].T T d.Z.",
"% % % # % & & > 1 1 > & & & 1 7 8 8 1 2 w r e e e t l N B N N N k N e e N z t t g g k N N N N x z u 0 3 0 0 3 w x c B P T I R E E E E E R E E E E Y E T P P P P V V V c N k 2 $ # % % % % % % # % & & # # # . . o o O O % & 1 > 8 p l k t 9 9 8 1 & % # # # # # # # # % % % & % $ # % % % > 1 2 2 2 0 3 w n K U _ '.OXOX'.) ~ ) _ _ K 3 u l D K U ~ _ p.C.C.A.V.t.p.S.].{.{. X{. XOX{._.V.C._.{.{.OXOXOXOXOX$X{.A.C.].#X$X$X$X<X<X&X$X$X X`._.{.$X<XrXNXDXSXSXSXDXDXSXDXDXDXDXDXDXDXDXSXSXSXgX*XQ U U L z h B G L L N h x B N N F z d z k k k g e e e w e t w 2 w w 1 , 8 > > ; ; 2 2 0 g h x G N N z g 2 3 0 2 e e g j j j B L L V B B z p 1 o . o 8 k S L Q Q Q Q W c k x k D g , ; , , > > > p k q S i.) ! ! ! ! ! ! ! ! ! ! ! ! E E R E &.*.*.*.=.W k > + < | :.,.,.,.,.,.,.,.,.e.h.j.c.c.c.b.b.b.b.n.n.n.n.n.n.n.n.z.z.l.e.>.>.e.e.f.h.h.h.h.h.f.h.h.f.f.f.e.1.e.w.>...W g o                   .     . o . o o @ o o o o $ % $ ; = ; ; = = ; , 3 4 s j j C u.oX.X%X*XqXoX! W d.",
"& % % # % % & > > 1 7 > > 7 7 7 7 1 1 8 w w w e g z n N G B N z N N e z G g e t g g z N N G G N N z t 3 0 3 2 2 u N x L T T R R E E E E E E E  .E Y T T I P P P P C B B B N N u ; $ % # # # # . # # # # # % # # O O # # % > > > y l z l t r r 9 1 % # # # # # # # # # % % % % % % % $ O $ % > 1 2 2 0 w e l Q Q Q a. XOX#XC.~ ~ ) _ ) l 2 u N J K Q / _ V.V.V.p._ a.`.].{.{.{.{.{.{.`.V.V.S.[.{.OXOXOXOXOXOX X_.C.].#X$X$X$X<X<X<X<X#XOX[._.{.$X<X$X<XfXSXSXSXDXSXDXSXSXSXSXSXDXSXDXSXSXSXSXnXrXt.Q U B x g N L G G N h z N N x B F g t z k g g e 0 w w w w w 2 8 w 1 > 1 , > ; $ , 2 3 t g z N N N z h 3 3 w 1 e e s x x j M V V V C G p 9 % . . o w D F L W W W W W x x S x z q > > 6 8 7 7 7 r 0 0 K ) / ! ! ! ! ! ! ! ! ! ! ! ..E E ....*.*.=.=.=.! k > * < o.,.,.,.,.,.-.-.-.:.e.f.z.z.c.b.b.b.b.b.n.n.z.z.n.n.z.z.z.z.l.e.O.>.>.e.f.h.h.h.h.h.h.h.h.g.f.e.1.1.w.w.w.=.T S $                           . . o o o O O # X O + $ + $ = = = = * ; : 4 e s j j P u..XoX%X*XeX XW T ",
"& % % # # # % & % > 8 7 8 9 9 7 1 8 9 w w w w g z N N N G N N N G d t B g e g h s g N G L U G F G G x d t 0 2 3 w k x N P T T R E  .&.&. . ... . .E E E T I P P I I P B B N N N g 2 ; # # # @ . . @ @ # % # # $ # # # # # % % w l l l l t y r 9 1 % $ % # # # $ # O $ % % % % % $ $ O O O % > 8 8 2 8 r u l Q ) Q ~ '. XOX Xt.~ / ) _ ~ r 2 l J K Q ~ ) p.p._ _ a.S.'._.{.{.].{.]._.C.V.C.]. XOXOXOXOXOXOXOX_.C._.OX$X$X$X$X$X$X<X$X#X[._._.#X<X$X<X<X<XhXDXDXDXDXDXDXDXDXDXSXDXDXSXDXSXSXSXNXuXS.q.U B B z g B G F N z h z N N N N k q z k g t t 0 0 e w w w 1 2 w 8 , , 1 = > $ ; > 3 t g h x N N N z 3 3 0 , e s e x c x c V V V L G y > # . . @ 9 H L L W W W W L c x S S g 3 2 , , 0 8 9 w 8 0 z Q ! ! ! ! ! ! ! ! ..! ! ! ! ..E E ..*.=.=.*.*.=.! k & * < o.,.1.:.>.O.O.O.-.,.,.e.h.l.z.b.b.n.b.z.z.z.z.z.z.z.z.l.l.l.g.e.>.>.,.1.e.h.f.f.h.h.h.h.h.h.h.e.,.e.w.>.w.w.T F 6                         . . o o . o o O # O X # $ + $ = ; = = * ; : 3 4 4 s j M Y Z.P..X*XeXeX'.T ",
"& & % % % # # % # & 1 7 9 9 9 8 8 8 8 w r r u z n N N N N B G L N e k h e N G z s h B U Q U V P U U G k h e 3 0 0 t h z V T ! E ....&.*.&.&.&.&.&... .E E T Y I P C C V V B B N N g 0 > % # # # . . . . o . o O # % % & 1 > 7 p l p p p t r 9 8 > % % % % # # # # # % # # # # # $ # O o O % > 1 1 1 1 8 r u K ) Q G t. X{.OX`.~ ~ ~ ) _ D 2 w N J U Q ~ ) _ ) _ C._._.'.].].{.[.'.C.V.V._.{.OXOXOXOXOXOXOX[.C.C.{.$X$X$X,X,X,X$X<X#X{._.`.OX,X,X<X<X<X<XrXNXSXSXSXSXSXSXDXDXDXDXDXDXSXSXBXDXSXgX@Xt.L L B z d z G L G x g h x x N N z g h z h g e e 0 w w 0 w w 2 2 w 1 , 7 > > ; ; ; 1 w g k z z x N N u 2 2 , w d e h c B c V B B F m r % @ . @ o w F L W W W W W F c c S S t 0 t t 0 , , , , q z W ! ! W W ! / ! ! X...! ! ! ..........*.=.<.-.-.*.! t % * a | ,.,.,.O.o.o.o.o.O.,.e.f.h.z.z.n.n.n.z.g.f.f.l.l.z.z.l.g.g.g.e.>.>.e.e.f.f.f.f.h.f.f.l.h.h.h.f.e.e.w.>.=.=.! U r                           . o o o o o o o O # # $ $ $ = ; = = ; : : : 3 4 4 s j M ^ r.S.%XeXtXeX.X",
"& % # # % % % # # > 8 9 r r 9 8 8 w 8 w r u l n N B B B B B B U z e q t G U N z h M L T Q Q T T T ! U B x h e 0 e t t h M T &...&.&.&.*.*.*.&.&.&.&.E E  ...R T T I P P C M c c N x h t 0 ; # O O # # # $ $ $ # % > 1 9 r u p y r t y y r w 7 > % % % # # # % % # % % # # # # $ % # $ o o & 1 > > 1 > 8 w r D ) _ U U A. XOXOXp.~ ~ / _ ~ g 2 u D K K U U ~ ) a.A.S._.'.].'.]._.A.V.C.A.{.OXOXOXOXOX@XOX{.C.a.].$X&X$X$X,X,X<X#X#X{._._. X$X,X<X<X<X<X<X<XdXSXSXSXSXSXSXDXDXDXSXDXDXDXSXSXDXSXhX1XA.Q U G N z k N G L N h g z x x N z k h k z k t t e e w 3 2 w 0 , w 2 > 1 1 ; > > ; ; 2 e k z h z x N g : 2 , 3 t q d x B L L B B B D 9 # @ . @ . 7 F W W W W ! W L c c S k q t S F z k k k z S W ! ! ! ! W ! X.X.X.X.........X.X.X...o.-.<.<.-.<.=.W 0 > * a -.,.-.-.o.| o.%.o.,.,.e.f.h.z.z.n.z.z.f.e.e.f.g.f.g.g.l.f.e.g.e.e.e.e.e.f.e.f.e.f.e.f.l.g.f.f.f.e.e.w.>.>.=...U g #   .                 .   X . o o @ o o o X + X X $ = $ ; = = ; ; ; : < 4 4 a h j C 2.r.].*XeXeXeX",
"& & & % & & % % > r y y y r 9 8 9 w w w r l D B N N G L L L U G s 3 s U / L h g x U ! ! ! / &./ ! ! ! T U B h e q s s j C E &.&.*.*.*.*.*.*.*.*.*.&.&.&.&.*.E E E E T C C V V V V B B N z u 2 > ; % % % 1 7 1 > > 1 8 9 r y y r r t y r w w 8 > % & % # # # # $ # # # # % % % # $ # O o . % > > 1 8 > > w r z ~ t.) K ) {.OXOX X) Q ~ ) ) U w 3 m K K U J Q _ C.S.S._._._._._.C.V.a.C.`. XOXOXOXOXOX#X{.S.V._.OX&X&X$X$X,X,X<X#X{._._.{.$X,X,X2X<X<X<X<X$X&XnXDXSXSXSXSXDXDXDXDXDXDXSXSXSXSXDXMXtX@X/ U L N k k k N G G z s z N k k z x h h k g u w e w 0 0 2 w 0 2 8 w , 7 7 > 1 > % = , 0 g k h z x N k 3 2 2 3 w e g z B L L V B x k i & @ . .   X D W U W W W W L c c S g q k c x F L W W W W W W W ! ! ! ! X.X.0.0.X.X.X.X.o.o.o.o.*.>.<.<.=.-.=.L , > * j -.-.O.o.| o.o.o.O.,.1.f.f.h.z.z.z.g.g.f.e.,.,.>.,.f.g.z.g.f.e.e.e.e.e.f.f.f.f.e.h.h.f.g.f.f.f.f.e.e.w.>.>.o.! W z 6               .     . . . X o o @ O O X O + + + $ = = ; ; = = = = : < 3 3 4 s j M &.r.r.oX*X1XtX",
"& & & & & > > r l H p y r 9 w 9 9 w r t t l N B N B L Q U L U z 3 e L ) U N g h P ! ^ &.&.=.=.=.&.! ^ ^ ! L x h h B L I ! &.=.*.=.*.=.*.*.=.*.*.=.=.=.=.*.*.&...! ! E T I T I I I P C B N N k g r 1 > 1 7 8 8 8 1 8 8 9 r r r t y u u w 8 8 1 > & & & # # # # # O O O # $ # # O # # O $ # % ; ; 1 8 1 1 r w w G t.p.U G C. XOX$X_.~ ~ / _ ) N 3 u N D D D Q ) a.C.S.S._.S.S.C.a.p.C._.]. XOXOXOXOXOX X_.V._.OX#X$X&X,X,X,X,X$XOX[.`.{.#X<X,X2X<X<X<X<X&XOX'.1XSXDXSXSXSXSXDXSXDXSXSXSXSXBXBXSXSXuX&Xp.U L G z k g x G L B g t x z h z x k d z k g e e 0 0 w 0 8 0 2 1 w 8 , > 1 > > > = > 3 e g g z z N N e , 2 2 w t z c B V L L V c g i 9 % @ @     w K W W W W W L c c c g d z c S F L W W W W ! W ! ! ! X.X.X.X.X.0.q.q.X.X.=.o.o.=.>.>.>.-.*.=.&.c > ; = v -.O.o.| | o.o.O.,.1.f.h.z.z.g.g.f.f.f.,.O.O.o.| o.>.e.g.g.f.f.e.e.g.h.f.f.h.h.f.h.h.g.f.e.f.f.h.f.e.w.>.>.o...W F r .                   .   . . . . @ O O X O # + + $ = $ ; - ; ; = * = : < < 4 4 a j V q.r.Z.%X*X1X",
"% & & & & & 7 p H l p y 9 8 8 9 9 r y u g z N M B U U Q U B x s 4 x U B x h h L ^ &.&.=.=.q.q.q.=.=.=.=.^ T L C P T E ! &.*.=.=.=.=.<.=.<.<.=.=.<.<.=.=.=.=.=.=.=.=.&.E R E T T T T I P C V B B z k g t 8 8 8 1 > 1 1 8 , 7 w w w 8 9 2 1 1 > > > & % # # # # # # # # # # # # O # # $ % o $ & & > 8 1 1 7 1 8 l ) A.t.l Q {.@X$X#XV.~ / _ _ / u 3 l m m D Q / p.C.C.A.A.A.C.p.p.p.S.].[.OXOXOXOXOXOX`.A.C.OX$X#X$X$X$X,X,X$XOX`._.[.$X,X2X2X2X2X<X<X<XOX]._.{.gXDXSXSXSXDXDXDXDXSXSXDXDXSXBXBXSXgX*XA.U L L N z e k N N N z e k z d z x z d z z k g t w 0 w 2 > 8 2 > 2 8 > > 7 > > , > > 2 w t g h z N N g , 2 2 0 t z x c L T W S k k A 9 5 @ . .   # S W L W W L L F S c k k c c S L L W W W W ! ! ! ! X.X.X.X.X.X.X.q.0.X.=.=.=.=.=.>.-.<.<.-.*.! z , > < I >.>.o.| | o.O.,.,.f.l.z.z.z.z.f.g.f.O.} } o.O.O.O.e.e.f.f.f.f.f.g.g.l.h.f.h.l.h.f.l.f.e.e.e.e.h.e.e.w.>.>.>.o.! F p O                   .   . . . . o o o o X + + + $ = + = = = = = * = : : : 3 4 4 h j T u.r.P.*X*X",
"& & & 6 7 7 7 r r r y w 8 > 1 9 r r e u l z N B L U U L B N d g B B C M x s M ! ^ ! &.=.q.q.q.q.w.w.=.=.*.=... .E  .| &.*.=.;.<.<.<.<.<.1.<.1.1.<.<.<.;.<.<.=.=.=.<.=.=. .&.=.&.&. .E E E E E E T T P B l w 2 2 > > > > , , , 1 1 1 > 2 > > > % % $ O O # # # # # # # % # # # # # % % # o # > & & 1 1 > 1 1 9 t Q p.A.U u t.OX@X$XOX_ ) ) _ _ K w e l n D U ~ _ V.V.V.V.C.a.p.p.C._.].{. XOXOXOXOX].A.A.{.#X$X#X#X$X$X$X#XOX{.`._.OX<X<X2X2X2X<X2X,X#X[.`.[.OX7XNXDXSXAXDXDXSXDXDXSXDXSXDXBXNXBXMXeX XQ B L B G g g N B x N h d z d z z z k k z k g g w 2 0 1 > 8 w , , 8 , > 1 , > , > ; , w t t h z x N g , : 2 3 d h z c B P W L k H E.A 5 5 .       8 K L W W L L L S c x x x x c L P W W P W ! ! ! / 0.0.X.0.0.0.0.0.0.q.=.q.=.=.w.w.>.w.w.=.=.U t , - f ..-.>.o.} } O.O.,.f.f.z.z.z.z.z.z.f.} b } O.O.>.,.,.,.,.e.f.g.g.g.g.g.g.g.g.l.l.g.f.g.f.e.e.e.w.e.w.e.w.-.<.*.o...I x >   . .   . .     .   . . . . o o o o o X # $ # $ + $ = : ; - : ; = : : : 3 4 4 t h M E r.r.oX%X",
"% & & & 7 9 8 7 8 9 r 9 7 1 8 w r u u g k z x M L U Q L z g z U ^ U L B h V T ^ &.=.q.w.w.w.w.u.u.u.w.<.=.=.=.*.&.&.=.=.=.<.<.1.1.1.1.4.4.4.1.4.4.4.3.<.3.<.1.1.1.<.<.<.=.=.=.*.=.=.=.=.=.=.=.=.=.=.! T L z w 2 2 1 > ; > , > ; > % ; > ; ; & % % # # # O o # # # @ % % # # # # # % % $ o $ & % % % & % > 1 8 u z ) C.a.N B _.OX@X$X]./ ~ ) _ _ n 2 w m J U Q ) p.V.C.C.a.p.p.a.S.'.{. X XOXOX X].C.C.].#X#X$X$X$X$X$X,X+X[.`.[. X$X<X<X2X2X2X2X<X$X[.`.[.OX,X,XiXSXDXDXDXDXDXDXSXSXSXDXSXDXBXBXSXuX&Xr.L V L U h s N B x x z d k z z k z z h g z k g e 2 1 1 , 8 w 8 8 2 , > , > ; > > ; , w t t g k k N k 0 2 2 2 g g h z c V I ! S A E.( 5 9 &       . g L L W L L L V c c c x x V L W W W W W ! ! ! ! X.0.0.0.0.0.0.q.q.q.q.=.=.w.w.w.w.w.>.=.! x 0 > : C w.,.,.o.| o.O.O.,.f.z.z.z.z.z.z.f.b f b } O.O.e.,.,.,.,.e.f.g.g.g.l.g.l.g.g.l.l.g.f.l.f.e.e.e.e.w.w.w.w.>.<.*.*.*...F 0 .       .         . . . . . . o o o o X # # # # + + $ - , ; = : ; : : : < 3 3 4 s h V =.u.J..X",
"& & & & > 7 9 9 r r y w 8 9 w r y u g l z N G Q ^ Q Q B 4 e B Q U L M j V T ! q.r.w.w.u.u.u.u.u.u.u.u.w.<.w.w.<.=.<.=.=.<.1.4.y.y.4.y.y.y.y.y.y.y.y.y.4.y.y.w.y.w.w.y.w.1.1.1.<.<.<.w.1.1.1.1.<.<.=.*...U L B k e 3 2 2 3 2 , > > ; ; ; ; % % % % # O # O o # # % # # # @ # % % # $ % % O $ & % % & > % > > > w e U C.a.) G / OX#X$X#XV.~ ) ) _ ~ u 2 l D K K Q ) p.p.p.p.t.p.V.A.`.{.{. X X X'.C.V.`.@X#X#X$X$X$X$X$X+X[._._. X$X,X,X<X2X2X2X2X$X X[.`.{.,X2X,X4XmXSXDXDXSXDXDXDXSXSXDXBXDXDXBXSXgXeX].U B L L z g x N B N x h k z z k h k k k z k g g 0 2 2 2 8 8 w 2 > , 8 > > 8 2 > ; > 8 0 e t h k x z w 2 > = w t g z c b I X.W k A H ( A 9 .     . ; F L L P L L L L L L F c L P W W W W T ! ! / X.X.0.q.0.0.0.q.q.q.q.w.w.w.w.w.w.w.>.-.*.L 0 , , f ..e.e.,.o.} } O.O.,.f.z.z.z.z.z.g.Z a b o.O.>.,.e.,.e.f.g.f.f.g.g.g.l.l.l.g.g.l.l.g.g.l.f.e.e.e.w.w.w.w.>.>.>.>.=.=...L d O   . . .       .   . . . . o o o o o o X + X + + + + = ; = * ; : : ; : 3 : 3 3 4 h j C u.D.P.",
"% % & 6 6 8 9 9 y i r w 8 w t u u l z N G L Q Q ^ Q L d 3 z U U B x x L ^ &.=.q.u.u.u.u.u.u.u.u.u.u.u.w.u.u.w.w.w.w.y.w.1.w.y.y.y.y.y.y.h.y.y.h.y.j.h.y.y.y.y.y.y.y.y.y.y.y.y.y.y.y.u.y.y.y.y.y.y.y.w.<.=.! ! T L B z k g e 0 0 7 , > > ; ; ; % % % O O # # # @ # # % # # # % % # # % % O $ % $ % > > % > 1 > 2 u l t.C.A.) G t.#X#X$X X) ~ / ) _ K w w n K K U Q _ _ _ _ _ p.C._._.].{.{. X{.A.V._.OX@X#X#X$X$X$X#X#X X_._.[.#X<X,X<X<X2X2X2X,X X_.[.[.#X2X,X2X7XiXNXDXDXDXSXDXSXSXSXSXBXDXDXBXNXMXtX@X/ B G B N k h z F N N z z k z k h h k z k k h g t 2 1 8 2 2 w 8 > , , ; , 1 8 > = > 2 8 3 w u h z z w ; > ; 0 w t g j f b } } S 6 H E.A 7 @       o q L U P L L L P P P P P P P T T T ! ! ! X.0.0.X.0.0.0.0.0.q.q.q.q.w.w.w.w.w.w.w.>.=.! d 0 , q R >.f.f.,.>.| } o.,.e.f.g.g.z.z.z.o.b b } O.e.,.,.e.f.f.f.f.f.g.g.g.g.l.l.z.l.l.z.g.g.g.g.f.e.e.w.e.w.>.>.>.*.>.*.=.=.X.W z = . .             . . . . . . . . . o o X + X + + + $ $ = = = * = = = : , : : 3 3 4 h M Z u.J.",
"& % % 6 8 9 9 r p p 9 9 w w y l z m D D B U U U Q L d 4 g B B M M V T / =.q.q.q.d.u.u.u.u.u.u.u.u.u.u.u.u.u.u.y.u.y.u.y.u.y.y.j.y.y.y.j.j.j.y.j.x.j.j.j.h.l.x.l.x.x.l.y.x.x.x.u.l.x.x.x.j.j.j.x.x.l.l.y.y.y.w.q.=./ T U N h e t r w 0 2 , > > > ; % % $ $ # # # @ # % # O O # # # # % % % $ # $ % % & $ > 8 1 2 g g U A.'.A.U K `.#X@X$XS./ ~ / _ ~ n 2 u D K K Q ~ ) ) ) _ V.C._._._.{.{.]._.V.C. X#XOX#X#X$X$X$X#X{.[._.`.+X2X<X2X<X2X2X2X,XOX[.[. X+X,X2X2X6X7X7XcXBXDXSXDXDXSXSXSXSXSXDXDXBXNXSXgX*Xa.L G B B z d h x c x x x h z h h z k x g k k t u 2 , 0 8 2 w 8 , > , , 2 , , , > > > 8 2 w w l k z e , , , 0 w w u g : f } } X.d 9 A i 5 &     .   # D L P P P I T T W T T T ! ! T ! ! ! X.0.0.0.X.0.q.0.0.q.w.w.0.w.w.w.u.u.e.w.<.w.q.x q 0 < C >.e.g.g.f.>.o.} O.,.f.g.f.f.g.f.f.o.I } O.,.e.,.,.e.f.g.g.g.g.g.g.g.g.g.g.z.z.l.g.g.g.g.g.g.e.e.e.w.O.o.o.O.o.*.*.=.=.*.T L w                     . . . . . . . o o X X + $ + + $ + = = = * = - : : : : : 2 4 4 s j j E D.",
"% % % & 8 9 r p p 9 8 r w w t k m G U L U Q / / Q z 3 d z N N C ^ ^ / 2.q.r.q.q.u.u.u.u.u.u.u.u.u.u.u.u.u.u.u.u.u.x.x.x.x.u.x.x.x.j.j.x.x.x.j.x.x.j.x.x.j.j.j.x.c.c.c.x.x.x.c.x.x.x.c.D.D.D.D.c.c.c.x.l.y.y.y.e.<.=.&.! U F z t w w w w 0 8 8 8 > % > ; % % % % # # # # @ @ # # % # % % % $ # % % % & $ % 1 > 2 t u G p.'. X_ m ~ OX@X$XOXp.~ / ) _ Q u 2 n K K K U Q / _ p.C.C._._.].{.]._.V.V._. XOX@X#X#X#X$X$XOX[._.`.OX<X2X2X2X2X<X2X<X+X[.`.[.#X,X,X,X6X7XlX7X7XmXDXSXSXDXDXSXDXSXDXDXDXBXNXnXhXtX XQ L L L x s g z B x x x h h h h k z x h h k u w 0 2 w w , 8 8 , > , 2 2 , , 2 > , = > 1 w w t g k t , , , 3 0 w l u * - b } O.W t 7 7 5 5 #   . .   8 G U T T T ! ! ! E ! R T ! ! ! ..X.0.0.0.0.0.q.q.q.q.w.w.w.w.w.w.u.u.w.e.e.w.q.G 0 3 < C -.,.f.z.g.f.,.o.o.o.>.f.f.g.g.f.f.,.o.o.O.,.,.,.,.,.e.f.g.g.z.g.g.g.g.g.g.g.l.l.g.g.g.g.g.g.f.e.w.>.O.o.| | X.o.*.*.>.>.=...W t . . .         . . . . . . . o o . o o o o + # + $ $ + + = = * * - : , : : : < 4 4 4 a j M &.",
"% % % & 8 9 y p y 8 8 9 r l l l k g z N G U U D g 2 4 z N B U Q T ! q.q.q.q.r.r.r.u.w.u.u.u.u.u.u.u.u.u.u.u.u.u.x.x.x.x.x.u.x.x.x.x.x.x.x.c.c.c.x.x.c.c.j.c.c.n.n.n.J.J.J.J.D.D.D.D.D.D.D.x.x.x.x.x.n.x.u.u.y.y.<.=.=.&.! U L z g t t t r w w w 1 > > > > % # % % # # # @ @ o # % % % & % $ $ $ % & % O $ & > 2 3 w N t._. X'.K z C.@XOX<X X) ~ ) ) _ D 2 u N K K D J ~ _ a.C.C._.`.'._.S.a.p.A.{.OXOXOX#X#X$X$XOX`._.`.OX,X<X2X2X2X2X<X<X#X[.`._. X,X2X,X2X7XcXcX7X7X7XNXDXBXSXSXSXSXSXDXDXDXBXBXnXnXgX&Xt.U L L B g g g N N N c z s g h z z k k d g g w w 2 8 w , , 0 , , > 1 8 , 1 2 > , ; ; ; > 0 0 e z l 0 , , , 0 w u y , , s b } X.V t 6 5 7 &     .   . t W T T R E ! ! E E T R ! ! X.X.q.q.q.q.q.q.q.q.q.w.w.w.w.w.w.w.u.u.w.w.w.q.P 0 , < j o.,.e.h.l.f.f.e.>.o.o.O.,.f.f.f.f.f.,.O.>.O.,.,.,.e.e.f.g.z.z.z.z.z.g.g.g.g.g.g.g.g.g.g.g.g.f.e.e.O.O.O.| I I | o.>.>.>.w.>.X.! k X . .               . . . . o o o X X o o X X # # $ + + $ = * = = ; : : : : : 3 : 3 4 a j C ",
"% & 5 7 9 i y 9 7 9 9 9 l D z N N B B N B N x g e e N G G U U U T ! / &.=.q.q.r.r.u.u.u.w.u.u.u.u.u.u.u.u.u.x.x.x.x.x.D.c.x.c.j.c.c.x.x.c.x.c.c.c.F.c.c.c.c.F.J.J.J.J.J.J.J.D.J.J.D.F.J.J.J.J.D.D.x.x.x.u.u.u.y.u.w.q.=.&.! U G N k u t t r r w 7 1 8 7 1 7 % % % o @ O O # o # % % % % % # # # % % > $ O % 1 2 3 w g ) _. X@Xa.z K {.OX$X<XC.~ ) ) _ ) l w u D D N D Q ) V.C.V.A._._.S.a._ p.]. XOXOX#X#X#X#XOX[.C._.OX<X<X<X<X2X2X2X,X$X{._._.{.,X<X2X2X7XlXzXzXlX7X7XfXBXSXSXSXSXSXSXSXDXSXBXBXbXbXnXtX'.Q G G L x k t z B c x z g s h k k h z d e g e w 8 , 8 2 , w 1 , , > 1 2 , , > , 8 > = + 8 , 0 k u 0 2 1 2 0 e t t 0 , , j I I I S i 9 9 & #         + F ! R ! E ! ! E E E ! ....=.=.q.q.q.q.q.q.q.q.w.w.w.w.w.w.w.w.w.w.w.w.q.L q , < j | ,.,.h.l.z.z.f.e.,.O.O.O.O.,.e.,.,.,.O.} o.o.O.,.,.e.f.f.g.z.z.z.z.z.g.g.g.g.g.g.g.g.g.g.z.g.e.w.w.O.o.| I I R X.*.>.>.>.>.>.X.! F > . .               . . . . o o . . X o X o X # # $ + $ = + + $ = ; : ; ; : , 2 : 3 3 4 s j ",
"% > 7 i i i r 1 7 r y y l D D G U Q Q Q / Q N g g m G J J Q Q Q ^ ! ! / &.=.q.=.=.=.=.q.w.w.u.u.u.u.u.u.u.x.x.x.x.D.J.J.D.x.D.c.c.c.F.F.c.c.F.F.F.J.J.J.J.J.J.J.J.J.J.J.J.J.J.J.J.J.D.J.J.J.D.D.D.x.x.x.u.u.u.u.u.u.w.q.=.=.! L B z h t t r w 8 , 8 r r 9 1 % % # o @ @ # # o % % % % % % % % % % & % $ $ > > 2 w r t Q `.{.OXOX) g _ OX@X$XOX_ ~ / ) p.Q r 2 l m N D K ~ p.V.V.S._.A.V.p.p.S. X XOXOXOX#XOXOX{._._.OX$X,X<X2X2X2X2X2X$XOX[._.{.,X2X2X,X7XaXaXlX7X7XcX7X4XbXBXDXDXSXDXSXSXDXDXSXSXnXnXnXgX*X) L L L B x g s N N x x x d g k k g h g q t u w 0 8 8 2 > 8 8 , > , , 1 8 , , , > , ; # ; ; , g k 0 , > , 3 0 e w 0 0 q s v b P W S r 9 9 9 % . . .   0 T ..! ! T ! ! ......X.X.0.q.0.q.q.q.q.w.w.w.w.w.w.w.w.w.w.w.w.w.w.w.P t < 4 c | >.,.f.z.z.z.z.l.f.,.,.O.O.o.o.O.o.o.o.} } o.O.O.,.e.f.f.f.l.z.z.n.z.z.g.g.g.g.g.f.f.f.g.g.g.e.>.O.O.O.} I I I | X.o.o.>.>.=.=.o.E P e                   . . . . . . . o o o o o X + + + $ $ $ $ = = = ; = - ; : : : : : 3 4 4 h ",
"% 7 9 y i r 9 8 9 r y l H J K G U Q Q Q Q K z z z B B N G K U Q Q Q Q Q T ^ / &.&.^ ! &.<.<.w.u.u.u.u.u.u.u.x.D.D.J.J.J.F.n.x.F.c.F.F.J.F.F.F.F.F.J.J.J.J.J.J.J.F.J.J.J.n.n.J.F.F.J.n.D.J.x.x.x.x.x.c.x.u.u.u.u.u.u.u.u.q.=.&.Q P L L B z t t 0 2 8 r r 8 > > % # @ @ o # O # % % % % % # % % % % & % # # & > > 7 w r H s.[. XOXS.N D _.OXOX$X[.) ~ ) _ ) n 2 8 z m D K ~ ) p.V.A.C.a.p.p.C.].{. XOXOXOXOXOX{._._.{.#X$X,X<X2X2X2X2X,XOX[.[.[.$X2X,X,X6X7XcXlX7X7X7XaX7X2XiXmXBXBXDXSXSXDXDXSXDXSXBXMXvXbXyXd.W L L L B z g x x x x x g q g k k d d e e u e 3 0 2 , > 2 w 2 , , > , 0 8 , > ; , ; + # ; ; u z t , ; , , 0 0 0 w t s z c P P W W l w p p 5 @   . . o z ..! T ! ! ! ..X.X.q.0.q.q.0.q.q.q.w.w.w.w.w.w.w.w.w.w.w.w.w.w.q.L q 3 s v o.| :.e.f.z.z.z.z.z.f.f.,.,.O.o.} } } } } o.O.O.,.e.f.f.f.f.g.z.z.z.n.z.z.g.g.g.g.f.f.f.g.g.g.f.O.O.O.O.} I I I I ..o.o.>.>.>.=.=.*. .T h X       .   . . . . . o .   . . o o o o o X X + + $ $ $ = $ $ = ; ; ; ; : : : : : 3 4 3 a ",
"7 r i i r 9 7 7 9 y p D H H J D D K K D N m l p p l l p u u l n m N N D G J U Q ! ! ! ! T ^ =.2.w.u.u.u.u.u.x.D.D.J.J.J.J.J.F.F.F.J.J.J.J.J.J.F.J.J.J.J.J.J.J.J.J.J.J.F.F.F.J.J.J.J.n.x.x.x.x.x.x.x.x.x.x.u.u.u.u.u.u.u.q.=.q./ ! ! W U L N l t 0 r p p r 8 1 & % # @ @ @ # # % % % # # # # % % % % % % % > > > > 9 r p ) {. X XOX_ z ~  X@X,X$XV./ / ~ ) ~ p > y m J K Q Q _ C.C.p._ p.V.`.[.[.{.OXOXOX X[._.C.`.OX$X$X<X<X<X2X2X,X+X[._.[.#X<X2X,X2X7XzX7X7X7X7X7X7X7X7XiXvXBXBXDXSXSXSXDXSXDXSXBXBXvXbXnX@X/ L G L L x h x N N x x z 4 s k k d d g e e t e 0 8 , > 1 8 2 , , ; , 0 8 , ; ; > > $ o $ = t z w , , , , 0 0 0 e t h c B V C P ! U m p y i & @ @     , W ) ! E ..&.=.q.q.q.q.q.q.q.q.q.w.w.w.w.w.d.d.d.w.w.w.0.w.w.q.F 0 < 4 L o.o.,.e.f.l.z.z.z.z.z.l.f.f.,.,.O.o.} o.O.O.O.,.e.f.f.z.z.z.z.z.z.z.z.z.z.z.z.g.g.g.g.f.f.g.f.f.e.O.O.O.o.I I b I R ..o.O.>.=.>.>.=.*...T z +   .         . .   . . . . . . o . . o o X + + + # = = $ $ + $ $ = - - : : , : : 3 3 3 4 ",
"i p r 9 9 8 7 7 r p p p n l l p y r w w w w w 9 9 9 9 9 8 8 8 9 r r r y u y t u l N B G U Q ! ^ =.q.q.r.u.u.x.n.x.x.F.J.J.J.J.J.H.J.J.J.J.J.J.J.J.J.J.J.J.K.J.J.J.J.F.c.F.F.F.F.F.J.F.x.x.u.u.u.u.u.u.u.u.u.u.u.u.u.u.u.r.q.q.q.=.=.! Q W U D k 3 w l l y w 7 & % # @ o @ # # % $ % % % % % % % % & & % % > > > > w t t D a.+X{. XOX~ n p.#X$X$XOX_ ~ / ) ) K w 0 n D K K Q ) p.a._ _ V._.[.[.[. XOXOX X[._.S.C. X$X$X$X<X<X2X2X,X#X[._.[.+X<X2X2X2X7XcXaX7X7XaXcX7X7X7XcXcXdXmXDXBXDXSXDXDXDXSXSXSXBXBXvXAXyXt.Q L L L N z z N N N N z d e t k h h k g e t g w w 0 8 1 8 8 8 , ; > 8 w 2 > > > ; ; + X ; u N e 0 0 3 : 0 w e d g x B M V C P T Q U F g r 9 # @     o t Q ......=.=.q.q.q.q.q.q.w.w.w.w.d.w.w.w.d.d.d.d.w.w.w.w.0.x 3 q s P O.O.O.,.f.g.l.z.z.z.z.z.z.g.f.f.e.,.,.,.,.,.,.e.f.f.l.z.z.z.z.z.z.z.z.z.n.z.z.z.g.g.g.g.g.g.g.f.e.O.O.o.} I b I I } | X.o.o.>.>.>.>.=.*.*.! G $   . .     . .     . . .   . . o . . o o X + + + + % $ $ = $ + + $ = ; : : , : : : < 3 4 ",
"i 9 7 7 7 7 9 9 r i r r y y r 9 8 > > > > > > > > > > > 7 7 7 7 7 7 > 7 8 8 7 7 8 9 w w z J Q ^ / / q.q.r.u.x.x.x.n.F.F.J.H.J.J.J.J.J.J.J.J.J.J.J.J.J.J.J.K.J.J.J.J.F.c.c.c.x.c.x.x.x.u.u.u.u.u.u.y.y.y.u.u.u.u.u.u.u.u.q.q.q.=.=.=./ / ! Q Q J g w r u u r 7 & % # # @ # # # % % % $ % % & & % & & & % % & & > > 9 r u r Q OX X X&X{.G D {.@X$X<X].~ ~ / / / m 2 u D K K ~ ~ ) _ _ _ C._.[.[.[.{.{. X{.`.C._.].#X&X$X,X<X<X<X<X#X{._.[.OX,X,X2X2X7X7XcXaX7X7XaXcX7X7XaXmXcX7XfXBXBXBXDXSXDXDXSXSXSXSXSXvXBXbXS./ U B L G z h N N x N z z t 0 h k k k k t 0 t 0 w w 8 2 8 8 8 2 ; > 8 0 8 , , > ; > $ X $ 0 z t 0 0 0 , 0 e e g k h x c v V P I T T T L g 9 8 . .   @ $ h ! =.X.=.q.q.q.q.q.w.w.w.w.w.w.d.d.d.g.g.d.g.d.w.w.i.W g < 3 f P O.O.O.f.e.f.z.z.z.z.z.z.z.z.z.f.f.f.f.f.f.f.f.f.f.f.f.z.z.z.z.z.z.z.z.z.z.z.z.z.n.z.z.z.z.z.z.g.e.O.O.o.} } b b } } } X.X.o.o.>.>.>.>.=.*...! L >         .       . . . . . . . o . . . o o + X X + $ $ $ = $ $ + $ $ = : : , : : 3 3 3 4 ",
"8 7 7 6 7 7 9 7 8 r 9 7 7 > 7 7 > 7 6 > 7 > & & & 5 7 7 5 & 7 7 7 7 6 7 7 7 7 7 7 7 7 7 8 y z G U ^ / q.r.w.u.u.x.x.F.J.J.J.J.J.J.J.J.J.J.J.J.J.J.J.J.J.K.K.K.J.J.J.F.D.D.D.x.u.u.u.w.w.q.=.q.w.w.w.u.u.y.u.u.u.u.w.w.<.q.q.=.=.=.&.^ ^ ^ Q Q Q G N u t w 8 > % % # # # # # O # % # # $ % & % % % & & % % & % % % 7 w y w t p.OX{.<X<Xa.l ) +X$X<X$Xa.~ / ~ / ~ u 2 m K K Q Q Q ) _ p.C._.].].].{.{.{._.C.C.{.OX$X$X$X$X<X<X$X$X{._._.[.,X,X,X2X7X7X7X7X7X7X7X7XaXaX7X7XfXfX7X7XvXBXBXBXDXDXSXDXSXSXSXSXnXbXSX&X) Q B B L x N x z z x z x g e k z k k e w 0 e t w 0 w 8 2 8 2 8 , , 2 1 0 0 , 1 > ; = $ + ; z g 0 0 3 0 e e e g h k x c c v C P I I Y T L g 3 ; > & % % + h ! q.0.q.q.q.w.w.w.w.w.w.g.d.d.d.g.g.n.n.g.d.i.) S q 3 s c Y o.O.>.,.f.z.z.z.z.z.z.z.z.z.z.z.f.g.g.f.f.f.z.z.l.g.g.g.l.z.z.z.z.z.z.n.z.z.z.z.z.z.z.z.z.z.g.f.e.O.O.} } } b I } } o.} o.X.o.O.>.>.*.*.=.*...R L w               . . . . . . . . . o o . o o X O X # + # $ $ + + + + + $ ; : ; : 3 2 3 3 4 ",
"7 7 7 7 9 9 9 7 9 9 9 7 6 6 5 & & 7 5 5 6 5 & & & 5 7 7 & & 7 5 5 6 6 6 6 6 7 6 7 7 7 8 7 1 w l z G Q Q =.q.u.u.x.x.D.J.J.J.J.J.J.H.J.J.J.J.K.K.K.K.J.J.K.K.K.J.J.J.F.x.u.u.u.w.q.2.=.^ ^ / ^ / =.q.q.r.u.u.u.u.w.w.w.q.q.=.=.=./ / ^ ^ ^ ! Q / Q U G z g w 7 > & % # # # # # # # # # % % % % % % & & % % & % % % 1 w r 8 > D C. X<X2X$XQ m _.,X$X<XOX_ ~ ~ ~ / K 2 r D J K K K Q _ V.S._.[.`.[.{.{._.a.a.`.OX#X$X&X<X<X2X,X#X X`._.[.#X<X,X2X7X7X7X7X7X7X7X7X7XaXcXcXfXiX7X7X7X7XmXBXDXDXSXBXSXSXSXSXSXMXnXnXuXS.Q F B L B B x k z z x z k t d h g g t t e e t r w r w , 8 8 8 8 1 , , 0 8 , , , > ; = + = z g 0 0 3 0 q e e d h z c c c V V P I P I I T U B s 3 : ; > = + t ! i.q.q.w.w.w.w.w.d.d.d.d.d.n.g.g.g.g.d.w.Q k 0 3 d V | O.O.,.,.f.l.z.z.z.n.z.z.z.z.z.z.z.l.z.z.g.f.l.z.z.z.f.z.z.z.g.z.z.z.z.z.z.z.z.n.n.z.z.z.g.g.f.,.O.O.} } } } Z } } } O.O.o.O.O.o.o.>.>.>.=.*.o...R P g o .     .       . . . . . . . o X X o o o o O O + + # $ $ $ $ + X + + = ; ; : : : 3 3 < ",
"r 9 9 9 i r 9 9 9 7 5 7 7 7 6 & & 6 & 6 6 & & > 6 & > 6 & & > 6 & 6 & 6 & & 5 & & > 7 8 7 8 9 r y k G Q ! ! w.x.x.c.x.D.F.J.J.J.J.J.J.J.J.J.J.J.K.K.J.K.K.K.K.J.J.F.c.x.u.y.<.^ ! Q Q Q U G N N N m z z F L U Q ) q.q.q./ ^ / / ^ ! ! ! ! ! ^ ~ ~ Q J N l r 9 > & % # # # # % # # % # % % % % % % > & % % & % $ % > 9 r 9 8 u Q {.<X<X<X{.K Q +X$X&X&XS./ ~ ~ _ / m 1 r D D J J Q _ C.S._.`.`.[.`.S.V.a.C.{.OXOX#X$X&X<X<X#X X_._.[.#X,X,X,X6X7X7X7X7X7X7X7X7X7X7XcXcXdX7X7X7X7X3X7XnXDXDXDXDXDXSXSXSXSXBXnXvXgX&X) F x G L B N x h z N k g g e d g h t t t w t r w w w , 1 8 , , , > 1 8 1 8 , 1 > > ; = = z l 0 0 0 0 e e t d h z z c c v C C P P P I Y Y R R T V g - = > % 2 L i.i.w.w.w.w.w.w.d.d.d.n.n.n.g.w.w.q.L i 0 q c R o.O.,.,.,.f.g.l.z.z.z.c.z.z.z.z.z.z.z.z.z.z.z.z.z.z.z.z.z.z.z.z.g.z.z.z.z.z.n.z.z.n.n.z.z.g.f.,.O.O.} } } } } } } } O.O.O.O.O.O.O.O.o.>.>.>.*.*... .R P z O       .     . . . . . . . . X o o o o o o O X O + + + $ # $ $ + + + + = ; : : : 2 : < ",
"p y r 9 9 9 9 9 9 7 7 7 7 & 6 6 & & > > 6 & > > > > > 6 > > > > 5 6 > 6 & & > > 7 > > > 8 9 7 8 r u g G / ^ &.u.x.x.c.D.F.J.J.J.H.J.J.J.J.J.J.J.J.K.J.J.J.J.J.J.J.c.x.y.y.=.! T G B N l u u w 8 1 2 1 8 1 1 1 w u g z N N x z B U U U Q U U Q Q Q Q U G N y 9 > & # # # # # # # % % % % % % % % % & % % % & % $ % > 8 u w 2 p m C.<X<X,X<X_.D p.<X$X&X#Xp./ / ) _ ~ r 8 l l D K Q _ V.S.S._.`.`._.V.a.C.`.OXOXOX#X$X&X$X$X{._._.[.OX2X2X2X2X7X7X7X7X7XaX7X7X7X7X7XfXfX7X7X2X7X3X,X,XdXBXBXDXSXSXDXSXSXSXSXNXbXvXtXS.Q N B L L B z g h x h k z h g d g t e t w w u t w 0 2 , 8 2 , 0 > , , , 8 , 1 , > ; ; + z N e 0 3 3 q e e d h z j z c c C C V P P Z P I R R R E T c , , 8 7 - g ~ d.d.d.w.d.d.g.d.n.n.g.n.d.i.W h 0 0 f P X.O.O.O.>.e.f.z.z.z.n.n.c.b.n.z.z.z.z.z.z.z.z.z.z.z.z.z.z.z.z.z.z.z.z.z.z.z.z.z.z.z.z.z.z.z.g.,.O.O.O.O.O.O.} Z b Z } O.,.,.O.O.O.O.O.O.O.>.w.>.=.=...E ! W F $               . . . . . . . . . o o . . o o X O X X + + + + + + + + + = ; : ; : : 3 3 ",
"p i i r 7 7 9 9 9 7 7 7 & & 7 7 7 7 6 7 7 7 7 7 7 7 6 7 6 5 & & 5 & > > > > > 7 7 7 7 7 8 w 7 w t t g k L &.&.=.y.x.x.c.J.J.J.J.J.J.K.J.J.J.J.J.J.K.J.J.J.J.J.K.J.c.x.u.=.! U B N k g w w 9 8 8 8 8 7 7 7 1 > > > > 9 8 8 9 9 9 t l m D D G G U U U U U G z r 7 > % # # # # # % % # # % % % % % % % % % % % & % # % 1 p 8 > u m t.&X<X<X<X,X~ K [.<X<X<X X_ / / _ _ D 7 9 p D K Q ~ _ V.C._._.S.C.V.V._.[.OX#XOX#X$X$X$XOX`.C._.+X<X2X,X6X7X7X7X7X7XcXcX7X7X7XfXfXdX7X4X2X2X2X2X,X,X2XcXZXBXBXSXDXSXDXBXBXBXvXnXuX@Xq.G x B U B h h g z z k k g g d g t t t e e t t t 0 , , , 0 8 0 , - > , 8 0 2 , , , ; = k G t , 3 3 0 e e d d h h x c c V V C C C Z Z I I I I Y R  .T j < 0 8 6 9 S ) d.d.w.g.g.g.g.n.d.d.) x 0 0 s j | O.O.O.O.e.e.f.z.z.z.z.z.z.n.n.z.z.z.z.z.z.z.z.z.z.z.z.l.z.z.z.z.z.j.l.z.z.z.z.z.z.z.z.z.g.z.g.f.f.O.O.O.O.} } b b } } } O.,.e.O.O.O.O.o.O.>.w.w.w.>.=.o...! W F 8         . . . . . . . o o .     . . o o o o # # X O X + $ $ + # $ $ $ $ = * : : : : : ",
"y p r r 9 9 9 9 9 9 9 7 7 7 7 7 7 7 7 7 7 7 7 7 7 7 5 5 5 5 5 & & & & 6 6 > 6 7 7 7 7 8 9 r w w y t u k B T &.=.<.x.l.c.J.J.J.K.J.J.J.J.J.H.J.J.J.J.J.J.J.J.J.J.c.j.y.<.! U B z h t 0 0 9 9 8 8 7 1 > > > > > > > > 7 7 > > > > > > 1 w p l l m D G G D D D p 8 > % # # # # % % # # % % % % % % % % % % % % % % $ % 1 9 ; $ l K Q @XrX1X<X2X{.J ~ $X<X&X<XA.~ / ) _ ) u 7 u D K Q ~ ) p.V.C.C.V.p.p.C.[.[.OXOXOX#X$X#X X`._._.{.<X2X,X2X6X7X7X7X7X2X2X7X7X7X7XiXdX3X2X,X2X2X2X2X,X2X2X7XBXDXDXDXDXSXDXBXBXBXnXnXgX1Xa.G x B U L h h g k x z g g h t t d e e g t t e e e 2 , , 0 0 , 0 , > , 0 0 0 1 1 ; , ; u N e , < 3 0 0 e e d h z z j c c c V V V Z Z C Z Z Z R | R ....P f , 6 > > 0 S ) i.d.d.d.d.i.! c q , q f P >.,.O.,.e.e.f.f.g.l.z.z.z.n.z.z.n.z.z.z.z.z.z.z.z.z.z.z.z.z.z.z.z.z.z.l.h.l.l.z.l.z.z.z.g.g.g.g.f.O.O.O.O.O.} } Z b } } } O.O.,.,.O.O.O.O.O.O.O.w.w.w.w.>.X...! W F r               . . . . . . . . . . . o o o o o X # # X X $ $ $ $ $ + + + + * ; ; ; : : ",
"y p 9 7 7 9 7 7 9 9 7 7 7 7 7 7 8 9 9 8 7 8 9 8 8 7 7 7 5 & 5 5 & & & 6 6 6 6 7 7 7 7 8 9 p y t p t g z B U E &.<.h.h.j.F.J.J.J.J.J.J.J.J.H.J.J.J.J.J.J.J.F.J.c.c.x.1.&.U G N z g e w w w 9 8 7 1 > > > & > > > > > & & & & > & & > > 1 > 1 w y y l N D D m p 9 7 & # # # # % % # # % % % # % % % % % % % % % # % % > 1 ; ; u U Q A.1X4X2X2X2X_ D C.<X$X<X#Xt.~ ) ) ) K w w D K Q Q ) _ a.V.a._ _ p._.[.[.{.OXOX#X#XOX[._._.[.,X2X<X2X2X7X7X7X7X7X,X,X,X7X7X3X3X2X2X2X<X<X2X2X2X2X2X6X6XcXZXBXDXDXDXDXSXBXBXnXnXbXuX XU x B U U N d e d k z g h k s e e w e g g u t t t 0 3 , 2 0 8 0 8 , , 8 w 0 , , ; , ; e z q 0 , , 3 3 q e s h h h h j x c c V C P I Z Z Z Z R R | | | >...V d < 0 0 6 8 k W ( W H k q 3 s s V X.w.>.,.,.,.f.f.f.g.g.z.z.z.z.n.z.n.n.n.c.z.z.z.z.z.z.z.l.z.l.z.z.z.z.z.l.f.h.l.l.l.g.g.z.z.g.z.g.f.O.O.O.O.O.O.} } Z Z } O.O.O.O.O.,.O.O.O.O.O.O.>.w.w.w.w.>.o.&...T L g               . . . . . . . . . . . . o o o o o # # X X # $ % $ # + + + + * * * ; : : ",
"p r 7 7 7 7 9 8 9 r y i u p p t r t r t y p t r r w 9 8 7 & & 6 & & > 7 5 6 6 7 8 7 7 8 w p l l z u g z B T T &.=.y.h.j.F.J.J.J.J.J.J.J.J.J.H.H.H.H.J.J.F.F.c.j.c.h.=.! U B z k t t w r w 8 7 1 > > & & & & & > > & % & & 5 6 % & & > & % & 1 8 8 > y l l p p y 8 & # # # # % # # % % % % % % % % % & % % % $ % % % > > ; 2 u D U t.$X3X2X2X2X+XK K  X<X&X<X{.) / ) ) ) m 1 u J K Q Q ) _ a._ ) _ C.[.{.[.{.OXOXOXOX_.V.C.[.#X,X2X2X2X7X7X7X7X7X7X,X,X,X<X2X2X3X2X2X2X,X,X2X2X2X2X6X6X5XZXJXDXBXDXDXDXBXBXBXBXnXgXgXeXt.B B L L N h e s s k g h z h e e e t t g t e t e w e 3 3 , 0 0 0 8 , , 0 0 8 8 2 2 , t N q 0 : : 3 , 3 e e d h z z x c c M V V C Z C Z I I I  .| | | | *.<.&.P t 3 0 i 9 9 6 6 8 0 t f P X.w.>.,.>.>.,.,.f.f.f.l.z.z.z.z.n.b.n.n.n.n.n.n.n.n.z.z.l.h.h.l.z.z.z.z.z.z.l.l.h.z.l.h.f.z.z.g.g.g.f.O.O.O.O.O.} Z b Z } O.O.O.O.O.O.O.,.O.O.O.O.O.O.>.>.>.e.>.*.o.*...T W k               . . . . o o . .     . . o o o o o X + X + # $ % # + + + + + + + * ; : : ",
"y 8 9 9 8 7 w t l l z D J U Q U U Q U L U L B z u t u y w 8 8 8 1 & > 1 > > 7 7 8 8 8 9 9 l l l G D z z L T ! &.<.y.h.j.c.F.J.J.J.J.J.J.H.J.H.J.F.J.J.F.c.c.x.x.x.y.=.! L N k t t r w r w 8 > > 1 > > % % & & & & & & > 6 5 & & & & & & & & & % & & 7 9 r y p y 9 > # @ @ # # % # % % % % # % % % % % # % % % # % % > > ; 2 z m G /  X<X4X4X2X2XC.m ) #X<X<X&Xa.~ ) _ _ ~ u 1 l J Q Q ~ ~ ) _ _ V._.`.[.[.{.{.{.{.[.C.V._.+X,X,X,X2X4X7X7X7X,X#X+XOX#X<X2X2X2X2X,X,X2X2X,X2X2X2X7X7X,XVXUXUXFXBXDXSXSXBXBXBXBXnXgXgXuX'.L x B L G z s t d g k h h k t e e t e t u u t e 0 0 0 2 , 0 0 2 w 2 , 2 0 2 , 8 2 , t N d 0 , 2 3 2 4 e q s f h x c c c c c V C C Z Z I I I | | | | | $.| -.-.&.L h q i i q d g x P X.w.w.,.,.1.,.:.1.e.e.f.f.l.z.b.b.n.n.b.b.b.z.n.n.z.n.z.z.z.f.h.l.l.l.z.z.l.l.l.l.z.z.z.z.z.f.f.g.g.f.f.f.O.O.O.O.} b b } } O.O.,.O.,.O.O.,.O.O.O.O.O.>.>.>.,.e.e.>.>.o.*...R P k X             . . . . . . . o .   . . o o . o o X X X X X + % $ + + + + + + + = ; ; : ",
"p r r p l z N N N L L L Q / &.=.=.=.=.&.! &.&.Q U B B G N z g u r 9 2 7 2 8 8 1 1 8 w w t z k z G G L B P T &.*.w.y.j.x.F.F.J.J.J.J.J.J.J.J.H.J.c.J.F.F.c.F.c.x.y.e.=.T L z h u e r t r w 7 1 > > > > & % & % & & & & & > > & & & & & % % % % # % % > 1 7 9 r r 9 7 % # @ # # # # % # % % # % % % % # O % % % % % % > > > 2 K U N U A.$X4X4X4X4X<X/ n _.<X<X3XOX_ / ) _ _ K 2 r J Q Q Q K Q ) p.S._.`.[.[.[.{.[._.C.V._. X,X,X,X,X2X3X7X4X,XOX_.[.+X,X2X2X2X2X2X<X,X2X2X4X2X2X7X6X,XzXLXUXUXPXZXDXDXDXDXDXBXDXnXbXuXuX&Xt.x x L G N k d t t k k k z g e e e e e g z g t 0 0 t 2 , , 2 , , 0 , , 2 , > 1 2 2 t D h 0 , 3 3 2 4 4 q q d h z z z c x c V C C Z Z I Y R | | | | o.$.%.%.%.-.1.-.X.T L C I ..*.e.e.e.,.1.1.1.1.1.f.f.f.f.f.l.z.b.n.z.z.b.b.n.n.n.n.n.n.z.z.l.l.l.l.l.l.z.z.z.h.f.h.h.l.z.g.g.g.f.g.g.f.O.O.O.O.} } b b } O.,.,.,.,.O.,.O.O.,.O.O.O.O.O.>.,.e.e.e.e.>.-.*.*...! W D #             .   . . . . o o . . . o o o o o X X X o o X + $ $ $ + + + + + + = = = ; ",
"l l N L U ! &.&.^ =.q.w.w.<.<.<.<.<.<.<.=.<.<.w.=.E T P P C M n z l t w 0 0 t t 0 w t u g z z x N L U U I E ..*.w.y.j.x.F.F.J.J.K.J.J.J.J.J.H.H.F.J.F.F.F.F.F.x.y.y.=.! L x k h u t t r w 1 > > > > & & & & % & & & & & > > > & & & % & % % % # $ & > & & > > 1 7 7 & # @ # % # # # # % # # # # # # # # $ $ % % # % > > 7 ; D p.U U t.OX2X4X4X4X3X@XK Q $X<X<X<X[./ ) _ _ _ z 8 l K K J J Q ) a.C.S._.[.[.[.[.[.C.V.V.[.#X,X,X,X<X2X3X4X,X X_._.OX,X2X2X2X2X2X2X,X,X2X2X2X2X7X7X,XzXLXUXUXUXUXJXDXDXDXDXDXBXDXBXMXuXuXtX XL x L G N N h e 4 d h k g g t e e t t t g z g e t t 0 , , , 2 , 0 8 8 0 w 0 0 0 2 t D g 3 , 3 3 , 3 3 4 q s d h h j x x c V V C C Z I I Y | | | | | | %.%.%.%.-.-.1.1.e.1.,.1.,.,.,.1.1.1.e.4.f.f.f.g.g.g.f.l.z.z.z.z.z.n.b.b.n.z.n.n.n.z.z.z.l.f.h.h.h.l.z.z.l.z.f.f.f.f.f.g.f.e.e.f.e.O.O.O.} Z b Z } O.O.,.,.,.,.,.,.O.,.,.O.O.O.O.O.,.e.e.e.e.e.>.*.*.*.o...T F >             .     . . . . o o . . . o o o X X X X X o + + # $ $ + + + + + + $ = = = ",
"D U Q / =.<.w.u.u.u.y.h.x.j.y.y.y.y.y.y.w.3.<.<.;.*.&.E E E E T P V N x h g k k k k k l k z B B B P U ! T ..&.=.y.y.j.x.F.F.J.K.K.K.J.J.J.J.J.J.J.F.J.F.F.F.c.c.h.y.=.! U N z k l g r w 8 1 > > > > & & % & & > & & & & > > & & & & & & & & & % % > > > > % $ % % % % # # # # # # # # % # @ # # # # o # # # % % # $ > 7 9 ; l _.) G ~ _.<X4X4X4X4XrX_.D t.,X<X2X<Xa./ / _ p.~ u w l H D D K ) a.C._._.[.`.`._.C.a.a.C. XOX+X$X,X,X,X2X,X X_._.OX,X,X<X2X2X2X2X2X<X,X2X2X2X2X6X5XlXKXIXPXUXUXUXPXFXBXDXDXDXBXDXBXBXgXuXuX*Xq.B L U N N z d 4 s g g g g e 3 4 t g t t l k u t t 0 w 8 , , 0 0 0 , 0 r w 0 0 , e D d , , , , 3 < 3 q q e s d f h j c c V V V C Z Z Z Z R  .| } | %.%.%.o.-.-.>.-.>.O.O.,.,.,.,.1.1.1.e.e.f.f.e.f.f.f.f.f.l.z.z.f.z.z.z.n.b.b.n.n.n.n.z.l.l.g.f.h.f.l.h.f.f.l.g.f.f.f.f.f.g.f.e.e.O.O.} } } b b } } } O.O.O.O.O.,.,.,.,.,.f.e.O.O.O.,.,.e.e.f.e.e.1.-.*.*.o...T G 1             . .     . . o o o o . o o . o o o o o o o # + X $ $ X + + + $ $ + + + * ",
"Q ! / 2.w.u.D.D.D.F.c.c.x.c.x.x.x.h.h.h.y.y.1.<.<.;.;.&.&.&.$.&.E Y I P C C M c B B M M M V C P P T E  . .&.=.<.y.j.j.x.F.F.F.J.K.K.J.J.J.J.J.J.F.F.F.F.c.F.c.x.y.1.*.! U B c x N l t 8 1 1 1 > & & & > & > 1 > > > & > > > > & > > & & & & & % & & > > > % % % % % % % # # # # # # # # # @ # # # # o O # # % % # # > 1 1 1 r _ _ K Q t.#X4X7X7XrXrX2X_ K [.<X<X2X+X_ ~ _ _ p.U r w l m D K ~ _ C._._._._._.C.V.V.C.`. XOXOX$X,X,X,X,XOX_._.{.,X,X2X2X2X,X2X2X2X2X2X2X2X3X7X5X6XHXUXIXIXUXUXUXPXZXBXBXSXDXSXSXBXSXvXgXuXrX].L F L c x z g 4 3 g k h k h e e t g d t g z g t t 0 w 0 2 , 2 3 0 8 8 0 0 0 2 , t N t 3 , 2 , , < 3 3 0 q q s s f h x x v V V C C Z Z Z I R | | | | | %.-.-.-.>.>.-.>.>.>.,.,.>.,.1.1.1.,.e.f.f.f.g.f.f.f.z.z.g.f.l.z.n.n.b.n.n.n.n.z.z.z.z.g.f.f.f.f.f.f.f.f.f.f.f.f.g.f.g.f.e.O.} } } I b b } } O.O.O.O.O.,.,.,.,.O.O.O.e.O.O.O.e.e.e.f.f.f.e.e.e.>.-.-.*.o.R L 8             .       . o . . o o o . . o o o o o o o o + + + # + + + + + $ # + + + + ",
"/ q.u.u.x.D.F.J.J.J.F.F.F.c.c.x.j.h.h.h.y.y.4.<.<.<.<.=.*.&.&.$. .R R R E E R Y Y Y Y Y E E  . .E &.$.&.*.*.=.<.4.h.j.k.F.F.F.F.J.J.K.K.K.J.J.J.J.c.c.F.F.F.c.u.y.<.*.! T P V F N h e w 0 2 1 8 7 7 7 7 > 7 9 7 > 7 > > 6 7 6 > > > > > & # % & % % % % % % # # % # # % # # # # # # # # @ . @ @ # # . @ # # # # # % % 1 1 1 2 D Q Q Q ) +X2X7XyX7X7X4XOXQ ) $X<X3X2X[.) ) ) _ t.m 9 p l J K ~ ) p.C.C._._.V.a.a._.[.{. X XOX$X$X,X$XOX[._.[.#X,X<X2X2X2X,X2X2X2X2X2X2X2X6X5X5XHXUXIXUXUXUXUXUXVX-XmXBXBXSXDXSXSXSXvXgXgXtX&X) F L c B z k e : t k k g h e e e d k t t k g t t t e 0 0 , , 8 w w 0 0 0 0 3 , t z t 0 , 3 , , 2 , 0 3 3 q q s s f z x j c V V C Z Z Z R | | | | | o.o.-.-.-.>.>.>.-.:.:.,.,.,.,.,.,.1.,.,.f.f.g.f.f.f.f.f.z.z.l.z.n.n.n.n.n.n.z.z.z.z.z.l.l.f.f.f.e.e.e.f.f.f.f.f.f.f.f.f.w.O.O.} } Z b b } } O.O.O.O.,.O.O.,.,.,.O.O.O.O.,.,.,.f.f.e.f.f.f.e.e.e.,.>.-.*.o.E U 0                 . . . o . . . o o . . o o o o o o o o X O + X o + + # # + + + + + + ",
"q.u.u.D.D.J.J.J.J.J.F.F.F.c.x.j.j.x.j.x.y.y.4.<.<.<.<.=.=.=.*.*.*. . . . . .&.&. .&. .&.&.&.&.*.&.=.=.=.=.<.:.<.4.4.j.k.F.F.F.J.K.J.K.K.J.J.J.J.J.F.c.c.x.j.x.y.y.<.*.&.E T P L N x z g h g u t r r 9 7 7 1 7 8 9 9 1 > 8 9 8 8 8 8 w w 2 & 1 1 > & # # % % % % % % # % % % o . # # # # # . . . @ . . . @ # # # # % % > 1 1 8 l N / U ~ OX2X4XyXiX7X4X7X_.Q C.1X<X2X,Xa./ _ _ p.~ y 9 l K K Q ~ _ C.V.C.V._ _ C.[.{. XOXOXOX#X$X#XOX[._.[.OX,X,X<X2X3X2X,X2X2X2X,X2X6X7X5X5XGXIXIXIXUXUXUXUXCX}.}.6XBXDXSXDXSXSXSXbXbXnXuX<XA.L B x x z z g 3 q g h h h d d q t k d q g z d d g g 0 0 3 , , 2 0 0 , 0 0 0 0 d x t 3 2 3 , 0 , , 0 3 3 3 q e s h j j j x v V V C Z Z I R | | | | | o.o.o.-.>.>.-.-.:.:.,.,.>.,.,.,.,.,.,.f.f.f.f.f.f.f.f.f.l.z.z.z.c.z.z.z.z.z.z.z.z.l.l.f.f.e.e.,.,.e.f.f.f.f.e.e.e.e.e.O.O.} I b b } } } } O.O.O.O.O.O.O.O.O.O.O.O.O.O.O.,.e.f.e.e.f.f.f.f.e.e.e.>.-.>.o. .T d                   . . . . . . o o . . o o o o o o o o X X + X o X # # $ $ $ $ $ X + ",
"d.D.J.J.J.J.J.J.J.J.J.F.F.F.c.c.c.x.j.j.j.h.y.y.4.4.1.=.=.=.*.*.&. . .$. .|  . .&.&. .&.$.*.=.;.;.<.=.;.<.3.1.3.4.h.j.k.F.F.F.F.J.H.H.K.J.F.J.J.F.c.c.c.j.j.j.y.y.1.=.&.^ ! T P L L B x x z z k h g u e 3 2 e u k z g k N N N m m z l g g l y w 1 > > > 1 & % % % % % # # % @ . # # # # # . @ @ @ @ . . . # @ # # # % > 8 1 1 p N / U ) {.3X4X7XyX7X7XyX2X) Q #X2X2X4XOX_ ) _ ) _ D 8 y D K K ~ ) p.p.V.p._ _ _.[.[. X X XOX+XOX X_._._.OX$X,X,X,X2X2X2X2X2X2X2X2X6X6X6X,XZXUXIXIXIXIXPXPXCX-X}.-X-XiXDXSXSXSXSXSXbXnXSXuX&X@X/ B c x N k g q 0 t g d h g d q t d d t t k g d d g e 0 3 , 2 2 , 0 0 , 3 0 q g x g 0 0 0 , 3 3 , 0 , , 3 3 q s s h j j j x c v V Z Z I Y I R | | | | | | -.-.-.-.-.>.-.,.,.>.,.,.1.,.,.1.,.f.f.f.f.f.f.e.f.g.l.z.z.z.z.z.z.z.z.z.z.l.l.f.f.f.f.e.,.e.e.f.f.f.e.e.,.,.,.,.o.} b b b Z } } o.} O.O.O.O.O.O.O.O.O.O.O.O.O.O.,.e.f.f.f.f.f.f.f.g.f.f.e.<.>.>.o...E k .                       . o . . o . o o o o . o o o o X X + X X o # $ $ + + + + + + ",
"J.J.K.I.K.K.J.K.J.J.F.F.F.F.c.c.c.x.x.j.j.h.h.j.y.4.1.<.<.=.=.$.$. .E  . .| &.&.&.&.| *.*.*.*.;.;.*.;.;.:.:.3.:.4.h.k.k.F.F.F.H.H.H.H.H.J.J.F.J.F.c.c.c.j.j.y.y.w.1.=.*.=.&.E ! ! T U I P P L L L L L L V L L L L P T ! ! ! ! T T U U U W U G x k l u y u 9 1 & % % % # # % # @ # # # # # @ # @ # # . . . # . # # % & > 1 8 2 y m U U t.[.3X7X4X7X7X7X7X7X+XK _ <X,X4X3XA.) ) ) ) ) l 8 l J K Q ~ ) _ _ _ _ C.[.[.[. XOX X X X{._.C._. X$X,X,X,X,X,X2X2X2X2X2X3X3X7X6X5XCXIXIXIXIXIXIXIXGX=X=X=X=X}.:XmXDXSXBXBXSXbXbXSXuX&XtXA.G F z x z h d q e d e d k k d q g g t 3 d k g q d t 0 3 , 2 2 2 0 0 2 2 0 e g z g 0 0 0 , 2 2 , , , , < 3 4 q s d h h j x x c V C Z Z I I I | | | | | | -.-.-.>.-.-.-.-.,.>.,.,.,.,.,.1.e.f.f.e.f.f.f.f.f.l.l.z.z.z.z.z.z.z.z.z.z.l.l.f.f.f.f.f.e.e.e.f.f.f.f.e.,.,.,.O.I b b b } } } o.} O.O.O.O.O.O.O.O.O.O.O.O.O.O.e.,.e.f.f.f.f.g.f.f.g.h.f.e.1.>.>.*.....c X                     . . o . . o . o . o o . o o o o X o X X o X + # $ $ $ + + + + ",
"P.P.I.I.K.K.K.J.J.F.F.F.F.c.F.F.c.c.c.j.x.h.y.y.y.y.<.<.=.=.&.$.$. .R R  . . . .&.&.&.&.$.%.$.;.;.*.<.;.;.:.:.:.4.j.k.F.F.F.H.K.K.L.H.F.F.F.F.F.F.F.F.x.j.y.y.y.1.<.=.*.*.*.&.E ! ! ! ! ..! E E T T T T T R E E E ....&.............=.=.=...! ! ! Q N z g u w > & & % % # # # # # # # # @ . . . @ . . . @ # @ o # % & > 1 2 2 w l N K C.[.<X7X7XyXiX7X7X7X4Xp.Q [.2X2X7X$Xp.) ) _ p.K r r m K Q ~ ~ ~ ) ) p._.`.[.[.{. X{.[.[.`._._.{.#X,X,X,X,X,X,X,X<X2X2X2X2X6X6X,XVXUXIXIXIXIXPXPXGX-X}.=X=X=X}.}.2XBXBXBXBXBXnXnXBXhX4XuX&XW L k g N z d e 0 e e d k k d q g g t q q k z t q t e 0 2 2 , , , 2 0 0 0 0 g z g 3 2 3 0 2 , , , , , 3 3 3 q e e s h h j j c C Z Z Z I I R | | | | o.o.-.o.| o.-.-.-.,.>.,.>.>.:.,.,.1.e.e.f.e.f.f.f.f.f.l.z.l.l.z.l.z.z.z.z.z.l.l.f.f.f.f.f.f.e.f.f.f.f.f.f.,.,.>.o.Z b b b I } } } o.} O.O.O.O.O.O.O.O.O.,.,.O.O.e.e.f.f.f.f.f.f.g.f.f.f.f.f.h.1.>.>.>.o.E L #                   . o . . . o . . o . o o o . o o o o o X + + X X + # $ $ # $ $ + ",
"P.P.I.I.I.I.K.J.J.J.F.F.F.F.c.c.c.c.c.x.j.x.h.h.y.y.3.<.=.=.&.&.$. .R R E R E  . . . .$.&.$.$.*.;.*.<.:.:.4.4.4.7.h.k.F.F.H.K.K.L.L.K.K.H.F.F.F.F.F.c.x.j.y.y.4.1.<.=.*.*.*.&. . .! ! E E E R E E E R R E Y E  .&.*.*.*.*.&.*.=.=.=.=.=.=.=.=.=.=.&.! U B z y 1 & % % % % # # # # # # # . . . . @ . . . . @ @ # # % & > 1 1 2 3 e m Q A.[.$X7XyX7XyXyX7X7X7X,XQ Q ,X2X2X7XOX) ) _ t._ D w u J Q ~ Q K ~ _ C._.[.[.[.{.{.{.[.[._.C.[.OX#X,X,X,X,X,X,X,X,X2X2X2X7X6X-XcXPXUXIXUXIXPXIXHX-X}.=X=X=X=X=X}.|.iXDXBXDXDXNXNXNXnXyXyXuXp.L z g N k h e 3 q e t h g g g g g d d t d z h d d t q 0 , 2 , , , 0 0 0 0 g z k 0 , 0 0 3 , 2 , , , , , 3 0 e e e d h f h j x V Z C Z Z Z R | | o.o.| o.o.o.o.o.o.>.O.O.>.-.>.>.>.,.,.e.e.f.f.f.f.f.f.f.l.l.l.l.l.l.l.z.z.l.l.f.f.e.e.f.f.f.f.f.f.f.f.f.e.,.1.>.| Z b b b I } } o.O.O.o.O.O.O.O.O.O.O.O.O.,.,.O.,.e.f.f.g.f.g.g.g.l.f.f.f.f.f.f.e.1.>.>.o...U ,                   . . . o . o o o o o o . o o o . O X o X X + X X + # + + + + $ + ",
"XXP.I.I.I.I.K.J.J.J.F.F.F.c.c.F.c.F.c.x.h.x.h.y.4.1.<.=.*.&.&.&.&. . .R E Y Y R  . . .| | | $.*.=.*.;.<.<.4.4.4.7.7.j.F.H.L.L.L.L.I.L.K.H.F.F.F.F.F.x.j.y.y.4.1.<.<.=.*.*.*.&. ... .E E  .E E R R E  .E E E E  .&.*.*.*.*.&.*.=.=.<.=.=.<.<.<.w.q.=.=.=.! U D u 9 6 & & % % % # # # # @ @ . . # # . . . . . @ # % % > > 2 2 2 2 3 N ) '.OX#X2X7X7X7XiXyXrXyX7X`.D p.4X2X4X2X_.) ) ) _ ~ l w l K K J D ~ _ _._.`.[.[.[.[.[.`._.C._. X+X+X$X,X,X,X,X,X,X<X3X4X7X6X,XzXIXIXUXUXUXPXUXJX>X}.=X=X=X=X=X=X}.}.:XNXDXBXBXNXNXnXvXgXiXdX&XQ F k z k h d 3 0 e e d h k z g g g d t q g z h t t t , , 3 2 , 8 0 0 0 0 d z k 2 3 0 3 0 3 3 , , , , , , 3 0 0 q s d s f j j x C C Z Z I I I | | | | | | o.o.o.o.o.-.O.>.O.>.>.,.,.,.,.e.f.f.f.f.f.f.f.l.l.l.l.f.f.f.l.z.l.f.f.f.,.e.f.f.f.f.f.f.f.f.e.,.,.>.| Z b b Z I | } } o.o.O.O.O.O.O.O.O.O.,.,.,.,.f.e.,.f.f.g.g.g.l.z.z.z.g.f.f.f.f.f.f.e.1.>.*...! t                   . . . o . . . . o o o . o o . . # X o X X + X o X + + + + $ + + ",
"XXXXXXXXI.I.K.J.K.J.F.F.F.F.J.c.j.h.y.<.<.;.-.*.$.| | |  . . . . .R R R Y Y Y Y R R E  . . .| $.*.*.*.:.<.4.4.4.h.7.j.F.K.L.I.I.I.I.L.L.H.F.F.F.F.F.j.h.y.4.1.<.<.<.=.*.&.&. . . .E E E E E E E R Y E E E  .| | &.*.=.-.<.<.<.<.=.<.<.1.1.w.w.w.w.w.w.=.=./ Q D l r 6 % % & & % # # @ @ . . . . @ . . . . . @ # # # > 1 8 8 8 2 e U p.{.OX$X$X2XyX7X7XiXyXrXyX4X~ H {.4X2X7X,Xt.) _ _ a.Q u r n D D J ~ _ V._._._._.[.[.[.C.a._.{.OXOX+X$X,X$X,X,X,X2X2X3X4X6X,XlXLXUXIXUXUXIXUXKX5X}.=X=X=X=X=X=X=X}.|.|.2XDXBXNXNXBXvXgXnXfXdXuXt.U x z N z k d e t e e h z z g g d q d 0 d z h d t t 0 0 , , 8 w 0 0 0 0 t z k 0 , 0 0 0 3 3 2 2 , , , , , 2 3 3 q e s s f j j c v C Z Z I I R | | | | | o.o.o.o.-.-.O.>.O.>.,.,.,.,.e.e.e.,.f.f.f.f.f.f.g.l.f.f.f.f.f.l.f.f.f.e.,.,.e.e.f.f.f.f.f.f.e.,.O.| Z v b I | | o.o.o.O.o.o.O.O.O.O.e.e.e.e.e.f.f.f.e.e.f.f.g.g.l.z.z.z.z.z.g.l.l.f.l.h.e.e.,.-...! k                   . o . . . . o o o o o o . o o o O X o X O + X X X + $ # + = $ + ",
"XXXXXXXXI.K.K.K.J.J.F.c.x.u.w.1.<.-.-.<.<.<.<.=.*.*.*.&.|  . .R Y Y I Y Y I I Y Y E  . .R E  .&.$.&.$.;.1.:.4.4.h.j.F.H.L.L.L.I.L.L.L.L.K.H.H.F.k.j.j.4.4.1.<.<.<.<.=.*.&. . . .E E R R E R R E E R E E  . .| .. .&.*.=.<.<.1.1.1.1.1.4.e.w.w.w.w.w.<.=.=.=.! U m u 9 6 % % % % O O O . @ # . . @ @ . . . # @ o # % > 1 8 0 9 w u ~ _.OX#X@XOX@X4XyX7XiXiXyXyXiX+XJ ~ <X4X7X7X{._ _ _ V.p.m r p l D K ~ _ V._.[.`.[.[.[._.C.C.[.OX XOX#X#X#X$X,X,X,X2X<X6X6X,X7XKXUXUXUXUXUXUXLXlX=X=X=X=X=X=X=X=X=X=X-X=X|.iXDXBXNXNXNXhXnXbXfXfX@X/ F h x x z k e e q d d k N z d h d d d d d k g t q q t 0 , 8 0 0 w w e t k k 3 : 0 t e 0 0 0 0 , , , : , , 2 3 4 q e s f f z x c V V P I I I I R | | | | o.o.o.o.-.o.-.>.>.>.>.,.e.e.e.e.e.e.e.e.f.f.f.f.f.f.f.h.h.f.f.f.e.e.e.,.1.1.e.e.e.f.e.e.e.,.>.| Z Z I | | o.o.o.O.O.o.o.| O.O.>.e.e.e.e.e.f.e.f.f.f.f.f.f.g.g.g.g.z.z.z.z.z.z.z.z.z.h.f.e.e.>.o.! x                     o o o . . o o o . o o o o o o o o o X X X X X + + $ + $ $ $ # ",
"XXXXXXP.I.I.I.I.J.x.x.y.y.1.<.<.<.w.w.w.<.<.=.=.*.*.*.&.&. . .E R Y Y Y I P P I I Y Y Y R R  . . .&.*.;.;.:.1.4.h.j.F.K.L.I.L.L.L.L.L.L.K.K.H.H.c.j.h.4.4.1.<.<.<.=.*.&.| E  .E R R R R R Y Y R Y Y R E  . .&.&.&.*.*.=.<.<.w.y.y.y.y.y.y.u.w.w.w.<.<.<.w.q.q.! J z y 9 % % > 6 % O # # @ # # . . @ . . . @ . # % & > 8 9 9 8 8 l ~ {.OXOX{.V.S.$X4X4XyXiXyX7XiX7X_.D a.4X4XiX4XC.) ) p.a.~ l r p H Q ~ ) _ C.[.[.[._._.a.C.[. XOXOXOXOX#X#X$X,X,X,X2X,X6X,X6XKXUXUXUXUXUXUXPXlX=X=X=X=X=X-X=X-X=X=X=X-X-X}.+XNXBXNXNXBXnXnXgXfXdXuXS.U N z c h g d e q q t g z z k k d t q d d z z d q e t q 3 , , 0 0 0 e t k k , , w t t e 0 , 0 3 , , : : , , 3 4 q e s s h h x x c V C C Z Z I I | | | | o.o.| | o.o.o.>.>.>.>.,.,.,.,.1.1.e.e.e.e.e.e.e.e.f.f.f.f.e.e.e.e.e.e.e.,.e.e.e.e.e.e.f.e.,.o.I I | o.o.o.O.O.O.O.O.O.O.O.>.,.,.e.e.e.e.e.f.g.g.f.f.g.g.g.g.g.g.g.z.z.z.z.z.z.z.z.z.l.l.f.e.w.*.! D .                   o o . .   . . . . o o o o o o o o X o o o X + + + # + # $ # # ",
"XXXXXXXXXX8XI.c.y.y.y.y.y.y.y.w.w.<.<.<.=.=.*.*......... .E E E R Y Y I P Z Z Z I Y I Y Y R E  . .$.&.;.;.:.:.4.h.k.H.K.I.I.I.L.L.L.L.L.K.K.H.F.k.j.h.4.4.1.<.<.=.*.&...E Y E Y Y Y Y Y Y Y Y Y I Y Y R R  ...&.=.=.=.<.1.e.e.e.1.<.1.y.y.u.w.w.w.<.=.=.=.q.=.! U G z r > & > w 8 # # . . . @ @ . . . @ @ @ @ # % % > 8 8 8 8 2 m / {.#X X`.p.A.OX2XiX7X7XiXyXiXiX2X~ K +X7X7X7X$X_ ~ ) _ _ K w r J ~ ~ ~ ) _ _.`._._.p.p._. XOXOXOX XOX#X#X#X,X,X,X,X6X,X6XJXUXUXUXUXUXUXUXlX=X=X=X;X-X-X-X=X-X=X=X=X=X=X}.Q.,XNXnXNXBXnXNXfXhXfXgXrX) G z x x h h k h < q g z N z h d d q s d k x k t t 0 0 0 0 , , 0 0 t d z k 2 2 e e e e w 0 0 3 : , : , , , , < 3 4 q s s h j j x c V V C Z Z Y R R | | o.o.o.o.o.o.o.o.o.-.-.>.>.>.>.,.,.,.,.>.>.-.>.>.,.e.e.e.e.e.e.e.e.e.e.1.,.1.e.e.e.e.e.e.1.O.| | O.O.o.>.>.>.>.>.O.>.>.>.,.e.e.e.e.e.f.f.e.f.g.f.f.g.g.g.g.g.g.z.g.z.z.z.z.n.n.z.z.z.l.l.h.e.w.=.=.G X                 . . . . o . . o o . . o o o o o o X o X O X X X X + + + + $ # # ",
"XXXX8XqX8XI.J.h.y.x.y.y.y.1.1.<.<.=.=.=.=.&.&.&. . . .E E E R R R Y Y Y I Z Z Z Z Z Z Z Z I Y E  .&.$.*.;.:.1.4.h.k.H.K.L.I.L.L.L.L.K.K.H.H.F.F.k.j.h.4.4.1.<.-.*.&...E Y I Y Y Y Y Y I Y Y Y Y I Y R E R  ...&.&.&.*.=.<.1.y.y.u.y.w.1.1.y.w.w.<.=.=.=.=.=.=...! Q G l 1 > > u y % % . . . # # @ . . . @ @ . % & % > 1 1 8 8 w Q t.{.@X_.C.S. XOX#XrX7X7XiXiXiXiXiXOXH ) 2X6X7X7X[.~ ) _ _ ) m 8 l Q ~ ) ) ) p._._.p.p.C.[. X X{.OXOX XOXOX#X$X<X,X5X,X6XJXUXUXUXUXUXUXUXVX=X=X=X=X=X=X=X=X=X=X=X=X=X=X}.~.~.|.7XNXNXBXNXBXnXbXgXuXnX{.U x z c k h d h 0 3 q h N F z z k d s d k k k g q t 0 0 0 2 , , 3 e d k h , 0 t e e 0 0 e 0 0 : , : : : : , < < 3 q q s d h j j x V V C C Z I Z I | | | | o.o.o.o.o.o.o.o.o.-.O.>.>.>.>.,.,.>.o.o.O.>.,.e.e.e.e.e.e.e.e.e.1.,.>.,.1.e.e.e.e.e.>.o.| o.O.O.>.>.>.>.,.,.e.e.e.e.e.e.e.e.e.f.f.f.f.f.f.f.g.g.g.g.g.z.z.z.z.z.z.n.n.n.n.z.z.l.l.l.g.e.w.>.=.G X                 . .   . o .   . o . . o o o o o o X X X + o X + + + + + + # + + ",
"XXXX0XXXXXK.I.I.J.x.y.y.1.1.e.<.-.=.=.=.*.=...! E T E T Y T R T T Y I I P Z I Z C Z Z I Z Z Y R R  . .&.;.:.:.4.h.k.F.L.L.I.L.I.L.L.K.K.H.H.F.F.j.j.7.4.1.<.<.-.*.|  .E Y I I I I I I I I I Z I I I I Y Y Y E  .R R  ...*.*.=.w.w.y.u.w.w.w.<.<.<.=.=.=.=.=.=.=.=./ U z r 2 1 l p > $ o . @ @ . . . . . @ . . % & % 1 > > 8 w u p.p.{. XC.C.{.@XOX#X<XrXyXiXiXiXiXiXiXp.D `.7X7X7X2Xa.~ _ _ p.) y r J ~ ~ ) ) _ p._ p.C.[.{.{.{.{.OXOX XOX#X#X$X,X,X5X5XFXUXUXUXUXUXUXUXCX=X=X=X=X=X=X=X=X=X=X=X=X=X=X}.~.E.~.~.-XcXBXSXNXBXnXhXgXuXbXrX) N N N z x h e d q 0 e z N x z x x d q d k z z d d d 0 0 0 , , 3 3 e z g 0 0 e t t q q t e 0 3 , , : : , , : , 3 3 q e s d f h j j c v V C I Z Z R | | | | | | o.o.o.o.o.o.o.o.O.>.>.>.>.>.-.o.o.>.>.,.e.e.e.e.e.e.e.e.e.e.,.e.e.e.e.e.e.e.1.>.-.O.>.>.>.,.,.,.,.,.e.e.e.e.e.e.f.f.f.f.f.f.f.f.g.f.g.g.f.g.l.z.z.z.z.z.z.z.n.z.z.n.z.z.z.l.l.g.e.w.=.q.F o                 . . . . . . . . o . . . o o o X O X o o X o + X X + + X + $ + + ",
"XXXXXXP.XXXXXXI.J.J.J.x.u.y.<.<.<.=.q.q.q.q.=.! T T T T T I I U T I I P P P I I P C C Z P I I Y R  . . .*.;.;.4.h.k.F.L.L.I.I.L.L.K.K.H.H.H.H.F.k.j.h.h.4.<.<.-.*.| E Y I P P P Z Z P P Z Z Z C Z Z Z I R R E ......*.=.*.*.........*.=.=.<.<.=.=.=.=.*.=.=.*.=.&./ U n u 2 2 l l > # o . @ @ . . . . . @ @ # & % % 8 1 7 w w p `._ C._.A.'. X@XOX@X&X4XyXyXiXiXiX7XfX<XK K ,X2X7X7XOX_ ) _ p.p.K y p Q ) ) ) ) ) ) p.`.{.{.[.{.{. XOXOXOX#X#X,X,X,X5XGXUXUXUXUXUXUXUXGX-X=X=X=X=X=X=X=X=X=X=X=X=X}.}.~.E.~.}.}.}.2XmXBXBXBXNXnXhXuXgXnX XU x c z x k e d q 0 3 d N F z x c h d d z z x z d d q , 0 0 , 0 3 0 k g q 0 q t t q q t q 0 0 : : : : , , , 2 0 3 4 q s s d h h h j c v V C I Z Y Y R R R |  .| o.| o.o.o.o.o.O.>.O.>.O.O.O.o.O.>.,.,.,.e.e.e.e.e.e.e.e.e.e.e.e.,.,.e.e.1.,.>.>.>.>.>.,.e.,.,.,.,.e.e.e.e.e.e.f.f.f.f.f.f.f.f.g.f.f.g.g.g.z.z.z.n.n.z.g.z.z.z.z.z.z.z.z.z.l.g.w.w.=.q.F o                 . . o . . o o   . . . o o o o O # O + o X X O X + X X X X # + # ",
"%XXXXXXXXXXXXX8XXXXXP.J.u.u.u.q.=.! ! W W U F z z z z N N F F L L L L L P P P P P Z Z Z Z Z Z I Y  . . .o.$.-.:.7.k.H.L.L.L.L.L.K.K.H.H.H.F.F.F.k.j.j.h.4.1.<.=.*. .Y I P P P P P C Z C C C C C Z P Y T E R E ..........=.=.=.*.*.=.*.&...*.=.<.=.=.*.&.&.&.&.&.&.&.! B l e 3 l l 1 O o @ @ @ . @ . @ # # @ # # % & 7 8 8 w 1 z @X_ _ C.`.OXOX@X#X#X$X<XiXiXiXiXiXiXiXfX[.D ' 7X4X7X7X[.) _ p.a._ D 9 m ~ ) ) K K _ _._.[.[.[.[.[.{. XOX+X+X#X,X,X,XCXUXUXUXUXUXUXUXJX-X=X;X=X=X=X=X=X=X=X=X=X=X}.}.~.E.~.}.=X=X}.|.zXDXNXNXBXBXnXfXdXgXdXa.x c c x z h d t 0 : 3 z G x x c x d d h z x c k h d 0 , 0 3 , , 0 h d q 0 q q d q q e 0 0 e , : : - ; , , 2 3 3 0 q e e s h h h j x c V V C Z I I I Y R E | | | | | | | o.| o.O.o.O.o.o.o.o.o.-.>.,.>.,.1.e.e.e.e.e.e.e.e.e.e.e.e.e.e.e.,.,.,.e.>.>.,.1.,.,.,.,.1.e.e.e.e.e.f.e.e.f.f.f.g.f.g.g.f.f.g.l.z.z.z.z.n.z.l.z.z.z.z.z.z.g.g.g.g.g.e.w.=.q.F .                 . . . . . o o . o . . . o o o O O X X o X X X X X X X O + + # $ ",
"%XXXXXXXXX%XqXqXqXXXJ.u.w.=./ W x g 0 w 9 9 7 8 8 8 7 8 9 r t d h x B B B V V C P Z Z Z Z C Z Z Y  . . . .$.%.1.h.c.H.L.L.L.L.L.K.K.K.H.H.H.F.F.j.j.h.h.4.1.<.=.o.R I P P P I P Z C C C C C C Z I Y R R R Y R E E  .......&.*.*.*.*.*.&.&. ...*.=.*.&... ...! &.&.&.^ T G k e g l 8 O o @ @ @ # @ @ @ @ @ . # % % > 1 1 1 9 2 K #X_ _ _. X@X@X#X#X#X$X$X2XiXyXiXiXiXiXfX7X` n |.7X7XiX<Xa.) p.p.V.~ r 8 H ~ K n J _ _._.[.[.[.[.[.[. X+XOX+X,X,X,XVXIXUXUXUXUXPXUXJX-X}.=X=X=X=X=X}.}.}.=X=X=X}.~.~.~.~.}.}.=X=X=X}.:XmXmXnXBXSXBXvXdXyXnXrXQ N F F z k h q , , < g F F x N c h d d h x c c z h g , , 0 , , 0 h d q q q q d t q e e 3 t e , : ; - : , , 3 2 3 4 q q s f f h j x c v v C C Z I I I I R | | | | o.| | | | o.o.o.o.o.| o.o.o.O.>.>.>.>.,.1.e.,.1.e.,.1.e.,.1.e.e.e.e.e.1.,.,.1.,.,.e.1.1.,.,.,.,.e.e.e.e.e.e.e.e.f.f.f.f.f.f.g.f.f.l.z.z.z.z.n.n.z.g.z.z.z.z.g.g.g.g.f.e.g.e.w.=.q.x                       . . . o o o o o . . o o o o # X o o + + X O X X O # + X + $ ",
"%XXXXXXXqXqXXXXXP.d.r./ U B g w 1 > 7 > 6 & & & 6 6 6 8 8 9 r 3 3 4 4 s h z j c C C Z P Z Z Z Z Z  . .|  .$.%.:.j.F.H.L.L.L.L.L.L.K.K.H.H.H.H.F.k.j.j.h.4.1.<.-.o.R P Z Z I P Z C C C C C P P C P I T T T T T R E E ........=.....&.&... ... .E R  . .E E ! ! ! ..&.^ ! U B h g l w O @ @ @ @ @ . . . . . # % % % & > 8 1 9 9 Q {._ p.{.OX@X#X$X#X#X#XOX+XiXiXyXiXiXiXiXcX2XK Q 2X7X7X7XOX) _ p.a.p.D 2 p D n D ~ _ V._.[.[.[.[.[.[.+X+XOX+X-X:XcXLXUXIXUXUXUXUXKX5X}.=X=X=X=X=X}.}.~.}.}.=X=X}.~.~.}.}.=X}.=X=X=X}.}.6XmXnXNXDXBXvXnXyXgXnX'.F F B c c x t 0 , < e z F c c c h d s s z c c z h g t , , 0 , 0 k d q q e q h d q t t , e t , : ; ; : , , 2 2 3 q e e s s d h h j j c v V V C Z Z Z I R R R  .| | o.o.o.o.| o.o.o.o.o.o.o.o.o.-.-.>.>.>.,.,.>.,.e.,.,.e.e.e.e.1.e.e.e.e.1.,.,.,.,.,.,.,.,.e.1.1.e.e.e.e.e.e.e.e.f.f.f.f.e.f.g.g.f.g.z.z.z.z.z.z.z.l.z.z.l.l.g.g.g.g.g.f.e.w.w.=.q.k                     . . . . o o . o o . . . o o O O X X o + X o o X X X + X X + # ",
"%X%XqX%XXXXXJ.J.d./ U x p 0 > % > % & & % & & & & 6 6 6 6 t F z k e 4 e e 4 e s j M C C Z I R Y Z  .| $. .$.%.;.k.F.H.K.L.L.L.L.L.L.K.H.H.H.H.F.k.j.j.h.7.1.:.-.*.R Z Z Z Z Z C C C C C P P P C P P L L P P L F B F L L P T ! =.=.&... . .....E R I I Y E E ! ! ..&.! ! T U x g l w # @ @ @ # . . . . # # % % % % & 7 8 > w w Q V._ A.OX#X#X$X$X$X#XOX[.[.,XiXiXiXiXiXzXzXiX|.H s.7X4X7X7X_._ _ p.a.) p 9 y D ~ ` _ _ C._.[.|.|.|.{.OX{.+X-X-XzXLXUXUXUXUXIXUXLXlX}.}.}.=X=X=X}.~.}.}.=X=X=X=X}.E.}.}.}.}.}.}.=X}.=X}.|.zXBXBXBXSXmXmXcXyXbXuXi.F c c c c z t 0 , q d x F B c c k s s d x c x z z d q , , q 0 d g q q t q d d t d d 0 0 q 0 , , : : - ; : , 2 0 0 e s s d h h h x c v V V V Z C Z I R Y I R  . .| ..| o.} } o.o.o.o.o.O.o.o.o.-.>.>.>.>.>.>.,.e.e.e.e.e.e.e.e.e.e.e.e.e.e.,.,.,.>.>.>.>.,.,.,.e.e.e.e.e.e.e.e.e.f.f.f.f.g.g.g.g.f.z.z.z.z.g.g.z.l.g.l.g.g.g.g.g.g.f.e.w.w.>.0.! q                     . . .   . o . . . o o . o o o o X + X X o o o + # + # X + $ # ",
"%X%XqXXXoXJ.u.=.T B g 0 8 8 > > > & & & & & 6 > 6 6 6 6 > 0 F Q Q L G B h s s s s s s c C Z  .&. . . .$.$.$.%.4.F.H.K.L.L.L.L.L.L.L.K.H.H.H.c.c.c.c.j.h.h.4.1.<.*.R Z Z Z Z C C C C C P L L V B B B c z h t 0 2 2 2 0 0 3 e k B L ! ! ! ......E R Y Z Z I E ! ! ! &./ ! ! T B k l 9 # @ @ @ # @ . . # # # % % % % & w > % r u ~ r.r.{.$X$X$X$X$X$XOX`._._.OX4XiXiXiXzXiXzXzXiX` Q +X7X7XiX,Xp.) p.p.p.Q r 8 H _ _ _ _ V._.|.|.|.|.{.+X-X-X-XlXLXUXUXUXUXIXUXLXlX}.}.=X}.}.}.}.}.~.}.=X=X}.}.}.}.}.}.}.}.}.}.}.}.}.}.=X}.:XmXDXBXSXBXnXnXyXfXvX&XQ F B B B F h t 0 3 q k B B F B x h d d z B c c x k h t , q 0 d k q 0 t q d d t d t t t q e e 0 , ; - ; : , 2 3 0 0 t s d h h h j c v V V C C C Z P I I I R  .| | ..| o.| | o.o.o.o.o.o.o.o.O.O.O.O.>.>.>.>.,.,.,.e.e.e.e.e.1.e.e.e.e.e.e.,.,.,.>.>.>.>.,.>.>.>.,.e.e.e.e.e.e.e.f.f.f.f.g.f.g.g.g.g.g.z.z.l.z.z.z.l.l.g.g.g.e.g.e.e.w.w.w.=.q.Q 6                     . . .   . o o o . o o . . . o o o O X X X + o X X X + + + # + ",
"%XqX%XoXP.u.T x s 4 2 0 u i 6 > 6 > 6 6 6 7 7 6 6 6 6 6 > > D Q Q Q Q U L B x j s j j j j j Z &.$.$.| $.$.$.:.h.F.H.K.L.L.I.L.L.L.L.K.H.H.H.H.c.k.k.j.j.h.h.y.1.=. .I Z C Z Z Y P C C M x c c j f f s q 0 1 ; = ; % > > % $ > , , d F U ! R E T I T I P Z T E ! ! ! / / ^ T L N k w $ # @ . # . . @ # # # % & % & 7 w % 1 y m _ a.S.OX#X$X$X$X$X@X[.A._.{.#X<XiXiXiXiXiXzXiXzX,XQ _ 2X7X7XiX+X_ _ p._ _ D 1 p _ _ ` _ _ V.|.|.|.|.|.-X-X-X6XKXUXIXUXUXUXUXPXlX}.}.}.~.}.}.}.}.}.}.=X=X=X}.E.E.}.=X=X=X=X}.}.}.}.}.}.=X}.}.,XBXDXBXBXnXvXvXuXiXuXr.B F F F F x g q , < q z c F F c z h h s h x c c x z t 3 0 q k k q 0 t q d d t g d t t q e t e 2 - * = ; , , , 2 0 e e d h h j x c c v V C C V C P I I I R  .| | | | | | } o.o.o.o.o.o.o.O.o.O.O.O.-.>.>.-.>.>.,.e.e.e.e.e.e.e.e.e.e.1.,.,.,.>.>.>.>.,.>.>.>.>.>.e.e.,.e.e.e.e.f.f.f.f.f.f.f.f.f.g.f.g.z.g.z.g.z.z.z.l.g.g.e.e.e.w.w.w.O.X.! S @                         . . . o o . . . . o o   . o X + O X + # X + + + # + + # + ",
"%X%XoX.Xd.! N 4 3 q t D K H r 6 8 8 9 8 8 9 7 5 5 5 6 6 9 , m Q Q U L B c c j h j c C C j V Z Y Y $.*.$.$.%.4.k.F.H.L.L.L.L.L.L.L.L.L.K.H.H.H.c.k.j.k.j.h.h.e.<.=.| Y Y Y R T Y C j j h f s s f d h c z p w 6 > > ; > > % % % ; ; = , t k L W T P P I I P I T T ! ! ^ &.&.^ P B z r % # # . # @ @ # # # # % % % > 9 8 > 8 l ~ V.'._. X#X$X$X$X#X X_.C.].OX,X,X7XiXiXiXcXiXiXcXzX`.K [.7X7XiX7X`._ _ _ _ ) p 9 Q _ _ _ ` _ _.|.|.|.|.-X-X6XKXUXPXUXUXIXUXUXVX}.}.}.~.}.=X=X}.}.}.=X}.}.}.=X~.E.}.=X=X=X=X}.}.}.}.=X=X}.=X}.|.iXDXNXBXSXnXvXvXiXuX<XQ c c L L F k t 0 < , e x F L L z h x d s c c x c x d q d t g k q 3 q q d d d h g t t t q 0 t 0 , = - : , , , , 0 e e s h h z x c c c V C C V C C P I I R | | | | | | | | | o.o.o.o.o.o.O.O.O.O.-.-.-.>.O.>.>.,.,.e.1.e.e.e.e.e.,.e.,.>.,.>.>.>.>.>.,.,.>.>.>.>.>.>.>.,.e.e.e.f.f.f.e.f.f.f.f.f.f.f.g.l.g.g.g.z.z.l.g.g.e.w.e.w.w.w.w.X.X.! q   .                       . . . o o o . o . o o o X o X X X X X X o + + X + X + + X ",
"%X%X].2.L N z 4 e z Q Q Q K p 9 8 7 8 7 7 7 7 & & 5 & 6 9 w z G L B B M M M M B C P T E  .$.&. . .$.%.$.$.:.4.k.H.K.I.I.L.L.L.L.L.L.L.L.K.H.F.c.k.k.c.j.h.h.e.1.-.=. .R E R I V j s s s s s s f c F ! U t 8 8 1 6 > ; 6 > % % ; > ; > > 8 e z N F L L I I P I T T ! &.&.&.&.T L N u % . # # # # # # # # # % % % 8 8 7 > 8 J _ `.].].@X$X&X$X#X X_.V._.OX$X,X<X2X7XiXiXzXcXzXcXcX7X` ~ ,XiXiXzX,X` ` _ p.V.Q 9 p ~ _ ` ` ' _.|.|.-X-X-X5XHXUXUXUXUXPXUXUXVX}.~.}.}.}.}.}.}.}.=X}.}.=X}.~.}.~.~.}.=X=X}.=X}.}.=X}.}.=X=X=X=X=X+XNXBXBXSXNXvXbXfXiXuXp.U B B F F F k 0 < < q h c F L c x x z h z c F c c k t d q d k t 3 0 q d g d h h d q e q 3 t t , - = : , , : , 3 0 e e d h h j c c c V V C C C C Z P Y R R | | | | | | o.| o.o.o.o.o.o.-.O.O.-.o.o.-.-.>.>.>.,.>.,.1.e.e.e.e.1.1.,.,.,.,.>.>.>.>.>.>.>.>.>.>.>.>.>.>.>.e.e.e.e.f.f.e.e.e.f.g.f.g.g.g.l.g.l.z.z.l.g.g.e.w.w.w.w.w.w.w.X.! F X                               . .   o o o o o o o o   o X o + + X X X X + X + # X + ",
"oXZ.^ B h 4 e e D Q Q / ) Q D u w 9 8 7 6 6 > & % & 6 6 t g N B B B V L P P P P T T E &.&.=.*.*.$.%.$.%.;.4.j.F.K.L.I.I.I.L.T.T.L.L.L.K.H.H.H.F.c.k.j.j.h.y.y.e.<.<...E E R Y C j s a a h j x x L Q ! G 8 1 8 8 8 7 6 6 6 > ; ; > > > 6 > = , 0 k F L L L U T T E ! ..&.=.=.! T B g ; o # # # # # # # # # # # % 7 7 > & r ~ C.`.{. X#X$X$X#X X'.A._.OX$X$X,X<X2X7XfXiXiXzXcXzXcXcX$X( s.7XzXzX7X|.` _ p.V._ H 8 D _ ` ' ' _.|.|.-X-X5XHXIXIXUXUXUXIXUXGX=X}.}.}.}.}.}.~.~.}.=X=X}.}.}.~.}.=X}.=X=X=X}.=X}.}.}.}.}.=X=X=X=X=X|.,XmXBXBXBXnXvXfXuXbX X/ W F c F F c d q < e t k F L L c x x h z c S S c F z q q q k d 0 0 q t g g k g d d q q q t e , , ; : : , , , , 3 0 q e d h z c c c V C C C C P P P I R R R | | | o.o.o.| | o.o.o.o.o.O.O.o.o.o.O.-.-.>.>.>.>.>.,.e.e.e.e.e.e.e.1.,.,.>.>.>.>.>.>.,.>.>.>.>.>.,.>.>.>.>.e.e.e.f.e.e.e.f.g.g.g.g.f.g.g.g.g.g.g.g.e.e.w.w.w.w.>.O.q.X.! Q 2                               . . . . o o o o . o o o . o X X X # + + X X o o X + X + ",
"r.U N x g 4 g g G / / / Q Q D t 0 8 6 > ; ; = = > 2 0 g x N B V V V C P P P P P P P Y Y  .&.*.*.%.%.$.%.4.j.F.H.L.I.I.I.T.T.T.T.T.L.L.L.K.K.H.H.c.k.j.j.h.y.e.1.-.=.&... . .! E T P c j j c c c L U W x ; , 8 w 9 8 7 6 > > > > > > i i 9 > ; , , d x F L U T T T ! ..&.=.=.=./ U z > @ # # # # # # @ # # # # & 7 1 > 1 l ) V._. X.X$X$X$XOX`.A._. X$X<X&X,X,X,X,X7XiXzXzXcXcXcXcXiX`.Q :X7X7XcX7X_.) p.V._.) y r Q _ ' R.}.}.-X-X,XGXIXIXIXUXPXPXUXHX-XW.=X=X~.}.}.~.~.}.}.}.}.}.}.}.~.}.=X=X=X=X=X}.=X}.}.}.}.}.=X}.=X}.=X}.|.7XBXBXBXmXfXvXfXbXrXr.! W F F F F z d q q 0 e c W P B c c c z x S F S F c g q q h d q q 0 q g g g h h d q q q t q 0 3 , : : : , , , 2 3 0 e s d h c c c V V P C C P P P I Y R R | | | | o.o.o.| o.o.o.o.o.O.O.o.O.o.o.O.-.>.>.>.>.>.,.,.e.e.,.e.e.e.e.,.,.>.>.,.>.>.>.>.>.>.>.>.>.>.>.>.>.>.e.e.e.e.e.e.f.f.f.f.f.f.e.f.f.g.g.g.g.g.g.e.e.w.w.w.o.X...! W p                                   . . . o @ O o o   o o o o X X + # + + O X X X X + X X ",
"P B j h g k z z N F G G G L D t 0 q t i t p g h N U L F L P P P L L P P P P P C Z P I Y R &.$.%.%.%.;.3.h.F.H.K.L.I.I.T.T.T.T.T.T.L.L.L.L.K.K.H.c.c.k.j.h.h.e.1.<.-.*.&...&.&.&.E T T C B c M M B c x g , , , , 8 8 6 > > > > > > > p H H p 9 6 ; , 0 z B V P T T T ! &.q.q.=.&.! N > # % # # # # # . . @ # # > 7 > & 9 K _.[.[..X@X$X$XOX[.C.S. X@X$X&X<X$X,X<X#X,XiXcXzXcXcXiXiXcX7X` ` 6X7X7XzX,Xp._ _ _.p.K 8 p ` ' R.}.}.|.:XCXIXIXIXUXUXPXUXKX>XW.~.~.=X~.}.}.}.}.}.=X}.}.}.=X}.}.=X=X=X}.=X=X}.}.}.=X}.}.}.=X=X}.=X=X}.~.+XcXmXBXBXvXvXfXvXnX'.) ! L S F F F k d q q q d L W L B B c j j c F L c S c d d k d q q q q k g t g g d d q q t t t 0 , , : , ; ; , , , 3 q e d h z x c c V V P P P I I I Y R R | | | ..o.o.o.o.o.o.o.o.o.O.O.O.-.O.O.-.>.-.>.>.>.>.,.>.,.,.,.,.1.e.e.1.,.>.>.>.>.>.>.>.>.>.>.>.>.>.,.>.>.>.e.e.e.e.e.e.f.f.f.f.f.f.e.f.f.g.g.g.g.g.e.w.w.w.O.X.X.! ! W k X                         . . .     . .   o o o o . o o o o o X o X + X O X X o o X + # # ",
"c V ! =.! U N k h g g k z N D D D F F G F G L L T T ! T T T T I I P P P P C C C C Z I I R  . .$.%.;.:.h.D.H.L.I.I.I.T.T.T.8X8X8XT.T.L.L.L.L.K.H.H.c.c.j.h.h.y.1.<.-.*.&.&.| .. .R I P P L B V V V L B c k e , : , > ; > 6 6 9 r 8 9 n K U K m t , - , , e x L I T E ! ! &.=.=.=./ G > O # % % # # # # # # # % > 6 6 8 9 J `.OX#X@X@X$X@X]._.C.{.$X$X$X&X<X$X<X$X X[.,XcXiXiXcXzXcXcXcX,XQ |.7X7XzX7X[._ _ _ C._ n 9 K R.}.}.}.-XVXIXUXUXUXUXPXUXPX5X~.~.~.~.~.~.~.}.}.}.=X}.~.~.~.}.}.}.}.}.=X}.}.=X=X=X=X=X}.}.=X=X=X}.}.}.}.~.~.6XmXBXBXnXnXnXgXnX1Xr.t.W L S F L c d q q d s x W L F L c x j h c L F c c h s h d q q t t g g t g g d d e q q t t t , , 3 , : - = : 3 3 3 q e d h h c c c v C P P P P I Y Y R R | | o.o.o.o.o.o.o.o.o.o.o.-.O.O.o.O.o.*.-.>.>.O.>.>.>.>.>.>.>.>.>.1.,.>.>.>.>.>.>.>.>.>.>.>.,.,.>.,.,.,.,.e.e.e.f.e.e.f.e.e.e.f.f.e.e.e.e.g.g.g.g.e.w.w.w.X.X.T W W z X                                     . . o o o o o o . . o o o o X + + X X X X o o X X # # ",
"E u.oXoXJ.d.q.T L c x x x z N G L L L B B L P I I T ! ! T T E E T I P P C C C C C Z P I R  .$.-.;.1.7.k.H.L.I.I.I.I.T.8X8X0X0X0X8XT.T.L.L.L.L.K.H.H.j.j.h.h.y.y.1.-.*.*.&.|  .E Y Z C V C V V L P I I U U L B z d 0 , , > 9 r r 8 i H K K F D l 0 , , ; : g B P P T ! ! / =.=.=.&.L 2 O @ % # # # # @ # # % & 7 > & 9 9 D _.OX#X$X#X@X{.C.A.].OX$X&X$X&X<X<X$XOX_._.OXiXcXcXcXcXcXcXcXcX_.( +XzX7XiX2X_._ p.a._.) p r ` }./.;XVXIXUXIXUXUXUXUXPXlX~.~.}.~.~.~.~.~.~.}.}.=X}.~.~.~.~.}.}.}.=X=X=X}.=X=X=X=X=X=X}.=X=X}.~.~.~.~.}.E.}.iXNXnXMXmXmXvXvXuX Xd./ L F F L F x q q h d h c L W L F c c c z c L c c c h h g q q t q t t t d g g d d h e q q t 0 , 3 , , ; = ; : 3 3 0 q d d h c c c c V C C C P I I I Y R | | | o.o.o.o.o.o.o.o.*.o.o.*.o.o.*.o.O.O.O.-.>.>.>.>.>.>.>.>.>.>.>.>.>.>.>.>.>.>.>.>.O.O.>.>.O.>.>.>.>.>.>.,.e.e.e.e.e.e.e.e.e.,.,.e.e.e.e.e.e.w.e.w.O.X.! T W U g                                           o o . o o O o o o o o o o X + + X O + X X X o X + + ",
"D.oXXXXXJ.J.D.u.=.E T T P P I T T T P P P I T E T E ! ! E E ! T T I C C C V C I I Z I Y R  .*.:.1.7.k.F.K.I.I.I.T.T.8X8X0X0X0X0X0X8XT.T.L.L.L.K.H.H.k.j.h.h.h.y.1.-.=.=.*.&. .E R P Z C V V P P C P I T I T T U L L B z t 0 0 0 0 p H K H z p w w 8 , , , 3 h B L P T ! =.q.=.=.=.Q w # # % # # # @ @ # # % & 7 > & 8 9 D _. X@X$X@X XS.C._. X@X$X&X&X&X<X$XOX`.C.`.OX7XcXcXzXcXcXcXcXcX7X) _ 7XzXiXfX#X_ p.p.V.V.K 7 H E.;XxXIXUXIXUXUXUXUXPXlX~.~.~.~.}.~.~.~.~.}.}.}.}.~.~.~.~.}.}.}.}.=X}.}.}.=X=X=X=X=X=X=X=X}.~.~.~.~.}.=X=X~.-XcXnXvXmXmXnXvXuX1XS.d.! F c L U F x s s z c c L P L L c c c z c B B L B x z k t q q d d d g d g d d h g t q q t d 0 0 3 , : ; = : , 3 3 0 e d d h z c c V C C P P P I I Y R  .| | ..o.o.o.o.o.o.o.o.o.-.O.o.o.O.-.o.o.o.O.>.>.-.>.-.>.>.>.>.>.>.>.>.>.>.>.>.>.>.>.O.o.o.>.>.>.>.>.O.>.>.>.>.>.>.>.,.,.>.,.,.,.,.,.e.e.w.w.e.w.w.O.O...! W J g X                                           . o o o o o o o o o o o o X o X + X + X X + X X + + ",
"XXXXXXXXP.J.F.x.4.=.<.&.&.&.*.=.&.&.&.E E  .E ! ! E ! ! R T I I P C V C C C C Y Z Z Y  .$.;.:.4.1.j.H.K.L.I.T.T.8XT.8X8X0X0X0X0X0X0XT.T.T.L.L.L.H.H.c.j.j.h.h.y.1.-.-.=.=.*.&. .R I P P C C P P P P P I R R E T T I P P L F N x k k k k g g t r w 0 3 , , : 4 h c C I E =.=.=.=.q.! w O # % # # # @ . # # & 6 6 > 7 7 8 K  X{.OXOX{._.a.C. X$X&X&X<X<X<X&XOX`.C.`.OX$X2XiXcXcXcXcXcXcXcXcX+X) |.zXzXfX7X[._ p.p.C._ p i E.lXLXIXUXUXUXPXUXUXlX}.~.}.~.}.}.}.~.~.}.}.}.~.~.~.~.}.}.}.=X}.}.}.}.=X}.=X=X=X=X=X=X=X=X}.E.E.~.=X=X=X=X}.~.2XmXvXnXNXMXbXuXeX@X`.s.Q F c F W L k d h z c F L F B B L c c c c F F L F c k t q q t d d g d g d d h k g d t t d t 0 0 3 , : = : : : , 3 q e s d h z c B V V P P I I I R I R | | o.o.o.o.o.o.*.o.o.o.o.-.-.o.-.O.o.o.o.*.o.o.o.-.o.-.>.>.>.>.>.>.>.>.>.>.>.>.>.>.>.o.o.>.>.>.O.o.O.>.>.>.O.O.>.>.>.>.>.>.>.>.>.>.e.>.O.w.w.w.>.O.X.! W G w X .                                         . o o . o o O o o X o o o o o o o + + # + X # O X X + ",
"0X0XXXXXP.J.K.F.j.4.<.;.;.;.;.=.=.;.=.*.*.*...! ! E R R E R C V M V C P P P Y Y Y Y R $.;.4.4.7.j.F.L.L.L.I.T.8X8X8X8X8X0XwXwXwX0X0X9XT.T.T.L.L.K.H.H.c.c.h.h.y.1.-.-.<.=.=.*... .R I P C C V C P P P I Y Y T T E T I T T U L c x z d q q t d t d d d d q 3 4 g c V T ! =.=.=.=.q./ u O # # # # # @ # # % & 7 & & % > > ~ #X X.X{._.A.C.{.$X&X&X<X<X<X&XOX[.C._.OX$X<X<X7XcXcXcXcXcXcXcXcXcXp.` 6XcX7XzX2XC.p.V.V.V.Q 9 ( xXIXIXUXUXIXUXUXVX}.~.}.}.}.}.~.~.~.}.}.}.~.~.~.~.~.}.=X=X=X=X=X}.}.}.}.=X=X=X=X}.=X=X}.~.~.~.}.=X}.=X=X=X}.|.cXBXnXmXnXbXgXyXeX].`.i.W S c W W S k d d h x L B L L L c c c c L L B L F g t q q q d d d d g g d k z z g t t t t t q , , , = = : : : , q e t d d h c c c B L P I I I R I I R  .| o.o.o.o.o.o.o.o.O.-.O.*.-.o.O.o.o.-.o.o.o.o.o.o.o.>.>.>.>.>.>.>.>.>.>.>.>.>.>.>.O.o.O.O.O.o.o.o.o.o.o.O.o.>.>.>.>.>.>.>.>.>.>.w.>.O.>.>.O.X.X.! ! F w X                                               . o o o o o o o # O o o o o o o # + + # + + O + X X ",
"0XXXXXXXI.K.J.F.j.h.4.4.<.;.<.;.<.<.=.*.=.=.=.&.E E Y Z Z C V C C P Y Y R Y R E Y  .%.1.4.7.k.F.H.K.I.I.I.T.8X8X8X8X0X0X0XwXwXpXwXwX0X8XT.T.T.L.K.K.H.c.c.h.h.y.1.>.-.<.=.=.*.*.&. .R T I P C C C P P T T T T R R R R E E T P C c c x h z z h h x x x x x h s h B P T &.&.=.=.<.=./ l O # @ # # # # # # % & 6 > & % % > _ OX{.].A.V.A.'.OX$X&X<X<X<X<X#X].C.C.[.#X,X,X<X2X7XmXcXcXcXcXcXcXmX2X( Q.lXlXzXzX+Xp.p.V.p./.H A kXIXIXUXPXIXUXCX=X}.~.~.}.}.~.~.~.~.}.~.}.~.~.~.~.}.}.}.}.}.}.=X=X=X=X}.=X=X}.=X}.}.}.~.~.}.=X=X=X~.}.}.}.}.}.,XmXNXmXmXmXvXuXyX&X X`.Q F S c L U c z s s x L B F L c c c c c c B c c F z d q q q d d k d d g g g h k z d q q t t e , , , : - - - - , 0 0 q t d h x x c c V P P I I E R R R  .| ....o.o.o.o.o.o.o.-.o.o.-.o.-.o.o.o.o.o.o.o.o.o.o.-.-.-.-.>.>.>.>.>.>.>.>.>.>.>.-.O.O.o.o.o.o.o.o.o.o.o.o.o.O.O.O.O.o.O.>.>.O.w.>.O.O.X.X...! W S w X                               .                   . . o o o o o X X X o o o o o # # + # + X + + X X ",
"0XXXXXXXK.J.J.F.D.7.4.4.4.1.:.;.<.-.<.=...E R Y P C C C C Z Y E  . . . . . . .o.%.1.h.j.j.k.G.H.K.L.I.T.8X8X8X8X8X8X0X0XwXwXpXpXwXwX0X8X8XT.T.L.K.K.H.c.c.c.h.h.e.<.-.-.-.=.=.=.*.&...E ! R I P Z C C P Y T R R E T R E E E R T T P P V V B c c V V c M V C B c V I ! &.=.=.=.<.=.=.N O # @ # # # # # % & & 6 > & & # p {.OX{.C.p.p.'.@X$X&X&X&X&X&X#X[.S.V.`.#X,X,X,X<X2X2XcXmXcXcXcXcXcXcXmX|.( :XzXzXcX7X|.' s.' |.E.A E.GXIXIXIXUXHX-XE.}.~.~.}.~.~.~.~.~.~.~.}.~.~.~.}.}.}.}.}.}.=X=X=X=X=X=X=X}.}.=X}.}.~.E.~.}.=X=X=X~.}.}.}.=X=X-X7XmXvXvXvXvXgXuXrX+X@X!.L L S c L L c h s s B F c F B c c c c c c B c c x g t q d d d z d q t g g g k z g d q q q t q 3 , , , - = = : , 3 0 q d d h h z c c V C P I R I I R R | | | | o.o.o.o.o.o.-.-.o.o.O.O.o.o.o.o.o.o.o.o.o.o.o.o.o.o.o.-.>.>.>.>.>.>.>.>.>.>.-.o.O.o.o.o.o.o.o.o.o.o.o.O.>.O.o.o.o.o.o.O.O.o.X.X.X.! T P F t % X . . .                                           . . . . o o o o o X o o o o o o + + + + + + + + X X ",
"XXXXXXXXJ.J.x.j.4.4.:.;.:.;.%.$. . . .R I C C C C Z Y  .&.*.&.*.*.$.$.o.o.*.-.<.4.7.k.k.k.F.K.L.L.I.T.T.8X8X8X8X8X0X0XwXpXpXpXpXwXwXwX8X8XT.T.L.L.K.H.c.c.c.j.h.y.e.<.-.-.<.=.=.=.=.*.....E R T I Z C C P P Y R R R R E  . .E E E E R I P P C P P P I Y T T I C C T ..&.=.=.=.=.=.q.G $ O # # # # # % % & > 6 > & % % Q #X{._.p.t.C. X$X$X&X&X&X$X#X[.C.C.`.@X<X<X<X<X,X2X,X2XcXmXcXcXcXcXcXmXlX` ` 7XzXlXcX6X}.' Q.}.-XE.A (.KXIXIXKX-XE.}.~.~.~.~.~.~.~.~.~.~.~.~.~.~.}.}.}.}.}.}.=X=X=X}.=X=X=X}.}.}.}.=X}.}.}.}.}.=X=X}.}.}.}.=X=X;X=X:XcXmXcXvXmXvXuXuX&X.X&X) W U c S L F c h 4 x L c B L L F B c c c c c c k h d t t d d z h q q d g g z c k g d q q d t 3 , , , - - ; , , , , 0 q q d d z c c V V C C I I R R R | | | | ..o.o.o.o.o.-.>.*.o.o.o.o.o.o.o.o.o.o.o.o.o.o.o.o.-.-.O.-.>.>.>.>.>.>.>.>.>.>.O.o.o.o.o.| | | ..o.| o.o.o.o.o.| | o.o.o.X.X...R R W L c g 9 > % . . .                         .                     . . . o o o O O o X o o o o X + + # + X X + o o ",
"XXXXXXP.J.D.u.4.:.;.;.%.$.| Z Z Z Z Z Y Y R R  . .| *.*.*.*.*.*.*.*.-.-.-.:.4.j.k.k.H.K.H.K.L.L.L.I.T.8X8X8X8X8X0X0XwXwXpXsXpXpXwXwXwX9X8XT.T.L.L.K.H.H.H.c.c.l.y.e.<.-.<.<.<.=.-.=.=.=.&.......E Y I Z C Z P P I R E R E .. . ...E  . .E R T R R R R Y R R T P Z R E ..=.=.=.=.=.=.U ; O # # # # # # % & > > 7 > % 7 _ OX_.C.p.V.{.#X#X#X&X&X&X$XOXS.V.S.OX<X2X,X<X<X,X<X+X|.2XcXcXcXcXcXcXcXcX,X` |.cXcXcXcX:X}.}.}.-X;X( A lXUXKX>XE.~.}.}.~.~.}.~.~.~.~.~.~.~.~.~.}.}.~.}.}.}.}.}.}.}.}.}.=X}.}.}.}.}.}.}.~.=X=X=X=X=X=X=X=X=X=X=X;X>XxXJXFXmXbXmXbXuXvXrX+X&X].Q W F x F L F c s q L B h L F F F c c c c c c c z g d t g d g h d 3 d z f d x c k d q q t d q , , , , - - - - > , , q q t d h x c c V V V P P I R I R  .|  .| o.o.o...o.o.o.o.o.o.-.o.o.o.o.o.o.o.o.o.o.o.o.o.o.>.*.>.>.>.>.>.>.>.>.>.>.>.*.o.o.o.o.| .. .......o.o.o.o.........X.X.....R I P L c k 0 , > > O                                               . . . . o o o o o o o o o o o X o X X + + + + + o o ",
"qX0XXXXXK.K.J.D.j.7.4.;.%.$.%.;.;.;.:.:.:.:.;.;.;.;.;.;.;.;.:.;.;.:.4.4.7.7.j.F.H.H.H.K.L.L.L.L.L.T.T.8X8X8X8X8X0XwXwXpXsXsXsXsXpXwXwX0X8XT.T.L.L.K.K.H.H.n.c.z.l.h.e.-.-.<.<.=.-.<.<.<.=.*.o...|  .R R Y I I Z Z I R R R E E .... ..... . .R R  . .E R R R R R Y Y E ..*.=.=.=.=.=.! : O # # # # # # & > > > 8 > > p C.[.C.p.a.'.OX#X@X#X&X&X$XOX[.C.S.{.$X<X<X,X,X$X$X#X[._.OXzXcXcXcXVXcXcXVXVX|.( ,XcXzXcXlX=X}.=X-X>X}.A ( lXkXE.E.~.}.}.~.~.~.~.}.~.~.~.~.~.~.~.}.}.}.=X=X}.}.}.}.}.}.}.=X=X=X=X}.}.}.~.}.=X=X=X=X=X=X=X/.=X;XlXGXLXIXUXPXZXbXnXmXvXuXuX<X+X Xr.! W F c L L c z q f L h h L L L F c c c L F F k d d q d h k k g , q k h d k z k h d q q g d q , , , , - = - - - , 0 0 0 t d f h x c c B V C P I I I T R R  . .| |  ...o.o.o.o.o.o.o.o.o.o.o.o.o.o.o.o.o.o.o.o.o.o.o.>.>.>.>.>.o.o.o.>.>.*.o.o... .R ......| ..X...........R R R R R T I P L F x d q 0 , > %                                         .       . . . o o o . . o o o X X o X o + + + # $ # + X + ",
"wXqX0X0X0X0X0X8XXXI.K.H.F.k.j.j.h.h.4.4.4.4.4.4.4.4.4.4.4.4.4.4.4.7.h.j.k.k.c.H.H.L.K.L.L.L.T.T.T.T.8X8X8X8X8X0X0XwXpXpXsXjXjXjXsXpXwX8XT.T.T.L.L.L.K.H.H.n.n.c.z.h.e.<.<.<.<.-.-.<.<.w.<.-.*.*.*.o.| | .. .R I I Z I I I R R R  ....... . . .R  ..... . .E  .E R E E &.*.=.=.=.<.=.&.e O # # O # % % 1 7 7 8 7 > w K `.C.p.p._. XOX@X@X$X&X$XOX_.C.S. X#X$X,X$X$X<X#XOX[._.|.|.2XcXcXcXcXVXVXVXCXlX` ' 7XcXlXcX6X}.=X-X>X>XE.A ( E.~.E.E.}.}.~.~.~.~.~.~.~.~.~.~.~.~.~.=X=X=X=X}.}.=X}.=X=X=X=X=X=X=X}.}.}.}.}.=X=X=X;X;X=X=X>XxXHXPXUXIXIXIXLXZXmXnXmXBXvXvX4X&X+X].) Q W L c c L c s s L P h F L L L L c c B F S k f d q q z z x z q q d z z k k z z g t 0 d d q 0 , , , , - - - - - , , 0 q t d f z c c c V C I P P I I I R  ...| ..| ..o.o.o.o.o.o.o.o.o.o.o.o.o.o.o.o.o.o.o.o.o.o.o.o.o.O.O.o.o.o.o.=.*.o.o.o...| R | E R R E E .. ...E R R R R I I P P L c c h d q q 0 > % o                                   . . .     . .     o o o o o o o X o o o o o X X X # # # + + # ",
"pXwXwXqX0X0X0X0XXXI.I.I.I.L.H.F.k.h.h.h.h.4.4.4.4.4.4.4.4.4.4.h.h.j.k.c.H.H.H.H.L.L.L.L.L.T.T.T.T.8X8X8X8X8X8X0XwXwXpXsXsXjXjXjXsXpXwX0X8XT.T.L.L.L.L.K.K.H.c.c.z.l.h.1.<.<.-.-.-.-.<.1.e.1.<.-.-.-.*.o.....| | Y I Y I I I I Y R R | | ..| |  ... . . . . . .........&.=.=.=.=.<.=.q.g # # # # # % & 1 7 > 8 , > l ) C.p.p.C.{.OXOXOXOX#X$XOX_.V.V.].#X#X$X,X,X,X,X#X{._.[.OXOX,X7XcXcXcXVXVXcXVXCX,X( |.cXcXcXcX:X}.-X>X>X=X( A ( E.E.E.~.}.~.}.~.~.~.~.~.~.~.~.~.~.~.=X}.}.}.}.}.=X=X=X=X=X=X=X=X}.~./.=X=X=X=X=X=X=X;XlXGXLXUXUXUXIXIXLXGXkX6XcXmXNXBXgXvXyX1X&X@Xr.! W L c c B B c f j L B z c P P L B c c c F c h h d d h z x z d q q g g k z z c z g q t d q q 2 , 3 , > - - - - - - , 0 q t d d h c c c V C C C I I I R R  .| | | | ..o.o.o.o.o.o.o.o.o.o.o.o.o.o.o.o.o.o.o.o.o.o.o.o.o.o.o.o.o.o.o.o.o.......R R R R R R I I I R R R I I I I P P P L V c x h d t q 0 > ; O                                     . .     . . .   . o o o o o o O o o X X X + + + + # # # + + ",
"sXpXpXpXwXqX0XqX0X0X8XT.I.L.L.K.H.k.k.j.j.h.7.7.7.7.j.7.h.j.j.j.c.c.F.F.H.H.H.L.L.L.L.L.L.T.T.T.T.8X8X8XT.8X8X0XwXpXpXsXsXjXjXsXpXwX0X9XT.T.T.L.L.L.L.K.K.H.n.n.z.z.l.e.<.<.-.-.<.<.<.<.1.e.1.<.-.-.-.*.*.*.*.o.| o. .R I R R R | |  .| | | | | | | | .... . .....o...*.=.<.=.=.<.=.w.z O # # # # % & 7 7 > 8 8 7 D p._ _ V.'.OX@XOXOX@XOX X_.V.V.C. XOXOX$X$X$X$X$X X_.[.OXOX#X,X2XcXmXcXcXCXVXVXCXVX}.( 2XcXlXcXlX-X-X-X>X>X}.H ( E.E.E.E.}.~.~.~.~.~.~.~.~.~.~.~.~.~.=X}.~.}.}.}.=X=X}.}.}.=X=XW.W.W.=X=X=X=X=X=XkXVXHXIXUXUXIXIXIXHXxXkX;X;X-XlXCXcXNXvXbXbXrX&X<X1Xt.! W L c c L L z f c W c c L P L B c c c F F c h d d d z z k g 0 q d g x h h x c z d t t t q 0 0 , , , - = = = - , , , 0 q q d h x x x c V C C P I I I R | | | |  . .| ..| ..........o.o.o.o.o.o.o...o.o.o.o...o.o.o.| X.o.o.o.X.X..... . .R R R I I R I I I I I I I I P P P P L L B c c x h h d e t , , $ o                                 . . .       . .       . o o o o + o o X X X + X X + + $ # + + ",
"jXsXpXsXpXwXwXwXwX0X9X8XT.T.L.K.K.H.H.F.F.k.j.j.j.k.k.k.F.F.k.c.F.F.H.H.H.H.H.L.L.L.L.L.L.T.T.T.T.8X8XT.T.T.8XwXpXpXpXsXsXjXjXsXpXwX0X9XT.T.T.L.L.L.L.L.K.K.n.n.z.z.z.y.e.e.-.*.-.<.e.1.e.e.e.e.e.<.-.-.<.-.=.*.*.*.o.o.o.o.o.o.| | | o.*.| | ....| o...o.o...*.*.=.*.*.<.<.=.<.<.<.w.N + O # # % & > 8 > % 7 r w K p._ V.'.{. X@XOXOX@X X_.p.t.C.].OX#X#X$X$X$X$XOX`._.OXOXOX$X,X,X7XmXcXcXCXCXVXVXZXlX` Q.zXcXcXcX6X-X-X-X-X-X( A ( E.E.E.~.~.~.~.~.~.R.~.~.~.~.~.~.~.}.}.~.}.}.=X=X}.=X}.}.=X=XW.=X=X=X=X(.;XlXGXLXIXIXUXUXIXHXxXlX;X(.(.;XlXVXJXJXcXmXmXvXmXuX1X+XyX`.q.! P B c B L c x x L L z c L L L L c c L L c h d s h d d z d q 0 q h x k g k z x k t q q q q 0 , , , , - - = = - - , , 0 t d d h h z c c V V C P I I R R R R R  .|  .|  . .|  . .| ..o.o...o.o...o.o.o...o.o.........o.X.X.X.........R R R R R R I T I P I I I I I C P P P P L L c c x z z h d q 0 0 , ; O                             .   .               . . o o o o o # + o o X X o o o X + # # + # # ",
"AXjXjXsXsXpXwXwXwX0X0X8XT.T.I.L.K.K.K.H.H.H.k.k.k.k.c.F.H.H.F.H.H.H.H.H.H.H.H.L.L.L.L.L.L.T.T.T.T.T.8XT.T.T.8XwXpXpXsXsXjXjXjXpXwXwX0X8XT.T.L.L.L.L.L.L.K.K.n.n.z.z.z.h.y.e.1.-.>.<.1.1.e.e.e.y.e.1.1.<.<.>.-.-.-.-.-.-.-.-.-.*.*.*.*.-.*.*.*.*.*.*.=.*.*.=.=.*.=.-.*.=.<.<.=.<.<.1.w.B + % # # & > 7 7 > & 7 r p ~ p.V.]. X.XOXOXOXOX X_.V.p.V.{.OX#X#X#X$X<X$XOX[._.{.#X#X#X$X<X,X2XzXmXcXVXVXVXCXCXZX-X( :XcXcXVXcX5X-X-X-X-X=XH A ` E.E.~.~.~.~.~.R.E.~.~.~.}.~.~.~.}.}.~.}.}.=X=X}.=X=X=X/.=X=X=X=X;XkXVXKXIXIXIXUXIXKXGXlXkX;X(.(.kXxXHXLXUXUXPXZXZXBXmXnXbXuX+X<X@Xs.) W L L F L L c j c L c j c L L F c c L L c c h d z d q k k d q 0 g c z d g g z z d q t t t 0 3 0 0 3 , - = = = - , , 3 0 t t d h h x x c c v C P I I I I I I R R R |  . .| ......o.o.......................................! E E R I R I I I I I I I C P P C P P P P P L L L B c c x j h d d t q 0 0 1 % X                           .   . .   . .   . .   . . o o o o O X o X + X o X X + + + # + # $ ",
"AXjXjXjXsXpXwXwXwX0X0X8X8X8XI.L.L.H.H.H.H.H.F.c.F.F.H.H.H.H.H.H.K.H.K.K.H.K.L.L.L.L.L.L.L.T.T.T.T.T.T.T.I.8XwXpXpXpXsXsXjXsXpXpXwX0X8X8XT.T.L.L.L.L.L.L.K.K.n.n.n.z.x.l.h.y.e.<.<.1.e.e.e.e.1.h.h.y.y.1.:.:.<.<.:.<.<.>.-.-.-.-.-.-.-.-.-.*.*.-.*.*.*.*.*.*.-.*.*.=.-.=.<.<.=.=.<.1.u.U + % % % & > > > > > 9 r D ) a._. XOXOXOX.X X X'.V.r.V.].OXOX#X$X#X$X$XOX[._.{.#X#X$X$X&X<X,X,X7XcXVXVXVXCXCXCXCXVXQ.` 6XcXzXVXlX-X-X-X-X>XE.A H E.~.~.~.~.R.R.R.E.~.~.}.~.~.~.~.~.}.}.}.}.}.}.}.=X=X/./././.;XlXHXIXIXUXIXIXLXHXxXkX;X(.;XkXlXGXKXIXUXUXUXUXUXPXZXBXmXbXbXvXrX1X<Xd.s./ W P L F F L c z L c c x c L L L c c L c c z h c c d k z d q q t z x g d g k x h q q q t q 0 0 0 3 , - - = * = - - , 3 0 0 e d d h z c c c v V C C P I I I I I R R R  . ............. ..... ... ... . ... . ... .E  . .E R R E R I I I I I I P I I P P P C P P P P L V c B c c c c z h d d d t q 0 0 > X                             . . . . . . . . . . . . o o o o o X X X X + o X X X o + # # # # ",
"jXAXjXjXpXpXpXwXwXwX8X8XT.8XT.L.L.L.L.H.H.H.H.H.H.H.H.H.H.H.H.K.K.H.H.H.H.L.L.L.L.L.L.L.T.T.T.T.T.T.T.T.I.0XpXpXpXpXpXpXpXpXwXwX0X8X8XT.T.T.T.L.L.L.L.L.K.K.n.n.z.n.x.l.h.h.e.1.<.1.e.e.f.e.e.h.l.h.h.h.1.1.1.1.1.1.1.:.:.:.:.;.<.:.<.:.:.-.-.>.-.-.*.-.>.*.-.*.=.<.-.-.<.<.=.=.<.1.u./ + % & # & 8 7 > > 7 9 p K _ S. XOXOX.XOX X X{.V.p.a.].OXOX#X#X$X$X#XOX[._.{.#X#X$X<X<X&X$X,X,X,X7XVXcXVXCXCXCXCXCX6X` }.zXzXcXVX6X-X-X;X-X-X( A ( E.E.~.~.R.Q.~.~.~.~.~.}.~.~.~.~.}.}.~.}.}.}.}.}././.=XkXCXKXIXIXIXUXIXKXGXlX;X(.(.;XkXxXHXIXUXUXIXUXUXUXUXUXUXJXmXNXmXnXuXrXrXrX.Xd.r.! W L L L L L x c L L c c L L W F x c L c c h z F x z h t q q q g x k d d k k k d q t t t g 0 2 3 , , , = + = = = - , , 0 0 q e s h h h j c c V V C P I I I I R I R I I R R R  . . . . ... . . ... . . . . . .E R E E R R R R R I I I P P P P P P P P P C P C C V V v c L V c c c z h h h d t q 0 w 1 # .                         . . . . . . . . . . . . . . o o o . O + o o o X X + X X + # # + + ",
"jXjXjXsXpXpXwXwXwX0X8X8XT.T.T.T.L.L.L.L.L.L.L.H.H.H.H.H.H.H.H.K.K.H.L.K.H.L.L.L.L.L.L.L.L.T.T.T.T.T.L.T.0XwXpXpXpXpXpXpXwXwXwX0X8X8XT.T.T.T.L.L.L.L.L.L.K.n.c.n.z.z.z.l.h.h.h.e.1.:.1.1.1.e.h.h.h.l.h.h.h.h.f.e.1.1.e.h.1.1.1.:.1.:.1.1.1.<.:.1.1.<.<.-.-.*.=.=.-.=.=.<.<.=.<.<.<.<.u.q.: # # $ > 8 7 > > 7 r l Q V.]. XOXOXOXOXOX{.A.p.a.'.OX@X#X$X#X#X$X#X`.S.[.OX#X$X<X<X,X<X<X&X<X<X6XcXVXVXVXCXCXCXCXCX-X( 5XcXcXVXcX5X-X-X-X-X}.H A ` ~.~.R.R.E.~.}.}.}.~.~.~.~.}.}.}.=X=X~.^.^.~.}.W./.xXLXIXIXIXIXLXHXlX;X(.(.;XkXlXGXLXUXUXUXPXUXUXUXUXPXUXUXPXGXVXCXcXvXvXiXiX1X&X@Xd.r.! W P L B L B c L L c x x L W L c c L c c h z c c c d q d t q d k k d d g g k k d t q q t t q 0 3 , , - = * = = = > , , 3 0 q t d h h x x j c c v V P P I I I I I I I I I R R R R R  . . ...E E E ..E E ! E R R R R T T I I I I I P P P P P P P P P P P C V V V v V V c c c c c c z h h d d s q q 0 = o                           . . . . .   . . .     . . X o o o O # O o X O + X o o X + # X + ",
"jXjXjXsXpXwXwXwX0X0X8X8XT.I.T.T.T.T.T.L.L.L.L.L.K.K.L.K.H.L.H.L.L.L.L.L.L.L.K.H.L.L.L.L.L.T.T.T.T.L.T.0XpXpXpXsXpXpXpXwXwXwX0X8XT.T.T.T.T.T.L.L.L.K.K.K.b.c.z.c.z.l.l.j.l.h.h.h.1.1.:.1.4.f.h.h.l.z.h.h.h.h.h.f.1.1.f.h.f.h.1.1.f.1.1.e.1.1.1.1.1.:.<.-.-.-.*.=.*.=.=.<.<.=.<.<.<.<.w.q.e % & % & 7 8 7 7 8 r n ) ]. X X.X@XOX.X{.C.r.V.S. X#X#X#X#X#X#X#X{.C.].OX#X$X$X<X<X<X<X<X&X&X,X,X7XcXVXVXCXCXCXCXZXVXR.' lXVXcXVXlX-X-X-X-X-XE.A ( R.Q.R.~.~.}.}.~.}.}.~.}.}.}.}.}.=X=X=X^.~.~.=X/.=XGXIXIXIXHXxXkX(.(.(.;XlXGXKXIXIXUXIXUXUXUXUXUXUXUXUXLXGXkX>XzXCXcXcXvXuXuXyX$X4X@Xd.r.! ! P c B L c c c c c c c L L F c L c x j x c c F z q q q t t g k g t g k k z g d q q q d t q 0 0 , , - = = $ $ = - : , 0 0 q q t d h h h x c c c c V V C P I P P I I I I I I I I R R R I R R R E R R R R R T T T I I I I I I P P P P P P P P P C V V V V V V V V V c c c c c c z j z h h d d t 0 > X         .         .       . . . . . . . . .         . o o o o O O X + + + X X X o X X X # ",
"AXjXjXsXpXwXwX0X0X9X8X8XT.T.T.T.T.T.T.L.L.L.L.L.L.L.L.L.L.L.L.L.L.L.L.L.H.K.L.L.L.L.L.L.L.T.T.L.I.8XwXpXpXpXpXpXpXpXwXwX0X0X8XT.T.T.T.T.L.L.L.L.K.K.K.H.c.c.z.z.z.l.l.h.l.h.h.f.1.1.1.1.f.f.h.h.h.h.h.h.h.h.h.h.f.1.f.h.f.h.f.h.h.h.h.h.h.f.h.f.y.1.1.<.-.-.-.-.=.=.-.-.=.<.-.<.=.<.w.d.z % 1 % % 1 8 8 w r l U S. XOXOX@X#XOX{.S.r.p.S. X#X#X#X#X$X#XOX{._.].OX#X$X&X&X<X<X<X<X<X<X<X,X,X5XlXCXVXVXCXCXCXZXGX6X( |.cXcXVXVX5X-X-X;X-X-X( A ( R.~.~.~.}.}.~.}.}.}.}.}.}.~.~.~.~.~.~.~.W.}.=X=XkXGXGXlX;X(.(.;XlXVXHXIXUXUXIXUXUXUXUXUXUXUXUXIXHXGXkX;X(.=XlXCXmXcXvXuXuXuX<X<XuX`.s.) ! ! L L L L c c c c z c L L L L L B c c x c z c x d q q d t d z k d h g k k h g d q q t t e q 0 0 , , - = = = = = = , , 3 0 q q q d d h z x x c c c v v V V V C C C P I P P P I I I I I I T R R R I I I I I I I I I P P P P P P C V P P P P V V V V V v V C V C V V V B c c c x z x z h d d t 0 , +                           . o . o .   . . . . . .   . . o o o O O + + + + + + X o o o + X ",
"jXjXsXpXpXwXwX0X0X9X9X8XT.T.T.T.T.T.T.T.L.L.L.L.L.L.L.L.L.L.L.L.L.L.L.L.H.L.K.L.L.L.L.L.T.I.L.T.8XwXpXpXpXpXpXpXwXwX0X0X9X8X8XT.T.T.T.L.L.L.L.L.K.H.H.H.c.c.h.z.z.l.l.h.l.h.h.h.h.1.1.4.f.f.h.h.h.j.j.j.h.h.h.h.h.h.h.h.f.h.f.h.j.h.h.h.h.h.h.h.h.y.e.1.<.<.<.-.-.-.-.=.=.<.<.<.<.<.w.d.G % 1 % & 7 7 8 r p m / '. X#XOX#XOX{.S.V.p.S. X@X#X#X#X$X$X#X{._.[. X#X#X$X&X&X<X<X<X<X<X2X2X2X,X5XVXZXVXVXVXCXCXCXCXCX|.` 5XcXVXVXlX-X-X-X=X-X~.A A ' ~.~.~.~.~.~.~.}.}.}.}.}.=X=X~.~.E.~.~.~.}.=X=X=X;X(.(.(.;XlXGXLXIXUXUXUXUXUXUXUXUXUXUXUXLXGXlXkX(.(.;XkXxXKXKXZXmXmXuXuXuXuX@XuX*Xd.r.! q.! L P P L L L c j h B L L L L F c c x c z z x h q q t t d d d g h d d g k k h d q q q q q q 0 0 , - = $ + + = - - , , , 0 q t q e d h h z z c c c c c v v V V v V C C C C C P P P P P P P I I I P P P C C P P P C C P P C V V v C V V V V v V V V V C P C P L L L B B B c c c c x z h h d q , $ X                 .       . . . . . . . . .     o .     . o o o # $ X X + + + + X o X + o ",
"sXsXpXpXwXwXwX0X0X0X0X8XT.T.T.T.T.T.T.T.T.T.T.L.L.L.L.L.L.L.L.L.L.L.L.L.L.H.H.K.L.L.L.L.I.L.T.9XpXpXsXpXpXpXwXwXwX0X0X8X9X8XT.T.T.T.L.L.L.L.L.K.H.K.K.H.c.c.h.h.l.l.h.h.h.h.h.h.h.4.4.1.f.h.h.h.h.z.z.c.z.j.j.h.h.h.h.h.h.h.h.h.h.h.h.h.j.j.h.h.h.h.y.e.1.1.e.<.<.<.<.-.<.<.<.w.<.w.w.u.Q 2 1 % & > 7 9 r p n ~ S.{. X XOX XS.p.r.C.{. X.X@X#X#X#X#X{.S._. XOX#X$X&X&X&X<X<X<X<X<X,X2X,X,XcXLXLXGXVXVXCXCXCXCXCXVXR.~.lXVXVXVXlX-X=X-X-X-X` A ( ~.~.~.E.~.}.~.~.}.}.=X=X=X=XW.E.E.E.~.~.}.}.=X=X(.(.;XxXHXPXUXUXUXUXUXUXUXUXPXUXUXIXKXGXkX(.(.;XkXlXGXLXIXUXPXJXmXmXuXiXuXvX2XeX1X.Xd.q./ ! P P L L P L L j s h B L L L L B c c B x h x z s < q d d k d d d d d d k k k d q 0 q q e t q 0 , , > = = = = = - - - - , 0 q 0 q e e d h h z z z z c c c c c c c B B B V V C C C C C C C P P C V C C V V V V V V V P P C V V v V V v V v v V P P P P P P P P L C c c c c c c x x x h h d t 3 = o       .         .       . . . . .   . . .     . .     . . o o O # X o X o + + X X X # o ",
"sXpXwXwXwXwXwX0X0X9X9X8X8XT.T.T.T.T.T.T.T.T.T.T.T.L.L.L.L.L.L.L.H.H.H.H.H.H.L.L.L.L.L.L.L.L.0XpXjXjXjXpXpXwXwX0X8XT.T.8XT.T.T.T.T.T.L.L.L.L.K.H.H.K.K.b.c.z.h.h.h.h.h.h.h.h.h.h.h.4.4.1.1.h.h.h.h.z.z.c.c.c.z.j.z.j.j.h.h.h.h.h.h.h.h.h.j.h.h.h.h.h.y.y.y.e.y.1.1.e.<.<.<.<.<.<.<.1.1.u.q.w 1 & > > 8 9 r p l / ].{. X.X X'.V.p.V.{.OXOXOX#X#X#X#X XS._.{. XOX$X$X&X&X<X<X<X2X2X,X,X,X:XlXLXIXIXKXCXVXCXCXCXCXCXGX5X` -XVXcXVXVX5X=X-X-X-X=XH A ' ~.E.~.~.}.~.W.=X=X=X=X/./.=X/.W.~.=X=X=X=X=X=X=X(.VXIXUXUXUXUXUXUXUXUXUXUXUXIXHXlXkX(.(.;XkXxXHXLXIXUXUXUXUXPXFXcXcXiXuXvXyX4XeX<X].A.r.! W W L L L L P c s s c L P W P F c c c c x x z d q q d t d g d g g d t k z z k d q 0 0 t t q 0 , , , - = = = = = = = - - , 2 3 0 0 0 q e d d h z z h z c c c c c x c c c c c V V V V V V V V c v V V V V v v c v V C V V V V v v V V v V V C P P P P P P P P P L L V V c c c c c x h h h t 0 > + .               .         . . . . .   . . . .   . . . o . o o X O + X X + X X X o o # X ",
"pXpXwXwXwXwXwX0X8X0X0X9X8X8XT.T.T.T.T.T.T.T.T.T.T.T.L.L.L.L.L.L.K.K.H.H.H.L.L.L.L.L.L.L.L.T.pXjXpXpXpXwXwX0X9XT.T.T.T.T.T.T.T.T.T.T.L.L.L.L.K.H.H.H.b.c.z.j.h.h.h.f.h.h.h.h.h.c.h.7.1.1.1.f.h.h.c.z.c.c.z.z.j.z.z.z.h.h.h.j.h.h.h.j.h.h.z.z.c.h.h.h.h.h.h.y.h.y.y.y.1.1.1.<.>.<.<.1.1.u.r.z 8 > > 7 9 9 y y u _ OX{. XOX].V.p.a.].OXOX#X#X@X#X#XOX_.S.{.OXOX#X$X$X&X$X&X<X,X<X<X,X,X:XlXLXUXIXUXPXGXCXVXVXCXVXCXGXGX}.` 6XcXVXGXlX-X=X-X-X-XR.A H R.~.~.~.}.~.~.=X=X/.=X;X>X=X/.(.=X=X=X=X=X/.=X=X(.xXIXUXUXUXUXUXIXIXIXIXLXGXlX;X(.(.kXlXGXKXIXUXUXUXUXUXUXUXIXLXmXcXzXuXgXiXrXrXrX<X X'.q.! ! W P P L W L z s h c c L P L c x c c x z h h d d d q d g g d k d q h k k k h d q 0 t t q 0 0 , , , = + $ % = = = - - > , , 2 0 0 0 q e e s d h h h z z j c z z c c x c c c c c c c c c c c c v c c c c c c c v V v v v v v v V V C P P P P P P P P P P P P P P L L L B c c c c x h h t q 2 % X                       . . . . o o .   .   . . .   . o o o X O # # + # # + X o o o X X ",
"pXwXwXwXwXwX0X0X0X9X0X9X9X8XT.8X8X8XT.T.T.T.T.T.T.T.T.L.L.L.L.L.L.L.L.H.H.H.L.L.L.L.L.L.L.wXpXpXpXpXwXwX9XT.T.T.T.T.L.L.T.T.L.L.L.L.L.L.L.L.H.H.c.c.c.c.z.h.h.e.e.e.e.f.h.h.h.z.h.7.4.f.f.f.h.h.h.c.z.c.c.c.z.z.z.z.z.j.z.c.z.z.c.c.z.h.c.c.c.j.j.h.h.h.h.h.h.h.h.h.y.y.1.1.>.<.1.1.1.u.d.K 9 7 8 7 8 9 r r p r.OX{.{.'.V.t.p.S. X.XOX#X#X#XOX X]._.[.OX#X#X$X$X&X&X$X$X<X<X<X<X,X,XzXKXUXIXIXIXUXKXGXCXVXCXGXVXCXGXlX' }.VXVXVXVXlX-X-X-X-X-X( A ( ~.~.~.}.}.}.}.-X5XVXKXKXlX=X=X=X=X=X=X/./.=X(.(.;XHXUXPXIXIXIXIXIXHXxXkX(.(.(.kXxXHXLXUXUXPXUXUXUXUXUXUXUXIXIXJXmXvXfXgXiXyXtXrXrX&X.X'.q.! W P L L P P c f s z x c W W F c c c c c x c x d d d d d d t d g d d d d d g g t 0 q t q 0 0 3 , , , = $ % = = = = = - - - , 3 3 0 0 q q q q d d h h h h h z z z z j j j j c c c c c c c c c c c c c c c c c c v v v v v v v V P P P P P I I I I I P P P P P P L L L V c c c c x z h d e 2 > o               .         . . . o o . . .   . . .   . . . X o o O # $ # $ # X X X X X X ",
"pXwXwXwXwX0X0XwX0X0X9X9X9X8X8X8X8X8XT.T.T.T.T.T.T.L.L.L.L.L.L.L.L.L.L.L.L.L.L.L.H.K.H.H.9XpXpXpXpXwXwX9XT.T.T.U.U.L.G.G.L.L.L.L.L.L.L.L.H.H.H.H.c.c.c.z.h.h.f.1.e.e.e.1.1.1.f.l.h.h.7.h.h.h.h.h.h.j.z.c.c.c.c.c.c.c.c.z.c.c.c.c.c.c.z.z.z.k.c.j.j.j.j.j.h.h.l.h.h.h.y.y.y.e.<.<.1.1.e.w.u.Q 0 6 9 8 8 w r w l V. X X].V.p.p.S.OXOX X@X#X$X#X X_.S.].OX#X#X$X$X&X&X&X$X$X<X$X<X<X,X7XKXUXIXIXIXIXIXLXGXGXCXVXGXCXCXGXGX-X` 5XVXVXVXVX>X=X-X=X-X}.H A ' }.~.}.}.}.5XGXIXUXIXIXKXkX=X=X=X=X=X}.}.=X(.=X=XlXIXUXUXIXKXGXlXkX(.(.;XkXxXHXIXUXUXUXUXUXUXUXUXUXUXIXIXIXIXLXZXmXcXiXuXyXyXrXrX1X&X.X'.q.! W W P P W L z s h h j L P L c c c B c x c c h s d q t d d d d d d g g g g k d 0 0 t t q t 0 , , , > $ % = $ $ = = > > = > , 3 0 3 3 q q q q q d d d h h h f h z j h z z j j j j j c c x c v v c v c v v v v v v v V v V V P P P P P P I T T I I I P P P P P L P L L L c c c x x z h t 0 > O . . .                 . . . . . o . . . . .     . o . . . o o X + # $ $ $ + + X X o o ",
"wXwXwXwXwXwXwX0X9X0X0X0X0X8X8X8X8X8XT.T.T.T.T.T.L.L.L.L.L.L.L.L.L.L.K.H.L.L.H.H.H.H.F.L.wXpXwXwX9X9X9XT.U.U.G.G.G.G.H.K.K.L.L.L.L.L.K.L.H.H.H.c.c.c.c.h.h.f.1.e.w.*.E ..>.e.f.f.f.h.h.h.h.h.h.h.h.h.z.c.j.h.j.c.j.c.c.c.c.c.c.c.c.c.c.c.c.c.j.j.c.c.j.j.c.j.j.h.h.h.h.y.y.y.w.<.1.e.e.y.u.&.e 7 9 8 9 r r t m V. X XS.r.t.S..X#XOXOX#X#X#XOX'.A.S. X@X#X$X$X<X<X$X&X$X&X<X,X,X,X6XKXUXIXIXIXIXIXUXGXlXVXGXGXGXGXGXGXGXVX}.E.lXVXVXCXlX-X=X-X=X-XE.A H ~.}.}.}.~.lXUXUXPXUXIXUXHX;X=X(.=XW.W.=X;X;X=X;X;XVXKXGXxXkXkX).(.kXlXZXIXUXUXUXUXUXUXUXUXUXUXUXUXUXUXUXUXPXPXKXCXcXzXgXiXyXtXtX1X3X+X@X`.q.! W W L W W L h f f h c L L c F c c c c x z h h s q d d d t g g t k k k g g k d q q t t t q 0 , , - = = > $ $ $ = > > ; > , 2 3 3 3 4 q e q q q s d d h d h h h h h j h h j j j j j j c c c v V v c V V v V C V V C C I P P P I I T I T T I I I I I I I I P P P L L L v c c x c z h d q , # X . .           . . . . o . o . . . . . . . .   . . . . . o o o X # = # # # + X + X X ",
"wXwXwXwXwXwX9X0X0X0X9X9X0X8X8X8X8XT.T.T.T.T.T.T.L.L.L.L.L.L.L.L.L.L.L.H.H.H.H.H.H.c.c.T.wXwXwX9X9XT.T.U.U.G.G.L.z.y.<.=.w.w.z.b.K.K.K.L.K.H.c.c.c.c.j.c.h.e.<...C s 4 s P >.1.1.f.h.h.h.f.4.h.h.h.h.h.j.j.j.j.c.c.c.c.c.c.c.c.c.c.c.c.c.c.c.j.j.c.j.j.j.j.j.j.j.h.h.h.h.h.h.y.1.1.e.w.w.u.q.t 8 9 9 9 9 u p m V.].A.r.t.r. X#X#X@X@X#X@X.X].A.S.{.OX#X#X&X&X$X$X$X&X&X,X,X2X-X6XKXUXPXIXIXIXIXIXHX-X}.lXGXGXGXGXGXGXGXHXlXE.-XVXVXVXCX5X=X-X-X-X=X( i ( }.}.}.~.-XKXUXIXUXUXUXIXGX;X(.=X(./.(.=X=X=X;X;X;XkX;X(.;XkXkXxXHXIXUXUXUXUXUXUXUXUXUXUXUXUXUXUXUXUXUXUXPXIXLXHXCXcXiXiXyXuXyX3XyX+X+X<X!.0.! W L L W P B j f s h B L B c c c c c z h z x s q q d g d k z t d h k g d g g q q t t t t 0 3 , > > $ = = $ $ % = > > , , 2 0 3 3 3 q q q q q s s s d d d h h h h h j z x x c c j c c c v v V V v C C C P C C C P I I I I I I I T I I T I T R I I T I P P P P P L L c c c x x c z d q 2 ; X .                 . . . . . . . . . . . . . . . . . .     . o X X # # # # + X + o o ",
"wXwXwXwX0X0X9X0X0X9X9X0X0X0X8X8X8XT.T.T.T.T.T.T.L.L.L.L.L.L.L.L.L.L.H.H.H.H.H.H.H.c.c.9XwXwX9X8XT.U.U.G.v.k.1.Y c s < : < 4 j I >.b.K.L.H.c.c.j.j.j.f.f.h.w.T s * X * * < v *.1.h.h.h.h.f.1.4.h.h.h.j.j.j.j.c.c.c.j.c.c.c.c.c.c.c.c.c.c.c.c.c.c.c.c.j.c.j.j.k.c.l.h.h.l.h.h.y.1.e.e.w.w.u.r.g 8 9 9 8 8 u p m V.S.r.t.r.].@X#X#X#X#X#XOX].A.A.{..X#X#X#X&X&X&X<X<X$X<X,X,X-X,XFXUXIXUXIXIXIXIXHX-X~.}.-XVXGXCXGXGXGXGXGXHX-XE.lXGXVXGXVX>X=X=X-X-X~.H A R.}.}.}.~.lXPXUXUXUXUXUXLXlX=X(.(.(.=X=X=X=X=X=X;X(.;XkXxXHXLXUXUXUXUXUXUXUXUXUXUXUXUXUXUXUXUXUXUXUXUXUXIXIXIXLXFXcXiXiXiXfXuXrXyX7X X<X*Xd.! ! W L P T P c h s f B L F B c c c c z x c z x q 3 q g d k z d t d g g d d g q q t t t t t 0 , , , = $ + X $ = > > > , , 2 0 0 3 3 q t e e d d d d d h h h h z z x c c c c c c c v v v V V C P P P P I I I I I I I I I R R R R R I I I I R R R I I I I I I T P L L V c c c x c x h e 8 > O .   .         .   . . o . o . . . .       . . . . . . . . . X X X # # X + # # # + + ",
"wXwXwXwX0XwXwXwXwX0X9X0X0X9X9X8X8XT.T.T.T.T.T.T.L.L.L.L.L.L.L.L.L.L.H.H.H.H.H.H.H.c.c.9XwXwX9XT.T.U.G.9.:.Z a < - - - - - < f j b -.H.H.c.c.j.k.j.j.f.e.w.U 3 X $ $ - , < s C -.y.f.h.h.h.4.f.h.h.j.z.j.h.j.c.c.c.c.c.c.c.c.c.c.j.c.c.c.c.c.c.c.c.j.j.j.j.z.c.c.h.h.h.h.h.h.y.1.e.y.e.w.u.w.h 2 7 w 9 8 p l G r.r.t.r.].@XOX#X#X#X#X@X XS.V.S.OXOX#X#X&X&X&X<X<X&X$X,X,X,X:XZXUXIXIXIXIXPXIXKX:XR.~.~.~.5XGXGXVXGXHXGXGXHXVX}.}.VXGXVXGXVX-X=X=X=X=XR.A ( }.}.}.}.}.GXUXUXUXUXUXUXHXkX;X=X=X=X=X=X=X=X=X=X;X;XxXIXIXUXUXUXUXUXUXUXUXUXUXUXUXUXUXUXUXUXUXUXUXIXIXUXIXIXIXKXVX7XiX7XfXfXyXuXiX<X+XeX&Xi.! W P P T U L c h f z L L B L c c c c c x x c h q q q t g z d q d g k k d d d t t t t t t 0 , , , , - X X + $ = = ; > , , 3 3 3 q e t t d d d d d d h z z x x x c c c c c c v V V C V C C P I I I I I I I I I I I I R R R E R R R R R R ! R R R I T R T T T P L P L L V c c x z h t 0 > % # . . . .       . . . . . . . . .     . . .   . . . . . .   X X X + % + + # $ $ X o ",
"wXwXwXwXwX0X0X9X0X9X9X0X0X0X8XT.T.T.T.T.T.T.T.T.L.L.L.L.L.L.L.L.L.L.H.H.H.H.H.H.H.c.c.9X9X8XT.T.U.b.9.%.Z j a q , - - - : f v P I } h.H.b.j.k.h.7.4.1.e.T 4 * + = - - , d h j | 1.e.h.h.f.:.f.h.h.z.c.c.j.z.c.c.c.c.c.c.c.c.c.c.c.c.c.c.c.c.c.c.c.c.c.j.c.c.c.c.j.l.h.h.h.h.h.y.y.y.e.u.u.u.B w r w 9 8 u n Q ) t.r.S..X@X@X#X#X@X.X XS.a.S. XOX#X#X#X&X&X&X<X&X$X$X,X,X,XCXUXUXIXIXIXIXPXKX5XR.Q.Q.R.Q.}.lXHXGXGXHXGXHXHXHXlXE.5XGXGXGXGXlX=X=X=X=X}.( A ` }.E.}.E.>XLXUXUXUXUXIXIXxX;X;X=X=X=X=X=X(.=X;X;X;XlXLXIXUXUXUXUXUXUXUXUXUXUXUXUXUXUXUXUXUXUXUXUXIXIXIXIXIXLXLXFXlX7X7XiXvXuXuXvX2X X&XrX.Xr.! W W T ! P c c f f L L c L L c c B x x c x k d q d t d g g d q d k k d d g d t q q t t t 0 , , , , $ X X + $ % = , , 2 3 0 q e t t t d d h h h z x z z c c c c c c c c V V V C C C C I P I I I R I I I I R I E R R R E E E E R R R R E R R R I R R R T T P P P P L L c c x z h e 0 , $ # o . . . . .       . . . . . . . . . . . . . . . . .       . . X X # # + + # $ + o ",
"wXwXwXwXwX0XwXwXwX9X9X0X0X0XT.T.T.T.T.T.T.T.T.T.L.L.L.L.L.L.K.H.K.L.H.H.H.H.H.c.b.c.v.9X9XT.T.L.H.9.%.Z Z V j d 3 < < : < v I I } | 7.b.c.7.7.7.1.1.>...c : = ; = - 3 s j j v R -.1.h.h.4.1.f.h.h.j.z.z.c.c.c.c.c.c.c.c.b.c.b.c.c.c.c.b.c.c.c.c.c.b.c.c.j.c.c.c.j.l.l.h.h.h.h.h.y.y.e.y.u.u.L w u r 8 8 r l ~ _ r.S. XOX@X#X#X#XOX XS.V.S. X#X#X#X#X$X&X$X&X&X$X$X,X,X:XCXUXUXUXUXIXIXUXLXlXR.R.R.R.Q.Q.R.-XVXGXCXGXHXHXHXKXKX-XE.VXHXGXGXGX>X=X=X=X-XR.A A E.~.~.}.}.lXUXUXIXUXIXIXxX;X;X;X;X=X=X=X=X;X;X;X;X;XGXIXUXUXUXUXUXUXUXUXUXUXUXUXUXUXUXUXUXUXUXUXIXIXIXIXIXIXLXLXCX7X7XiXvXvXfXSXiX@X X1XeX+Xd.! T I T T L c h s c P c c c L c c x z x c S d 3 q d d g k d q q d d d d g g t q 0 q t t r 0 8 8 , > +     X $ $ > , 2 0 0 q e t d d d h g z z x c c c c c c c V V V V L P P P P P I R I I I R R R R R R R R E E E R ..R E E ! R R R R R R ! R R E R R I I P P P L V V c c c h d 0 , > $ O o . . . .       . . . . o . . . . . .   . .   . .         . X o O # # + + $ + X ",
"wXwXwXwXwXwXwXwXwX0X9X0X0X9XT.T.T.T.T.T.T.T.T.T.L.L.L.L.L.L.H.H.K.K.H.H.H.H.H.c.v.c.c.T.8XT.U.G.k.7.| } | Z v j s < < < j I } } o.>.j.c.j.7.7.7.:.:.-.| V 4 : : < 4 j v V C I | >.1.h.1.1.1.f.h.h.z.c.c.c.c.c.c.c.c.c.c.c.c.c.c.c.c.c.c.c.c.c.c.c.b.c.c.j.c.c.c.j.j.l.h.h.h.h.h.y.u.y.y.u.d.U e t t r 0 0 D ) r.A..X@X@X#X#X#X@X.XS.V.A. X#X#X#X#X#X&X&X$X&X<X<X3X,X-XVXPXUXUXUXUXIXUXPXlXE.R.Q.Q.Q.~.~.R.~.lXGXGXGXHXKXHXLXPXZX/.-XHXGXGXHXlX-X=X=X=X-X` A ( E.}.=X}.=XHXUXUXIXHXxXkX;X;X=X=X=X=X=X;X;X;X;X;X;XkXHXIXIXUXUXUXUXUXUXUXUXUXUXUXUXUXUXUXUXUXUXIXUXIXPXIXIXIXIXHXcX4XiXvXvXyXMXbXrX+X+XeX1X&Xq.! T I ! T V j s x P L c L L c V c j x c c k h q q q d k g d t d t d g d k t t 0 0 0 q r 0 0 , , , > +       + ; , 2 0 q e e t d d h h k z x x c c c B B V V C P P P P P I I T T T R R R R R E E R R R R R ! E ! ....R ..! ! ! E R R R R ..E E R R T I I P P P P L L c c c z d q 8 > $ # # o . o . .   . . . . . . . . . . . .   . . . . .           X o X # # # + $ # + ",
"wXwXwXwXwXwXwXwXwX0X0X9X9X8XT.T.T.T.T.T.T.T.T.L.L.L.L.L.L.K.H.H.H.H.H.H.H.H.c.k.c.c.k.L.T.U.L.G.9.:.%.} | | Z v j f f j I | } o.>.4.j.c.k.h.7.1.:.>.%.| I j a < s j V I I Y | *.-.1.1.:.1.1.h.h.h.z.c.c.c.c.c.c.c.c.c.c.c.c.c.c.c.b.b.c.c.c.c.c.c.b.c.c.c.c.c.c.c.c.h.h.h.h.h.h.y.y.u.u.u.d.Q e e w t 0 t Q r.a.S..X.X@X@X@X@X@XS.V.V.]..X#X#X#X#X$X&X&X&X&X<X<X,X>XVXLXUXUXUXUXPXUXUXlXE.R.E.Q.R.Q.Q.Q.R.E.-XGXHXGXHXKXKXLXPXUXlXE.lXKXGXGXHXlX=X=X=X=X}.H A E.}.}.=X=X5XGXGXlX;X(.(.;X>X;X;X=X=X;X;X;X(./.;XkXkXxXLXUXUXUXUXUXUXUXUXUXUXUXUXUXUXUXUXUXUXUXUXUXIXPXIXIXIXIXLXCX7XiXiXmXiXcXnXuXrX+X&X1XeX Xq.! T ! ! P L c c V L c L L c L c x c c x c c d q q g g g g q q q d g d d d t q 0 0 t t t 0 , , , , > # X   X $ > , 0 q e t d d h z z z c c c c B L V L P P P U T T I T I T R E R R R E E E E ..R E R E E ..E ! ! ............! E R ..! ..E R R R R T I I P P P P L B c c h d t w > % $ @ . . . . . . . . . . . o . . . . . . . . . . . . . .       X o X # % # # # $ + ",
"wXwXwXwXwXwXwXwX0X9X9X9X0X0X8XT.T.T.T.T.T.T.T.L.L.L.L.L.K.L.H.H.H.H.H.H.H.H.b.c.k.9.9.H.T.L.G.v.7.7.:.%.| | } Z Z I | | | o.O.,.,.4.h.j.k.h.h.1.>.-.o.| | I V v v V Z Y | o.o.-.>.1.1.<.:.1.h.h.j.j.c.c.c.c.c.c.c.c.c.c.b.b.c.c.c.c.c.b.c.c.c.c.c.c.c.c.c.c.c.c.c.c.z.l.h.h.h.h.h.l.u.u.u.u.! e q h V U ! ) a.S..X.XOX@X.X@X.XS.p.r.].OXOX#X#X$X#X&X&X&X&X$X2X,X-XzXPXUXUXPXUXPXUXUXzX~.E.R.R.R.Q.Q.Q.~.~.~.5XGXHXHXHXKXKXLXPXIXLX-X}.GXKXHXHXGX>X=X=X=X=XE.A H R.}.}.}.W.=X=X=X=X>XlXGXGXlX;X;X;X>X;X=X(.(.;XkXkXkXGXIXUXUXUXUXUXUXUXUXUXUXUXUXUXUXUXUXUXUXUXUXIXPXIXIXIXIXIXHXzXlXzXmXcXiXmXuXvX<X+XeXeX*Xd.q.! ! ! T W L c V L c L L L L B c c c x c c h d q t q d g t q t t d d t t t q 0 t q t t t 0 2 , > ; $ X X X X + - 2 0 t d d d k z z x c B B F B B L P P P T T T T T T T R R ! E E E !  .R E .. ...................................X.....! ! E R T I I I P P P L L V c c z h d 0 , ; $ $ o . . . . . . . . . . . . . . . . .   . .       .         . X o X # $ + $ # # ",
"wXwXwXwXwXwXwXwX0X0X9X9X0X9X8XT.T.T.T.T.T.T.T.L.L.L.L.L.H.L.K.H.H.H.H.H.H.H.c.c.v.k.9.9.H.H.v.9.7.7.:.%.%.| } } | O.:.:.:.:.:.1.e.4.4.k.j.h.h.1.-.o.o.| o.| | R I I R | o.>.-.-.>.>.>.>.:.1.h.l.j.h.j.c.c.c.c.c.c.c.c.c.c.c.c.c.c.c.c.H.c.c.c.b.c.c.b.c.c.c.c.c.c.c.c.h.h.h.h.h.h.h.l.u.u.u.q.e h P | *.=.q.d.'..X.XOX.X.X.XS.r.r.Z..X#X#X#X$X$X&X&X&X&X&X,X,X,XzXPXUXPXUXUXPXUXUXVX~.R.Q.R.R.R.R.Q.Q.~.^.;XGXPXIXKXGXHXKXLXPXIXIXGX/.kXLXKXHXHXlX=X=X-X;X-X( A ( E.E.}.}.}.=XkXGXHXIXUXUXHXkX;XkX;X=X=X(.=X;X;XkXkXlXHXUXUXUXUXUXUXUXUXUXUXUXUXUXUXUXUXUXUXUXUXIXPXIXIXIXIXIXKXVXcXcXmXvXiXcXfXuXiX X@XrXrX*Xd.q./ ! ! T P v P T V V L L B c c x c z k z z k q q q q d d d d t t t t t t e q q 0 q d t e 0 , ; > ; + X X X X # ; , 0 t t g g z x c B B B L B B V L P I I I T T T T R E R ....R E ............X.X.X.X.X.....X.....X.o.o.X.X.X...X.....E ! E R T T I I P P P L L V c c x h d 3 , > ; % + o X . . . . . .   . . o . o . .       .                 . . o o X O # + # # ",
"wXwXwXwXwXwXwXwX9X0X0X0X0X8X8XT.T.T.T.T.T.T.L.L.L.L.L.L.K.L.H.H.H.H.H.H.H.c.c.c.c.c.k.7.7.k.k.k.7.1.:.-.%.| o.o.,.1.1.1.1.4.f.f.f.1.1.4.h.f.:.>.o.%.o.o.o.| | | | R  ...o.*.>.-.-.-.-.-.:.e.h.h.h.h.c.c.c.c.c.b.b.c.c.b.c.c.c.c.c.H.H.H.H.c.b.b.c.c.c.c.c.c.c.c.c.c.c.l.h.h.h.h.h.l.l.x.u.d.q.h V *.-.*.=.=.u.J..X.XOXOX.XS.V._ V. X.X#X&X#X$X#X#X$X&X&X&X,X,X7XLXUXIXIXUXUXUXUXVX~.R.Q.R.R.R.R.R.R.R.~.^.=XGXUXIXIXHXGXHXLXKXLXLXPXlX}.GXLXHXHXGX5X=X=X=X-X}.H A ' }.}.}.}.=XVXIXIXUXIXUXIXGXkX;X=X(.=X(.(.=X;XkXkXkXxXIXUXUXUXUXUXUXUXUXUXUXUXUXUXUXUXUXUXUXUXUXIXPXIXIXIXIXLXGXVXcXmXvXiXfXfXvXnX1X`.<XrXyX@Xd.q.! ! W P L L P V V L V c c c c c x h k x k d d t q t g d t t t t d t q t q 0 3 q d t t w 2 : , , ; + + o X X $ - , 0 q d g k z c B B c V L V c B P T P T T T T T R R E ! ..E E ....X.....X.X.X.X.X.X.X.X.......X.o.o.X...X.X.....E E ! E E R R T I P P P L L V c c x h d 0 , , > $ + X X X o o o o . . . . . . . . . .     .                   . o o o o $ + + + ",
"wXwXwXwXwXwXwXwX9X0X9X0X8X8X8XT.T.T.T.T.T.L.L.L.L.L.L.L.H.L.H.H.H.H.H.H.H.H.c.c.b.c.k.7.:.:.1.7.8.1.:.-.-.%.%.:.1.4.f.4.h.h.h.z.h.4.1.:.>.-.-.-.-.o.o.o.o.| | |  .R | | ..o.o.*.o.*.*.-.:.y.h.h.h.h.c.c.c.c.c.c.b.c.b.b.c.b.c.H.H.c.H.H.H.c.b.b.b.c.c.c.c.b.b.c.c.c.c.c.z.z.h.h.l.l.l.x.x.x.d.j I -.-.:.<.1.<.u.P..X@X.XS.r.r.V. X.X@X#X&X#X#X$X$X$X$X&X,X-X6XKXUXIXUXUXUXUXUXGX}.E.R.R.R.Q.R.' R.R.Q.~.~.~.lXPXIXIXLXHXHXKXKXLXKXLXHX;X-XHXKXHXHXVX-X=X=X=X-XE.A H E.}.}.}.=XVXIXIXIXPXUXUXKXlX;X(.(.=X(.=X=X;XkXkXkXlXHXIXUXUXUXUXUXUXUXUXUXUXUXUXUXUXUXUXUXUXUXUXUXIXIXIXIXIXGXVXCXmXmXvXiXuXvXmXnX&X X<XrX1X{.s.q.! ! ! T P T L L L L c c c c F c f x x x k g t q t d d t t t t t t e t t e 0 0 e e t t 0 , , , ; = $ + + + + $ = , q q e h h z c c c B L V B L P I I T T T R R R R R ! .. .E ....X...X.X.X.X.X.X.X.....X.o.o.o.o.o.X.X.....X.X.......! E R R T T P P P L L V B c x z d e , , > % # + X # # o o o . . . o . . . o . . . . .                   . o o X o X + # + ",
"wXwXwXwXwXwXwXwX0X0X0X9X8X8X8XT.T.T.T.T.T.L.L.L.L.L.L.L.K.L.H.H.H.H.H.H.H.H.H.F.c.k.j.k.7.:.%.%.:.1.:.-.-.%.-.,.:.:.1.1.h.h.h.c.h.h.1.,.-.o.-.-.-.o.o.o.| | | | R Y R  .| | | | | | o.-.1.h.h.h.h.h.c.c.c.c.c.c.c.c.b.c.b.H.H.H.H.c.c.H.b.c.b.b.b.c.c.c.c.b.b.c.c.c.c.l.l.z.h.h.h.l.x.x.x.x.u.x I >.>.>.%.o.O.=.u.]..X XV._ r.]..X@X#X#X#X#X#X$X&X&X$X,X,X-XGXUXIXIXUXUXUXUXKX-XE.R.E.R.R.R.R.R.R.R.R.Q.~.~.=XGXUXIXPXKXHXHXLXLXLXLXLXVX/.lXLXHXHXHXlX=X=X-X=X=X( A ( E.}.=X}.>XHXUXIXUXUXUXIXGXkX;X;X=X(.=X=X;X;XkXkXkXlXKXIXUXUXUXUXUXUXUXUXUXUXUXUXUXUXUXUXUXUXUXIXIXIXIXIXIXGXVXGXCXmXmXiXuXvXvXBXvX+X@X1XrX&XA.q.) ! ! ! T ! P L L L c z z x F c h k k z z k d q q d g d t t t t t t e t t 0 0 0 q t t e 0 3 , : ; $ + + + + $ $ , 0 0 e t d h z x c c B V L P P I I T T R R R R E R ..........X.X.X.X.X.X.X.X...o.o.o.X.o.o.o.X.o.o.X.X.X...X...E ..! R R T T T P P P P L L c c x z d t 0 , , ; $ + + # # X X o o . . . . o . . o . . . .       .     .     . . X X o o + + + ",
"wXwXwXwXwXwXwXwX0X9X9X9X8X8X8XT.T.T.T.T.L.L.L.L.L.L.L.L.L.H.H.H.H.H.H.H.c.H.H.H.F.c.k.k.7.7.:.%.%.%.%.%.%.-.:.:.:.:.e.h.h.h.h.h.h.h.1.:.-.*.-.*.-.-.*.*.o. .R R Y I I Y I I R | R R | -.1.4.h.h.h.j.c.b.c.b.c.c.c.c.c.c.H.H.H.b.H.H.c.c.c.c.b.b.b.c.c.c.c.c.c.c.z.c.c.c.c.l.h.h.h.l.l.u.x.n.d.M Y >.-.| | | o.o.<.J.'.a._ r.S..X.X@X#X#X#X#X#X#X#X$X$X:X-X>XGXIXIXIXPXUXPXHXVX=XE.E.R.R.R.R.R.R.R.R.' R.E.~.^.5XLXUXUXPXHXHXKXLXLXLXIXLXlX/.VXKXGXHXHX>X=X-X;X=X~.H H E.}.}.=X}.lXLXUXUXUXUXUXIXxX;X;X=X(.=X=X;XkXkXkX;XkXxXIXUXUXUXUXUXUXUXUXUXUXUXUXUXUXUXUXUXUXUXPXUXUXIXIXIXGXVXJXFXmXmXfXuXfXfXnXNXrX+X<X3X<X@Xd.q./ ! ! T ! T W L B c h z z c c x h k k h k k q 0 t g g t t q t t t t t q 0 0 0 q e t e e 0 , , : = $ $ + + X X = , 3 0 e e d d h z c B L L L P P I T T R R I R E ! ....X.X.X.X...X.o.X.X.o...o.*.o.o.o.X.o...X.X.o.X...X...X.....! E R R T I I I P P P L L v c c x h q , , , ; = $ $ $ + + X O o . . . . . . o o o . o . . .   .   . . . . . . . X o o X X X ",
"wXwXwXwXwXwXwXwX0X9X0X9X8X8XT.T.T.T.T.T.L.L.L.L.L.L.L.K.H.H.H.H.H.H.H.H.H.H.H.H.F.F.F.F.F.c.k.k.h.1.-.-.-.:.:.<.1.h.h.j.c.h.h.h.e.1.1.<.-.>.-.>.>.>.-.>.*...R Y I I I I C Z I I Y | o.>.1.y.h.h.h.j.j.c.c.c.c.c.b.b.H.H.H.H.H.H.H.H.H.H.c.c.b.H.H.c.c.c.c.c.c.c.z.c.z.z.c.l.h.h.h.l.l.u.x.J.J.P Y >.| | | } o.o.*.u.a.^ _ S..X@X.X@X#X#XOX@X#X#X&X&X+X|.=X;XlXHXIXIXPXUXCX-X-X}.E.R.E.R.R.R.R.Q.Q.R.' R.R.~.=X=XlXPXIXIXLXHXKXKXLXLXLXLXHX}.-XGXHXGXKXGX;X=X-X=X=XE.A ( }.}.}.}.=XVXUXIXUXUXUXUXHXlX;X=X=X(.=X;XkXkX;X;X(.;XGXIXUXUXUXUXUXUXUXUXUXUXUXUXUXUXUXUXUXUXUXUXUXIXIXIXHXVXKXLXFXZXvXuXfXfXvXnXuX@X X1X<X1X Xq.q./ ! ! T ! ! W L B z h h c c c k k x k h k q 0 0 t k d t e t d t t t q q q 0 0 q e e t w 0 , ; ; = $ $ $ + X $ - , 0 q e e d s d j c B L L P P P I T T T I R R E ......X.X.X.X.o.=.=.o.*.o.o.*.o.o.=.o.o.o.X.o.X.X...X.......! ! E R R T T T I P P P L L B c c x h e 0 , , , ; = = $ $ $ + # o . . . . o . . o o . o . .           . .   . . . X X X + + + ",
"wXwXwXwXwXwXwXwX9X0X0X9X8X8X8XT.T.T.T.L.L.L.L.L.L.L.L.H.H.H.H.H.H.H.H.H.H.H.H.H.H.H.H.K.K.L.L.L.L.K.F.j.j.h.y.4.h.l.c.j.j.h.h.h.1.<.<.>.-.-.-.>.>.>.>.-.=.*. .R Y I I I I I I Y  ...*.-.1.1.h.h.h.h.j.c.c.b.b.b.b.b.H.H.H.H.H.H.H.H.H.H.H.b.H.H.b.b.b.c.c.c.c.c.c.h.c.l.l.h.h.h.h.l.l.u.n.J.'.T I -.| | o.O.O.O.-.w.=./ Z. X@X@XOX@X@X#X{. X#X$X&X@X{.}.}.=X;XlXHXKXHXKX-XE.R.~.~.E.E.' E.R.R.Q.Q.R.' R.Q.~.^.=X;XHXUXIXLXHXHXHXKXKXKXKXHX:X` 5XCXGXHXKXlX=X-X-X-X=X( H ` }.=X=X=X>XKXUXUXIXUXUXIXGXkX(.=X=X;X;X;X(.(.(.(.(.kXKXUXUXUXUXUXUXUXUXUXUXUXUXUXUXUXUXUXUXUXUXUXIXUXIXHXVXKXUXPXFXmXcXvXvXvXvXgXrX'.&X1X1X@Xd.r.=.! ! T ! T W L c c h h c S S x k z z k h k d q q h g t t t t e t t q e q q q e q e t t w 0 , > > = = $ + + $ = - , 0 q q e d s s z c B V P P P P I I I R R R E ! ....X.o.o.o.o.=.=.=.=.o.o.*.=.o.o.o.o.o.o.X.X...X.........! ! E R R T T T T P P P L L c c c z h d q 0 , , , - = $ $ $ # # O o o o . . . . . . . o . .     . . . . .   . . . X X o X + + ",
"wXwXwXwXwXwXwXwX9X9X9X9X8X8XT.T.T.T.T.T.L.L.L.L.L.L.L.H.H.H.H.H.H.H.H.H.H.K.K.K.K.K.L.I.I.I.I.I.I.I.I.I.K.x.y.y.h.j.z.x.j.j.l.y.1.<.>.<.>.-.*.>.>.*.*.-.=.*. .R R R R I I I Y E ..*.*.-.:.1.e.h.h.h.j.c.c.c.b.b.c.b.H.b.H.H.b.H.b.H.H.H.K.K.K.H.c.b.b.c.c.c.c.b.c.h.h.h.h.h.h.h.h.l.l.l.n.J.J.E R o.| | o.>.O.O.>.<.q.A..X X.XOXOXOX@X@X X X$X&X$X+X`.Q.R.}.=X>XlX>X>X5XE.E.' R.Q.' ` ` E.E.E.R.R.R.R.R.Q.~.~.=X=X5XLXUXLXHXHXHXHXKXGXVX6X-X}.' ,XVXHXKXHX5X=X-X-X-X}.H H E.}.=X;X;XlXPXUXUXUXPXUXLXlX;X;XkXkX;X;X(.W.(.(.(.(.lXUXUXUXUXUXUXUXUXUXUXUXUXUXUXUXUXUXUXUXUXUXUXUXIXLXCXJXUXUXLXCXcXcXmXmXbXbXvX&X'.<X1X*X'.d.=.! ! ! ! T P P B c h s d F F c z h z z g z g d q h g q t e t t t d t q 0 e e 0 0 0 q w 0 0 , , , > ; $ $ + + $ = : , < 0 d d d s h z c c V P P P T I T R R E ! ......X.X.o.o.o.o.=.=.=.o.o.=.X.o.X.o.*.o.o.o.X.X.X.........! ! R R R I I I P P P P L L c c c x h g t 0 , , , , - = = = = % # X o o X o . o o o o O . .           . . . . . .   X X o + + ",
"pXpXwXwXwXwXwXwX0X9X9X9X8XT.T.T.T.T.T.L.L.L.L.L.L.H.H.H.H.H.H.H.H.K.K.K.K.K.L.L.I.I.I.I.XXXXXX8XXXXXXXI.I.J.D.j.u.u.j.x.j.j.y.y.y.e.<.<.<.=.=.<.<.-.=.=.=.=.o... .E E Y R R R ....&.=.=.>.<.e.y.h.h.h.j.j.j.j.c.c.b.H.H.b.c.H.b.c.H.H.H.H.H.H.H.c.c.c.c.c.c.c.c.c.c.z.l.h.h.h.h.h.l.l.u.x.J.J...| o.| o.O.O.O.o.-.w.Z. X.X.X.X X.X.XOXOXOX#X$X#X{.|.i.' Q.Q.~.=X=X}.~.R.E.R.' R.R.' ' ` E.E.R.R.E.R.R.Q.Q.~.~.~.}.=XlXGXlXxXHXHXHXHXcX|.p.V.C._ _.6XCXHXKXGX;X;X-X-X-XR.H ( }.=X=X=X;XGXUXUXUXUXIXIXHXkX;XkX(.(.(.(.W.W.(.(.(.;XGXUXUXUXUXUXUXUXUXUXUXUXUXUXUXUXUXUXUXUXUXUXUXUXUXJXJXUXUXUXFXcXcXvXmXnXnXbXyX{. X&X&XoX.Xq.! ! ! ! ! P L B F c s q x c x x h h h k g g t t q d d d q t t q t t t 0 e t , 0 0 0 e e 0 , , 2 , ; = + X + + * = : : , 0 t d h f j x x V V C P I R R T ! E ..........X.o.*.o.o.=.=.=.*.o.*.X.o.o.o.=.o.*.o.X.o.X.X.X.X.....! R R R T W I P P P P L V c c c c x h t q 3 , , , , ; ; = = = $ # X o X o o X o o o . .       . X   . . . . . X     . o o # ",
"pXwXwXwXwXwXwXqX9X9X0X8X8X8XT.T.T.T.L.L.L.L.L.L.K.H.H.H.H.H.K.J.K.K.L.L.L.I.I.I.XXXXXXXXXXXXXXXXI.XXXXXXI.K.J.J.D.u.y.y.j.y.y.y.e.1.<.<.<.=.-.<.<.-.<.=.=.*.o.*... .E E R R E ......*.*.-.<.1.y.h.h.h.h.h.j.j.c.c.c.b.H.c.b.H.b.c.b.b.c.H.K.K.K.b.b.c.c.c.c.c.c.c.c.c.z.h.h.h.h.h.h.l.u.x.J.J.*.| o.o.O.>.O.O.O.-.u.P. X X X X X X X.XOX#X$X,X#X|.' ' ' ' R.R.}.}.~.` ( ( ` ' ' ' R.R.` ( E.R.' E.R.R.Q.Q.Q.~.~.~.}.}.=X=XkXHXHXGXVXcX-X` _ V.V._ |.lXGXHXKXlX=X-X-X-X}.( H ` =X=X^.W.>XKXUXUXUXIXIXIXGXkX).(.(.W.(.W.(.(.(.(.(.kXLXUXUXUXUXUXUXUXUXUXUXUXUXUXUXUXUXUXUXUXUXUXUXUXPXKXUXUXUXPXZXmXcXvXvXnXvXbX<X'. X X XoXd.! ! ! ! ! W L L B c z q h h h c z h d h k g d d q t d t q t t 0 q e q 0 0 e 0 3 3 0 t t e 0 2 2 , ; ; = + + + + = = - - , 0 q s h h x x c c v C P T R R E E ............o.o.o.o.=.=.=.=.o.o.*.*.*.=.*.*.*.o.X.o.X.........! E ! R R T W I P P P P L V B B c c x h s q 0 3 3 3 , , > - ; ; = $ # + + X X o o X X . o o .   o X   . . .   . .     . o o O ",
"wXwXwXwXwXwXwX0X0X9X9X8X8X8XT.T.T.T.L.L.L.L.L.L.L.H.K.H.H.H.K.K.L.I.I.I.I.8XXXXX8X8X8XXXXXXXI.P.I.I.XXXXI.K.P.K.J.F.j.y.4.4.y.y.1.<.-.-.>.-.<.w.<.-.=.=.=.*.&.*.=.*...E R R E E ......o.*.-.<.e.h.h.h.h.h.j.h.j.c.c.c.b.c.b.H.H.c.H.H.H.K.K.K.K.H.b.c.c.c.c.c.c.c.z.z.h.h.h.h.h.h.h.l.u.x.J.J.=.o.o.o.-.>.>.,.>.-.u. X X{. X{. X X X.XOX&X,X,XCXZX}.( ' ' ' R.~.}.~.` ( ( ( ` ( ' Q.Q.' ( ' ' ' R.R.R.Q.R.R.~.~.~.~.~.=X;XlXLXLXHXVXcX7X_._ a.V.p._.,XVXGXKXHX>X=X-X-X=XE.H ( E.~.E.}.E.lXPXUXIXIXIXUXKXkX(.(.W.W.W.(.(.(.(.(.;X;XVXUXUXUXUXUXUXUXUXUXUXUXUXUXUXUXUXUXUXUXUXUXUXUXUXUXUXUXUXUXJXmXmXmXcXvXuXMXuX X].'.'..Xd.! T ! ! ! P P L c B c s d s d x z z h h k k g g t t d d t t d 0 q q e t q 0 0 3 3 0 0 e 0 0 0 2 , , : = * + + + + = = = ; , , q h h h z c c c V V C I R R E ........X.X.o.o.o.o.=.=.=.o.o.o.*.*.*.*.*.o.*.o.X.o.X.......! E E E R R R I I I P P P L V V B c c c h d q q 0 3 0 2 , , , > > = = = # + X X o o o o X . o .     .   . .   .         . . o o ",
"pXwXwXwXwXwXwXqX0X9X8X8X8X8X8XT.T.L.L.L.L.L.L.L.K.H.K.K.K.L.L.I.I.XXXXXX8X8X8XXXXXXXXXXXXXI.I.P.I.I.I.P.I.P.I.I.J.J.F.x.y.<.1.y.<.<.-.-.<.>.w.w.1.<.=.=.=.=.=.*.*.=.&.&.....E E ..E E ..*.=.<.<.1.y.h.h.h.c.j.h.c.c.c.c.b.H.H.H.c.b.b.H.H.H.H.K.H.c.c.c.c.c.c.c.c.c.z.z.h.h.h.h.h.l.l.l.x.J.J.=.o.| o.>.>.>.,.,.-.u. X].{.{.{. XOXOXOX#X$X,XVXIXUXlXR.' ` ' R.' ~.~.' ( ( ( ( R.Q.' ' ( ( ( ( E.E.R.Q.Q.Q.Q.~.~.E.~.}.=X=XVXIXIXJXVXVXmX#X_ a.p.V._ `.6XVXHXKXGX-X-X=X-X=X( A ( R.~.~.}.=XVXIXUXUXUXIXIXGX;X(.(.W.W.(.(.W.(.(.;X;XkXHXUXUXUXUXUXUXUXUXUXUXUXUXUXUXUXUXUXUXUXUXUXUXUXUXUXUXUXUXIXmXmXmXcXiXiXmXvX&X{.'. X.Xs.! P P W ! P P L c c c z h e s h z k z k d k g g t t g g d d d 0 0 0 t g t 0 0 e 0 0 3 0 0 0 0 3 , , : ; - = + + + = = = = = ; , 3 d d h z x c c c V P I T R R ......X.X.o.o.o.o.=.=.=.=.o.*.*.*.*.*.=.=.*.o...o.X.........! ! E R R ! I I I P P P P L V L B c c z h s q 0 3 3 3 , , , , , > > > $ $ $ + # X X o o o o o     o   . .               . . o ",
"pXwXwXwXwXwXwX0X0X0X8X8X8X8XT.T.T.L.L.L.L.L.L.K.K.K.K.K.L.I.I.I.XX8XXX8X0X8X8XXXXXXXI.I.XXI.XXP.I.I.I.J.P.I.I.I.J.J.F.x.4.1.1.y.1.1.<.<.<.<.<.w.e.<.=.=.=.=.w.<.=.=.=.&.*.&.......E ....&.*.=.<.<.<.y.y.y.h.h.h.c.z.c.n.c.c.b.H.b.c.b.H.H.H.H.H.K.b.c.c.c.c.c.c.c.c.c.l.l.l.l.h.h.h.u.u.x.J.J.>.-.O.o.O.O.>.,.>.<.d.'.].].].].{. X X@X$X+XlXLXIXUXCX~.Q.` ` ` ' R.Q.R.( ( ( ` lXlX' ' R.' ( ` R.R.R.Q.R.Q.R.Q.~.E.E.~.~.=XlXLXIXLXZXVXVXfX_._ p.V.a.V.+XlXVXHXKXlX=X=X=X-X}.H A ` }.~.=X}.;XlXGXPXUXIXIXIXxX(.(.(.(.(.W.(.(.;X;XkX;XlXLXUXUXUXUXUXUXUXUXUXUXUXUXUXUXUXUXUXUXUXUXUXUXUXUXUXUXUXUXJXCXmXcXiXiXfXiX1X X'.oXoXq.W P P P ! W P L L c c x h s q e h k k k z k g d d d h g d t t 0 3 3 q d t 0 0 e 0 0 0 0 0 0 0 3 , 2 , , : : - * + + + $ $ = - = : 0 q d h z z z c c V C P I R ! E ! ..X.X...X.o.o.o.o.o.o.*.*.*.*.*.o.o.=.o.X.o.X.X.X.....E E E R T T I I I P P P P P V V B c c x h s s q 3 q 3 , , , , , , , > = = = = $ # + o o o X o . . .                   . . . . ",
"wXwXwXwXwXwXwX0X0X9X8X8X8XT.T.T.T.L.L.L.L.L.L.K.K.K.L.I.I.XX8X8X8X8XXX8X0X8XXXXXXXXXP.I.XXXXXXXXI.XXI.P.K.P.P.I.J.J.F.j.y.4.y.y.y.w.w.<.<.<.<.w.w.<.=.<.w.w.w.u.w.w.w.*.*.*.*.........&.*.*.=.=.=.<.4.4.1.y.h.h.l.j.c.c.c.c.c.H.b.b.H.H.H.H.H.H.K.b.c.c.c.c.c.c.c.c.c.h.h.z.l.h.h.h.y.u.x.J.J.>.>.>.O.o.o.>.,.>.w.d.].].].].].{..XOX@X+X-XVXIXIXUXCXQ.Q.' ' ` ' ' R.' ( ( ` ` 5XlXE.' R.E.` ` R.R.R.R.R.~.Q.Q.~.~.E.~.~.}.=XVXIXIXKXVXcXmX,X_ _ a.V.V._.-XlXGXKXGX>X=X;X;X-XR.A H R.}.~.=X=X;X>XlXLXUXIXUXKXkX(.(.(.(.(.(.;X;X;X;X;X=XVXUXUXUXUXUXUXUXUXUXUXUXUXUXUXUXUXUXUXUXUXUXUXUXUXUXUXUXUXUXPXZXcXzXiXyX4X<XoX X*XoXq.P L L P ! W W L L B c c h d q q s h d d g k d d g d h d d t e q 0 0 0 e q 0 0 0 0 0 0 0 3 0 0 0 2 , 3 , , , : = = + + + + = = = - , , 0 q d d d h c c c P P I R R R R ! ....X.X.o.o.o.o.o.o.o.o.*.o.o.X.o.X...X.X.X...! ! R R R R T I W I P P P P L L L V V B c c h f d e q e q 3 0 0 , , , , : - = = $ $ % # X o o X o o . . .     . . . .     . . . . ",
"pXwXwXwXwXwXwX0X0X8X8X8X8XT.T.T.L.L.L.L.L.L.K.K.L.I.I.8X0X8X0X0X0XXXXXXXXXXXXXXXXXI.J.K.P.P.I.P.P.XXXXP.K.J.J.J.J.F.F.x.h.h.h.h.y.y.y.w.w.<.w.e.e.w.<.w.w.e.y.y.y.y.w.=.=.=.*.&.....&.*.=.*.&.*.&.=.<.<.<.1.1.h.h.h.c.c.c.c.c.b.H.H.H.H.H.b.H.b.H.b.c.c.c.c.c.c.c.c.c.z.h.h.l.h.h.h.y.u.x.J.J.>.>.,.O.o.o.>.,.>.u.Z.S.'.'.'.]. X@X@X X`.|.lXKXIXUXzX' ' ' ' ' ' ' ' ' ( ` ' ' ~.E.E.E.R.' ( ` ' R.R.R.R.Q.~.~.~.~.~.E.~.~.W.>XHXUXIXGXcXCXcX_.) _ V.V.V._.,XlXVXHXxX=X-X-X-X-X( A ( }.~.=X;X;X;X;XxXUXUXIXIXGX(.(.(.(.(.;X;X;X(.(.;X;X>XKXUXUXUXUXUXUXUXUXUXUXUXUXUXUXUXUXUXUXUXUXUXUXPXUXUXUXUXUXUXJXmXcXcXyX2X&X@X'..Xd.T P L c L W T P L L B c c h h e q e d d d t g d d d d g d d t q q q 0 3 0 q e 0 0 0 0 0 0 0 0 w 0 3 , 3 , , , , ; = = + + + + = $ = - , , , q t d d h x c V V C I I R T R E ! ....X.X...o.o.o.o.X.o.X.X.X.o.X...X.X...E E ..E E R R T T T I I P P P P L L V V V c c z h h s s e q q q 0 0 3 3 3 , , : ; = = = $ + X o O o o X . . . . o X o X . . . . . . ",
"wXwXwXwXwXwXwX9X8X8X9X9X8X8XT.T.T.L.L.L.L.L.L.I.I.8X0X0XqX0X0X0X0XXXI.I.I.I.XXXXXXXXK.J.P.P.XXXXP.I.I.K.K.J.J.J.J.J.J.J.c.c.j.x.y.y.y.w.w.<.w.w.w.<.e.e.y.y.y.y.l.e.w.=.=.=.=.*.*.*.*.=.=.=.&.&.&.*.=.=.<.<.<.y.h.h.l.c.c.c.c.c.b.H.H.H.H.b.H.b.H.b.c.c.c.c.c.c.c.c.c.z.h.z.h.l.h.h.y.u.x.J.J.<.,.,.>.O.-.O.-.<.u.Z.A._.'.]. X X@X XS.s.Q.=XlXKXPX:X( ' ` ' ' ' ' ' ' ' ' ' R.E.E.E.R.E.E.R.R.R.R.R.R.R.R.Q.~.~.E.E.E.E.~.^.=XlXIXIXLXCXCXmX#X_ _ _ V.V.V.[.,X6XVXCX5X=X-X-X-X/.H A E.~.=X;X;X(.(.;XHXUXUXIXLXlX(.;X(.(.(.(.(.(.(.;X;X;XlXLXUXUXUXUXUXUXUXUXUXUXUXUXUXUXUXUXUXUXUXUXUXUXUXUXUXUXUXUXUXCXcXcXiX2X<X@Xd.s.! P B v j c L ! W L L B c N k d e q e e d d q t t t q t d t d t e q t e 0 0 q e 0 0 3 0 0 0 0 3 0 0 0 , 3 , , , , , = = = + + + $ $ % = - , , , 0 0 e d h h x j c V C P P P I T R E ..X.X...X.X.X.X.X...X.X.X.X...X.......R ! R R R T T T T I I P P P P P C V V V c c x z h h d s e q q 0 0 0 3 3 , , , , : ; > = $ + X O O o o . . . . . X X . . . . o     ",
"pXwXwXwXwXwXqX0X8X8X9X9X8XT.T.L.L.L.L.L.L.K.L.I.XX0XqXwXqX0X0X0X0XXXK.I.XXI.XXXXXXXXP.K.P.P.XXXXP.P.K.J.K.J.J.J.J.J.J.F.F.F.c.j.h.y.y.1.<.<.e.e.e.e.e.e.y.l.l.l.h.y.w.w.w.w.w.=.=.=.=.=.=.*.&. . .&.*.=.-.<.<.y.y.y.l.l.c.c.c.c.c.c.c.F.H.b.H.H.H.H.H.b.b.c.c.c.c.c.z.h.h.h.h.l.l.h.u.u.x.J.n.<.1.1.,.O.o.o.>.w.u.d.C.A.'.{. XOX.X`.s.i.i.Q.~.zXzXQ.( ' ' ` ' ' ' ' ' ' Q.R.' R.R.R.R.R.R.Q.Q.R.' R.R.R.R.R.Q.~.E.E.E.E.~.^.=X-XGXIXIXJXCXCX7X_._ _ _ C.V.C.[.:X,XcXlX-X-X-X-X-X' A ( }.-X;X;X(.(./.5XLXIXIXUXHXkX(.;X;X(.(.(.=X;X;X;X;X;XGXIXUXUXUXUXUXUXUXUXUXUXUXUXUXUXUXUXUXUXUXUXUXUXUXUXUXUXUXUXJXcXcXiX4X1XoXd.q.! L j c j h L ! ! L L c c c z d q q d q t d t q q q q q d d h g t q e t 0 3 , 0 w e 0 3 0 0 0 3 0 0 0 3 , , , , , : ; ; = + $ $ $ $ % $ = = - , , , 3 0 e s g h f j c c v V P I I R E ......X.X.X.o.o.......X.X.........E E E R R R I I I T I I P P P P P L L L V B c c z h h d s s s q q q q 0 0 , 3 3 , , , ; = = $ + + + o o o . . .   . . . . . . . . . ",
"pXwXwXwXwXqXqX0X0X8X8X9X8XT.I.L.L.L.L.L.I.I.XX0X0XwXwXqX8XXXXXXXXXP.K.XXI.I.XXXXXXI.P.K.K.P.P.P.P.K.K.J.J.J.K.K.K.J.F.J.J.J.F.c.h.h.y.e.1.1.e.e.e.e.e.y.h.j.x.l.y.y.y.y.e.w.w.w.w.w.w.=.=.*.*... .&.=.=.=.=.1.w.1.y.x.x.j.c.c.c.c.c.c.F.F.b.b.H.b.H.H.b.b.c.c.c.c.c.h.z.l.h.l.h.l.y.u.u.x.oXx.>.1.1.>.>.o.*.w.u.s.p.a.A.'.'. X X`.s.i.i.i.i.i.!.!.' ) ' ' ' ' ' ' ' ' ' Q.R.R.R.R.R.R.' R.Q.Q.' ` R.R.R.E.R.E.~.~.E.E.E.~.~.=X=XlXLXUXLXZXmXcX{._ _ _ V.C.V.[.+X+X,X6X:X=X-X-X-X=X( A R.;X;X=X(.=X(.=XVXIXIXIXUXVX;X;X;X=X(.(.;X;X;X;X;X;XkXKXUXUXUXUXUXUXUXUXUXUXUXUXUXUXUXUXUXUXUXUXPXUXUXUXUXUXUXUXUXFXcX7XtXrXs.! ! ! L z f z x B W ! W L c x c x g d t d 3 q q q 0 q q q q d d d k t 0 0 w 0 0 2 3 w e w 0 3 0 0 0 0 2 0 0 , , , 3 , : , , = = = $ = $ $ $ $ = = > > > , , 3 0 q s d h z x c v v V C C P I I I R R ........................E E E E I I I I I I I P P P P P P L L L L v c c c z h h s s d e q q e q 3 3 , 3 < , 2 : : : ; = ; $ + X X o o .     . o .     .   . ",
"pXwXwXwXwXwXqX0X0X8X8X8XT.T.T.T.I.L.I.I.I.8X0X0X0XqXwX0X8XXXXXXXXXJ.K.P.K.I.XXXXP.P.P.J.J.J.K.P.J.J.J.J.K.P.XXXXI.K.K.K.K.K.J.c.j.h.h.e.1.1.e.e.1.e.y.y.h.j.j.j.x.h.x.x.u.y.w.w.w.<.<.<.<.=.=.&.&.&.&.*.=.=.<.<.<.w.y.u.h.h.j.c.c.c.c.c.c.n.b.b.b.b.b.n.n.c.c.c.c.c.h.h.h.h.l.h.l.y.u.x.n.J.x.>.1.1.1.,.-.*.>.u.r.p.a.C.S.'.].`.s.i.i.i.i.i.i.i.i.i.) ' ' ' ' ' ' ' ' ' R.' ' R.R.R.R.' R.R.R.R.E.R.E.R.R.R.R.~.~.E.E.E.~.~.~.=X-XVXIXUXKXVXiX{.p._ _ _ p.C._.[.[.[.|.-X-X=X;X-X-X}.A H }.;X(.(.=X(./.;XLXUXIXIXLXlX;X;X;X;X;X;X;X;X;X;X;X;XxXIXUXUXUXUXUXUXUXUXUXUXUXUXUXUXUXUXUXUXUXPXUXUXUXUXUXUXUXUXKXzXiXiX].L z L ! L c s f c c F ! P L B c c c d s d d q 0 3 0 0 0 q q 0 q q t k g 3 0 0 e e 0 0 0 0 0 0 0 0 0 0 0 , 2 3 2 , , 3 , : , , - - = = = $ $ $ $ = = = > > - , , < 3 q s d h h j c c c V V P I I C P I I I I R E E E E R R R R R R I I I I I I I I I I P P P P P L L L L v c c c c z h f d h s s s t e q q 3 3 < , , : : : ; ; ; = + + O O o o . . . o . .         ",
"pXwXwXwXwXwXqX0X0X8X8X8XT.T.T.T.I.I.I.I.8X0X0X0X0X0X0X0XXXXXXXXXP.K.K.J.K.K.P.P.P.K.K.J.J.J.J.K.J.J.P.P.XXXXXXXXXXI.I.I.K.K.K.n.z.l.h.h.e.e.e.e.y.y.h.l.j.z.c.c.j.l.l.x.l.y.y.y.y.y.u.w.<.<.=.=.=.*.&.*.=.*.*.=.=.<.w.y.y.h.h.l.c.c.c.c.c.n.b.b.b.n.c.c.c.z.c.c.c.z.h.h.h.h.h.h.l.u.u.u.n.J.l.>.1.>.1.,.>.*.w.d.r.t.a.a.S._.A.s.i.q.i.i.i.i.i.i.i.i.i.) ' ' ' ' ' ' ' R.R.R.R.R.R.R.R.R.R.R.R.~.Q.R.R.E.R.R.R.E.E.E.E.E.~.~.~.=X=X>XHXUXPXCX,X[._.p._ ) _ V._._._._.|.-X-X-X-X-X-X-XE.A ( =X=X=X=X(.(./.lXIXUXIXUXHXkX;X;X;X;X(.;XkX;X;X;X;X;XGXUXUXUXUXUXUXUXUXUXUXUXUXUXUXUXUXUXUXUXPXPXUXUXUXUXUXPXIXPXzX7X XU B c h B L B h f x x c L L L B c c c h d t e e 0 0 0 0 0 0 q 0 0 q t g k e 3 3 0 e 0 0 3 0 0 0 3 3 0 3 3 3 2 0 3 , , 3 3 : , , : ; ; = = $ $ $ $ = = > , , , , , , : < < 4 4 4 s f z c c v V C C V V I I I I I I I I R R R I I I I I I I I I I I P P P P P P P P P L L P L c c c c x j f f h d s d d d e e 0 q < 3 3 3 , 2 , : , = + $ + + O X . . o o X .       . ",
"pXwXwXwXwXwX0X0X9X8X8X8XT.T.T.T.I.I.I.XXwXwX0XXX8X8X0XXXXXXXI.K.J.K.K.J.K.K.K.J.K.K.J.J.J.J.J.K.K.P.I.XXXX8XXXXXXXI.I.L.K.K.K.b.c.z.z.l.l.h.h.h.l.x.j.c.z.z.c.c.j.j.x.x.l.l.u.u.y.y.y.w.w.w.<.=.=.=.*.*.=.*.*.*.*.=.<.w.1.1.h.h.j.c.c.c.c.n.n.b.b.c.c.c.c.c.c.c.c.z.h.h.l.h.h.h.l.l.u.u.x.J.y.-.>.>.1.1.1.>.w.d.p.p.A.A.d.d.s.i.i.q.i.i.i.i.i.i.i.i.i.' ' ' ' ' ' ' ' Q.Q.Q.R.R.R.R.R.R.' R.R.R.R.R.R.R.E.R.E.R.E.E.E.~.~.~.E.^.=X=XlXPXPXVX,X{.`.p.p._ ) _ C.V.V.A.[.-X5X>X-X-X-X-X=X( A E.=X=X(.(./.W.(.GXIXIXIXIXVXkX;X;X=X;X;X;X;X;X;X;X;XkXLXUXUXUXUXUXUXUXUXUXUXUXUXUXUXUXUXUXUXIXPXUXUXUXUXUXUXUXLXlXQ.G x c x f z L L h h h c c L L F F B B x z h e q e q 0 0 0 , , 0 0 0 0 q t k g 0 , 3 3 0 0 , 2 0 0 3 3 0 3 3 0 0 3 2 , , 2 3 , : , , ; ; = = $ $ $ $ = = > , 8 3 3 < 3 , 3 4 4 4 < 4 a s s s s h j j j j v V V V C C C C C C C P P V C C C C I I I P P P P P P P P P P L L P P L c c c x z h f f f d h h d s e q e 3 4 3 3 3 3 , : , ; = = $ + + O o X . o o .       . ",
"wXwXwXwXwX0X0X0X8X8X8X8XT.T.T.T.I.I.I.8XwXwX8XXXXXXXXXI.P.K.J.J.J.J.J.J.J.K.K.J.J.J.J.J.J.J.P.K.I.XXXX8X8X8XXXXXI.L.K.K.K.J.c.c.n.n.n.c.z.z.z.z.l.z.c.c.l.h.l.l.l.c.z.j.x.l.l.y.y.y.e.e.w.w.w.<.=.*.=.=.=.=.=.&.=.=.<.<.<.1.e.y.h.c.c.c.c.b.c.c.c.c.c.c.b.c.j.c.c.z.z.z.h.h.h.h.l.h.u.u.n.J.e.-.>.>.>.,.e.>.w.d.s.s.!._.d.i.i.q.q.q.i.i.i.i.i.i.i.i.i.' ' ' ' ' ' Q.' ' ' R.R.R.' R.R.R.' R.R.R.E.R.R.E.' E.R.E.E.R.~.~.E.~.~.~.=X=X>XGXKXcX6X{.`.V.V.V._ _ p.V.a.C._.-XVXlX-X-X-X-X-XE.A H /./.W.W.W.(.(.>XLXUXIXIXLXlX;X;X;X;X;X;X;X=X=X;X;X;XHXUXUXUXUXUXUXUXUXUXUXUXUXUXUXUXUXUXUXLXKXUXUXUXUXPXUXPXVX~.H z x h h h h B L c h h c c B L F B B B x z h q e e q 0 , 0 , 0 0 0 0 0 3 0 t u 0 , , 2 0 3 , 3 3 3 3 3 0 0 3 0 0 , , 3 , , 2 : , , , , > = = = $ $ $ = = = > , 0 0 3 0 q q q q s s s s s s a s f j j j j j j c j j V v v v j j j c v v v v v C C C P P P P P P P L L L L P P P L v c c c c c z h h h f h f s s s q q 4 4 3 3 3 3 3 : : = = ; $ + X o X   X o o . .     ",
"wXwXwXwXwXqX0X0X8X8X8X8XT.T.I.8X8XI.8X0XwX0X0XXXXXXXXXK.J.J.J.J.J.J.K.J.J.J.J.J.J.J.J.K.J.K.XXXXXX8X8X8X8X8XI.K.J.b.c.j.h.h.h.l.z.z.z.z.z.c.c.z.l.h.f.h.h.f.f.f.e.f.h.l.l.j.x.l.x.l.y.y.e.w.w.w.<.=.=.=.=.=.*.=.*.&.=.<.<.1.1.y.y.h.h.c.c.c.c.c.b.c.c.c.c.c.c.c.z.h.h.h.h.h.h.h.l.l.u.l.n.J.e.-.>.,.1.,.1.<.w.d.s.Q.s.s.i.q.q.i.q.q.i.i.i.i.i.i.i.i.i.i.' ' ' ' ' ' ' ' ' Q.Q.R.' R.R.R.' R.R.R.R.Q.R.' E.E.R.E.E.E.E.E.E.E.~.~.=X=X=X5XVXlX,X|.`._._.p._ ) _ V.a.V._.-XCXGXkX-X>X-X-X-X( A ` E.W./.=X=X;X=XVXUXUXPXIXHXkX;X;X;X;X;X;X;X;X;X;XlXLXUXUXUXUXUXUXUXUXUXUXUXUXUXUXUXUXUXUXIXKXUXIXUXUXUXPXlXR.H S N x h s s g z B F x h z x z B L F c B c h g e q e q 0 3 0 , 3 3 3 0 0 0 0 0 l t 2 , , , , , 3 3 0 3 3 0 0 3 0 0 3 , 3 , : , , , , , , , > = = $ $ = $ $ $ = > 3 e e q q s s q s f f f f s s f f h j j j j c j j c v v v v v v c c v v v v v v j j v v v v v V P P L L L P P P L L v v c c c x x j z h h h f d s s q 4 4 4 3 4 4 4 3 < : = ; = + + + o X o . . . .   . ",
"wXwXwXwXwX0X0X0X8X8X8X8XT.T.T.8X8X8X0XqX0X0X0XXXXXI.K.J.J.J.J.J.J.J.J.J.J.J.J.J.J.K.K.K.I.I.XXXX8X8X8X8XXXK.J.c.z.h.h.f.1.1.f.l.l.h.h.h.f.f.f.1.1.e.e.f.f.f.f.f.e.e.e.e.e.h.l.j.j.l.y.y.y.w.w.w.w.<.=.=.<.<.=.=.=.*.*.*.=.<.<.<.y.h.h.c.z.c.c.c.c.c.c.z.c.c.c.c.z.h.h.h.h.h.l.h.h.u.u.x.J.n.e.:.1.e.e.,.1.e.w.s.Q.`.Q.s.i.) q.i.i.i.i.i.i.i.i.i.i.i.i.i.i.' ` ` ' ' ' ' ' R.R.R.R.R.R.R.' R.R.R.R.~.Q.' ' E.E.R.E.E.E.E.E.E.~.~.=X=X;X-X5XlX:X|.[._._.V._ _ _ _ C.C._.}.lXKXGX5X>X>X-X>X=X( H E.}.}.=X;X=X;XkXKXUXUXIXIXxXkX;X;X;X;X;X;X;X;XlXGXIXUXUXUXUXUXUXUXUXUXUXUXUXUXUXUXUXUXUXUXLXPXIXUXKXGX:X` H z N B N z x x h z h x F x h x x B L L N B c h g d q e q q 0 0 , , 3 , 0 0 0 3 0 g k 0 , , , , , , , 3 2 2 0 3 , 3 0 3 , 3 , , 3 , , , , , , > ; ; = = = $ $ = = = ; 0 e e q s d d h f j j j j j j j j c x v v v v v v v v v v v v v v V V V V V v v v c j x j c c v v L v L L P P L L L v v c c c c x j j z z h h f s e q e e 4 e e 4 4 3 , : , ; $ $ + + X X X . . . . X ",
"wXwXwXwXwX0X0X9X8X8X8X8XT.T.8X8X8X0X0X0X0X0X0XXXP.J.J.J.J.J.D.D.J.J.J.J.J.J.K.J.J.K.J.K.I.I.I.XXXXXXI.K.H.z.h.f.1.1.e.f.f.1.f.h.h.h.l.f.e.,.,.,.,.,.,.e.e.e.e.e.e.e.,.-.-.:.e.h.h.h.y.y.y.e.w.<.<.<.<.<.w.w.w.w.=.=.<.=.=.*.*.=.1.h.h.j.z.c.c.c.z.c.c.c.c.c.c.c.z.z.h.l.l.l.l.h.y.y.u.x.J.n.w.1.e.e.e.>.,.e.u.s.!.`.|.s.) i.q.q.i.q.i.i.i.i.q.i.i.' i.i.i.' ' ' ' ' ' i.Q.' ' R.' R.R.R.R.R.E.R.R.R.R.R.E.E.R.E.E.E.E.~.~.~.E.~.~.=X=X-X5XzX6X|.{._ ~ V.C._ p._ a.C._.}.>XHXLXxX>X>X>X>X>XE.A ( }.=X;X;X;X;X;XlXPXUXIXIXLXlX;X;X;X;X;X;X;XlXHXIXIXUXUXUXUXUXUXUXUXUXUXUXUXUXUXUXUXUXUXUXLXLXUXKXlXE.( H G B M x N h z z h x x x B G x h z c G L B B x k h d q q q q 0 0 , , , , 0 0 0 3 3 t k t 3 , 3 , , , 2 3 , , 3 3 , , 3 3 , , , , 3 , , , 2 , ; = > ; = = = $ $ = % = = = : 3 h d s d f f h h j c c c c v v v V C C C V C C C P C C C V V C C C C C C C v v v v v v c j j v v v V L L L L V V C V c c x x j j j z z j h s s s s e 4 e e 4 3 3 3 , , : = = $ $ + o o o . . . . ",
"pXwXwXwXwX0X0X8X8X8X8X8X8X8X8X8X8X0X0X0X0X8XXXXXJ.J.J.J.J.D.D.D.D.D.D.J.J.J.K.K.K.K.K.P.I.I.I.I.L.K.b.c.h.1.1.1.e.e.f.f.f.f.f.f.h.l.f.f.e.,.,.e.,.e.,.e.e.,.e.e.e.e.,.>.-.>.1.e.y.h.y.y.y.e.1.<.<.1.1.w.w.w.w.w.=.=.<.w.<.=.&.*.1.y.h.h.h.h.c.j.h.h.j.c.c.c.c.l.l.j.h.h.l.h.h.h.h.h.u.u.J.n.e.1.e.1.1.1.1.1.e.d.`.-X5X|.' ) ) ) ) ' i.i.q.q.q.) ' i.i.i.i.i.i.' ' ' ' ' Q.' ' ' ' R.R.R.R.R.E.E.E.E.R.R.E.E.R.E.E.E.E.~.~.~.E.~.^.=X=X-XlXGXCX,X|.` K `.|.V.p._ p._._._.|.VXPXKXlX-X>X>X>X-X( A E.-X;X;X;X;X;X;XGXIXIXIXIXHXkX;X;X;X;X;XlXHXIXIXIXIXIXUXUXUXUXUXUXUXUXUXUXUXUXUXIXUXUXUXLXKXKXlX!.Q F F x x h h x x x x z z N c c B B x h x B G L c x z h h d e e e 0 , : , , , 3 0 2 3 3 0 g t 0 , , , , : , , , , , 0 , , 0 0 3 2 2 3 0 3 2 , , 3 , : , , = - - = = = = = = + * - e h h g s f h h z c c c c v v V C C C C C I I I I I I I I I I I I I I I I P P P I P V v c j j c v V V C P P V V C V V c x x j c x j j z z h f s s s s 4 q e 4 4 3 3 < , ; = = $ + X o o o o .   ",
"pXwXwXqXwX0X9X8X8X8X8X8X8X8X8X8X8X0X8X8X8XXXXXXXK.J.J.J.D.x.x.x.D.D.J.J.J.J.J.K.K.L.I.I.L.K.K.K.H.c.h.4.1.1.,.e.e.e.e.e.f.f.f.f.f.f.1.,.,.O.O.e.,.,.>.e.e.,.e.e.e.e.,.,.,.1.1.>.<.<.e.e.e.e.e.1.<.<.1.w.u.u.u.u.w.w.<.w.<.=.*.=.1.1.y.h.h.h.j.h.h.j.c.c.c.c.c.l.j.h.h.h.h.h.h.h.h.h.y.u.J.n.e.1.1.<.<.e.e.,.e.d.`.:X6X:X!.) i.) ) ) ) / ) q.i.i.i.i.i.s.s.i.i.i.' ' ' ' i.Q.Q.' ' R.R.R.R.R.R.kXVX-XR.R.E.E.E.E.E.E.E.E.~.~.~.^.^.=X=X-XGXKXJXcX-X|.|.5X,X`.p.V.p.V._._.|.6XKXIXHX5X>X>X>X>X=XH H =X;X;X;X=X=X/.>XKXUXIXUXIXxX;X;X;X;XxXKXLXIXIXIXIXIXUXUXUXUXUXUXUXUXUXUXUXUXUXUXUXUXUXLXGXlX~.W F N x x z g z z h x z h h h B x h x B z h x B L x z z h d t e q q e 0 2 3 2 , 3 0 , 3 3 , t g t 3 , , , : , , , , , 3 0 , 2 0 3 3 2 , , 3 3 3 3 3 , , , , ; ; ; = * + = - = = = = : t k k z h f z c c x x C V V V V C C P P I I I I I I I I I I T R R T I I I I I T I P C C V c j j c v V C V V C C V V v c x j x c x j j j j h f f s s s s s 4 q q 3 3 3 , : > % # O o o o o . . ",
"wXwXwXqXwX0X8X8X8X8X8X8X8X8X8X8X0X0X8X8XXXXXI.I.K.J.J.J.D.x.u.x.x.D.J.J.J.J.J.J.K.L.I.I.L.J.F.F.h.1.1.1.,.1.e.e.e.,.,.f.f.e.f.,.,.,.,.,.O.O.O.,.O.O.O.,.,.,.,.,.,.,.,.,.e.e.1.-.o.*.>.<.1.e.e.e.<.<.<.w.w.u.u.u.u.w.<.<.<.=.=.<.<.1.y.h.h.h.l.h.h.j.c.c.c.c.c.l.j.h.h.h.h.h.h.h.h.y.u.d.J.x.<.1.<.>.<.e.e.e.e.d.!.-X5X5X-X' / / / ( / / ) q.i.i.i.i.s.s.s.i.i.i.' ' ' ' i.' R.' ' R.R.R.R.R.E.xXPXlXE.R.R.E.E.E.E.E.E.E.~.^.=X=X^.=X=X;XGXKXKXHX6X,XVXVXlX,X`.a.a.p._._.}.:XGXIXIXVX>X>X>X>X>XE.A ( ;X;X;X=X=X;X;XxXIXIXUXUXKXlX;XkXxXLXIXLXIXIXIXIXIXIXUXUXUXUXUXUXUXUXUXUXUXUXUXUXIXUXKXlXQ.K F N N z z z g z x z x z h z z x N N x x B B x N B c z h h h e e 3 3 0 0 3 3 , , , , , , 3 , e l t w 2 , , , , , 3 , , , w 3 , 2 0 0 3 , , 2 3 0 0 3 2 , , , ; ; ; = = - - = = ; ; = * : 3 z c z h f h c c c c v V V V P P P P I I I I I I I I I I I T I T R I I T T I I P C P P v c j j j v V C P C V V V c c c x j x x j j x j h f s s s s s s e e e 4 4 3 , , > ; % # + + X o X . ",
"pXwXwXwXwX0X9X8X8X8X8X8X8X8X8X8X0X8X8X8XXXXXI.K.K.J.J.J.D.x.u.u.x.x.D.J.J.J.J.J.K.L.K.J.J.c.j.4.:.,.:.1.,.1.e.e.e.,.,.e.f.,.,.,.O.,.O.O.O.O.O.O.O.O.O.O.O.,.,.,.,.,.,.,.e.e.,.>.o.o.>.-.-.<.e.e.e.w.<.<.w.w.w.w.u.y.w.w.<.=.=.<.<.1.y.h.h.h.l.l.c.j.j.c.j.c.j.h.h.h.h.h.h.h.y.h.h.y.u.u.J.x.<.1.1.,.>.e.e.1.e.d.i.~.>X5X5XQ.( ) / ) ) q.i.i.i.i.i.i.i.s.s.s.i.i.' ' ' ' ' i.Q.' ' R.' ' ( ( E.>XVX-X~.~.E.E.E.E.E.~.~.~.~.^.=X=X^.=X;X;XlXHXLXLXCX5XlXVXcX6X:XQ.p.p.V._.|.-XzXLXUXPXlX-X>X>X>X>XE.A W.;X=X=X;X;X;X;XGXUXIXUXIXGXlXGXIXIXIXIXIXIXIXIXPXIXIXUXUXUXUXUXUXUXUXUXUXUXUXUXUXKXlXR.K B F B x x x N x x B B x c B x x h c B x x B L B B L B z g k k g s e e 0 3 3 , , , , , , , , , 0 t t e 3 , , , : , , , , , 0 0 , , , 3 0 , , 3 3 0 0 0 0 3 2 , - ; ; = = - ; = = = = = = : : 4 z c c z f s h c j c c V V L P P P I I I I I I I I I R I I R T T R I I I I I P C P C P V v c j x V P V C P P V V V B c c c c x x x x j j f s s s s s s s e q q 4 0 2 , > = % # + X o X . ",
"wXwXwXwXwX0X8X8X8X8X8X8X8X8X8X8XwX8X8X8XXXXXI.P.K.J.J.J.J.x.x.x.x.x.D.J.J.J.J.J.J.J.J.F.x.h.4.;.1.1.1.e.1.1.f.f.,.,.,.,.,.,.,.,.O.o.O.O.o.} } } } O.O.O.O.O.O.O.,.>.>.>.>.e.>.>.>.-.*.o.-.w.e.e.y.y.y.<.=.<.<.3.u.u.w.u.u.<.<.<.-.<.1.y.y.h.h.h.h.h.l.j.l.l.h.h.h.h.h.h.h.h.h.e.h.y.y.x.J.u.>.>.>.>.,.,.e.e.e.d.i.` =XkX5X-X' ( ) ) i.i.i.i.i.i.i.i.i.i.s.s.s.i.i.' ' ' ' ' ' ' ' Q.R.' ' ` ' E.}.~.E.E.E.~.~.E.E.~.~.~.~.~.=X=X=X=X;X;X;XVXKXLXKXlX5XGXVXzX7X-X_.V.p._.|.}.5XKXUXUXKXkX>XkXkX>X=XH ( =X=X;X;X;X;X=XlXLXUXIXUXIXLXIXIXIXIXIXIXIXIXIXIXIXPXIXIXIXUXUXUXUXUXUXUXUXIXUXHX5XR.Q U U L F B B C L L B G L B B F N c x x x x x x x B B B B c h h z k g q 0 0 0 3 3 2 , ; ; , , , , 0 w e t 0 , , , , : : : : : , 2 , , : , 3 , , 2 3 3 3 0 0 3 , , : ; ; = = = = - = = = = = : : : q h x c z s s h f h c V v V P P P P I I I I I I I I I I R R R R R I I I I I I P C C P C V v c j j V P V P C V v v V V V c c c c x x x z j f s s s s s s s e q q 0 3 , , ; = $ # X o X X ",
"wXwXwXwXqX0X8X8X8X8X8X8X9X0X8X0X0XXX8X8XXXXXI.K.K.J.J.J.J.D.D.D.x.x.D.D.D.J.J.J.J.c.j.h.1.:.>.-.,.1.1.1.1.e.e.,.,.O.O.O.O.O.O.O.} | } } Z Z I Z b I } } | } } O.O.O.O.>.O.o.>.>.>.*.o.o.>.-.<.y.y.y.w.<.=.3.w.y.u.u.1.w.w.w.w.1.-.<.1.h.h.h.h.h.h.h.h.h.h.h.h.h.h.h.h.h.h.h.y.e.h.y.y.x.J.u.>.>.>.>.>.>.e.e.w.d.i.` E.>X5X5X}.` ' i.i.i.i.i.i.i.i.i.i.i.i.i.i.i.i.' ' ' ' ' ' ' ' R.R.R.' ' ' ' E.E.E.=X-X=XE.E.E.E.E.~.E.W.=X=X=X;X;X;X;X>XGXLXLXHXlXlXGXVXlX6X|.`._.V.|.}.:XKXUXPXUXGX>XkXkXkXkXW.A E.;X;X;X;X;X;X;XGXUXUXUXUXUXUXIXIXIXIXIXIXIXIXIXIXIXIXIXIXUXUXUXUXUXUXUXUXLXGX>XR.Q U T I L P U P C L L L F F B B B B c x x x x x x x x x B L F z s g h k e 3 0 0 3 3 3 , - - ; : , , 3 0 e t e 3 , , , : ; ; - - , , 2 , , , 0 3 , , 3 3 0 3 3 2 , , , : ; = - - = = = = ; ; ; ; : : , < q z c h h h f h z h j c c C P P I I I I I I T I I R R R R T R I I I I I I I P P P P P V V c j j V P P P C V V V V V V c c c c c x x j j s s s s s s s s e q 4 3 3 , ; = = $ + o X o ",
"wXwXwXqX0X8X8X8X8X8X9X9X9X9X8X0X8XI.XXXXXXXXI.K.K.J.J.J.J.J.J.x.x.x.D.D.D.F.J.J.c.h.e.>.-.-.-.>.,.,.1.>.O.O.o.} } } Z Z Z Z Z I Z Z b b b b b b b b b Z b b I | | } o.| | | >.o.o.*.*.>.*.o.-.<.1.<.1.<.=.3.u.y.u.u.y.w.w.w.w.1.1.<.1.h.h.h.h.h.h.h.j.h.j.j.h.h.h.h.h.h.h.h.y.y.h.y.y.x.n.w.*.-.-.>.>.>.1.e.w.d.i.( ` =X5X5X-XQ.) i.i.i.i.i.i.i.i.i.i.i.i.i.i.i.i.' ' ' ' ' ' ' ' R.' R.R.' ` ` E.E.-XVXlX~.E.E.E.E.~.~.~.~.=X;X;X=X;X;X;X;XlXKXPXLXVX6XGXGXVXzX6X|._.' |.:X-XHXUXUXUXPXlX>XkXkXkX;X( A /.;X;X;X;X;X=XVXUXUXUXUXUXUXIXIXIXIXIXIXIXIXIXIXIXIXIXIXUXUXUXUXPXUXUXLXVX-X' W Q ^ &.T U U P P L L L L L F G B B B c x x z x x x x x x x L G x g g h z h q 0 t e 3 , , : - - : , : : 0 t e w 0 2 2 , , , : : ; : : , , , , 2 0 , , , 2 3 3 0 3 , 2 , , , - ; - * = = = = = ; ; > : , , : q z z z h f f s < j f f x V P I P I I I I I I I R R R T I I I I I I I I I P P P P P V C P v j c C P P C V V V V v v v c c c c c x j j j s s s s s s s s q q 4 3 , , - = = # + X X ",
"wXwXwXqX0X0X9X9X8X9X9X8X9X8X9X8XXXXXXXXXXXI.K.K.K.J.J.J.J.D.x.x.x.u.u.u.j.c.D.x.h.1.-.-.-.-.o.>.>.,.O.| Z b b b b b b b b b b b b j b b b b b b b b v b j j b v b v b Z Z | | | | o.O.-.o.o.*.*.=.<.w.<.<.w.y.u.u.x.y.u.y.y.<.<.1.<.1.h.h.h.h.h.h.h.h.h.j.j.h.h.h.h.y.h.h.h.h.h.h.h.u.x.x.*.o.o.-.-.>.>.,.e.e.d.) H ( E.;X>X5X|.' ' i.i.i.i.i.i.i.i.i.i.i.i.i.i.i.i.' ' ' ' ' ' ' R.' R.R.R.E.E.E.-XVXxX=XE.E.E.E.E.~.~.~.=X=X;X;X;X;X=X;X;X>XVXLXPXKXlXxXHXGXVXlX,X' ' 7XHXlXlXIXUXUXUXKXlXkXkXkXkX=XA ( ;X;X;X;X=X;XGXUXUXUXUXUXUXIXIXIXIXIXIXIXIXIXIXIXIXIXIXUXUXUXUXUXUXKXxX:XR.Q P E ^ &.^ ^ T U U C L L L L B B B B B B c x x x x x B N x x B F N z k h k z t 0 0 e 0 2 , , ; = ; , : ; 0 t 0 e 0 3 3 , , , , : ; : ; , , , , , 0 , , 2 3 3 0 3 2 , 0 2 , , : : - = = = = = = ; ; > : : , : : 3 s z c h h s < h f s h c C P C P I P I I I I I I I I I T I I I I P P I P P P P P C P P v v c v P P C V V C V V V v v c c c c x j j j h j s s s s s s s 4 q 0 3 , > > = $ $ + X ",
"wXwXqXqX0X0X0X0X0X9X8X8X8X8X8X8X8X8XXXI.I.I.K.K.K.J.J.F.D.x.u.u.y.4.4.4.y.y.y.y.>.-.o.o.| o.| | | I Z b b b b b Z Z Z } Z } } I Z Z Z I b b b b b Z b Z I b b b b j j b b b b Z I | o.| o.o.o.o.=.>.=.=.<.1.1.y.y.x.x.j.y.x.y.e.1.1.1.h.h.y.h.h.h.h.l.h.h.h.j.h.h.y.1.1.h.h.h.h.h.y.y.x.l.o.o.| o.*.*.-.,.e.w.!.) H ( ` }.5X5X5X!.' i.i.q.i.i.i.i.i.i.i.i.i.i.i.i.i.' ' ' ' ' ' ' R.' R.R.R.R.E.=XVXlX=XE.E.E.E.E.E.E.=X=X=X;X;X;X=X;X=X=X;X=X5XHXIXIXGXlXGXKXVXzX5X}.6XLXUXGX:XZXUXUXUXUXGXkXkXlXkXkXE.H W.;X=X=X=XlXLXUXUXUXUXUXUXUXIXIXIXIXIXIXIXIXIXIXIXIXIXPXIXPXPXPXHXlX:XQ.! W T ! ! &.2.^ ^ U P V V V B L G B B B c N x x x x x x x x x x F B c z h h d z d 0 3 0 0 , , , - = = : ; - , t w t t 0 3 , , 3 , : , : - - : , 2 , 0 3 , , 2 3 3 0 3 , 0 3 , , , , : = = = = = = = ; ; : : : , , : : d x c x s s s j h j c L P P P P P P I I I I I I I I T I I I I I I P P P P P P P P P V V V v V C V V C C V V V V V v v c c c x j j j h j f s s s s s q e q 0 2 , , > = $ # X ",
"wXwX0X0X0X0X0X0X0X8X8X8X0X0X8X8X9X8X8XI.L.K.K.K.J.J.F.F.j.j.4.1.;.-.-.<.<.<.;.-.>.o.| | | I Z b b Z } } } } } o.O.O.,.O.o.O.O.} } o.O.o.} } } } } } } o.O.} } } I I I b b v j v b Z I R o.o...o.o.o.*.*.-.<.<.y.y.h.x.j.j.l.h.h.y.:.1.1.y.y.y.h.h.l.j.l.j.h.h.h.h.y.:.1.y.h.h.y.y.e.y.j.h.*.| | | o.o.-.,.e.w.`.!.A K ` E.-X5X5X-XQ.' q.q.q.i.i.i.i.i.i.i.i.i.i.i.i.i.i.' ' ' ' ' ' ' ' R.R.R.E.=X>X~.E.E.~.~.~.~.-X;X=X;X;X;X=X=X=X=X=X=X=X=X;XlXLXIXPXGXxXKXHXCXVXZXLXUXUXUXxX6XLXUXUXUXLXVXkXlXkXkX;X( ( =X=X=XkXGXPXUXUXUXUXUXUXUXUXUXPXPXIXIXIXIXIXIXLXLXIXLXIXLXKXGXlX:X!.! ! ! ! / / / &.^ ! T U V V L B B F N B N N x x z x x x x z x x x L B N x z k h h t e 0 3 3 2 , , , = = - = ; : w 0 e t 0 , 2 3 3 : - , ; = = : , , , 0 0 2 , , , , 3 3 , , 3 0 , , , , : = * = = - = = = = : , , , , - , e k x z d f h h c c c V V V P P P I I I P P I I P I I P I I I P I I I I P P P P P P V V V c C C C Z C C V V C V V v v v j c j j j h j f s s s s s e q 4 3 2 , , , ; $ $ + ",
"wXwXwXqX0X0X0X0X0X9X8X9X0X8X8X0X8X8XI.I.L.K.J.J.F.c.x.j.y.4.;.-.*.o.$.*.*.-.o.| o.| | | I j b } o.,.4.4.f.h.f.l.l.l.f.f.,.e.e.,.,.,.,.,.,.O.O.O.,.e.O.,.e.O.O.O.O.o.| | | R I Z v j v C I R E  . .....o.o.-.<.y.y.y.j.j.j.j.h.h.y.1.y.e.e.h.h.h.h.h.l.h.h.h.h.h.h.h.e.1.1.y.h.y.y.y.y.j.h.o.o.| | ..o.-.:.e.w.|.,X( A ( ` E.>X5X:X|.i.q.q.q.q.i.i.i.i.i.i.i.i.i.i.i.i.i.' ' ' ' ' ' ' ' R.R.E.E.~.E.R.E.E.~.E.E.}.GXKXlX;X;X;X;X=X=X=X;X=X=X=X;X>XGXIXIXLXlXGXIXLXJXLXUXUXUXUXLX6XVXUXUXUXUXKXlXkXlXkXkX=XH E.;X5XGXLXIXUXUXUXUXUXUXUXUXUXPXPXPXIXIXIXIXIXIXLXLXLXLXKXGXlX:XQ.) ! ! =.&./ ! T ! T T T T M M L B B B N B B c c x x z z z z z z x x B F N g h g g g t t e , , , 3 3 , = - ; = - = 2 0 e e 0 3 3 , , : - : : - - - , , , 0 0 2 2 , , 0 3 2 3 , 3 0 0 , , , , : = = = = = = - = ; ; : : , : , , 0 h z z h h x c c j c V C P P I I P I P P I I I I I I P P I I P P I I P P I T I P V V v c V C C C C C C C C C V v V V v c c x x j j j f f f s s s e q 4 3 2 , , ; = $ + ",
"wXwXwXqX0X0X0X0X0X0X0X0X0X8X0X0X9X8XI.I.I.K.J.F.F.j.h.4.<.:.;.*.*.| | | | | | I I Z b b Z | >.f.z.z.j.z.c.c.z.z.z.l.l.l.h.h.f.f.f.f.e.e.e.e.e.e.f.e.e.f.f.e.e.e.,.O.O.>.O.O.o.| Z v j j v Z I R E E R | | o.<.1.y.y.h.h.h.j.j.l.h.1.1.1.1.y.y.h.h.h.h.h.h.h.h.h.h.h.1.1.1.1.y.y.y.e.y.l.y.o.o.| | | ..-.:.e.d.|.6X}.A H ` E.=X>X5X:X!.' i.q.q.i.i.i.i.i.i.i.i.i.i.s.s.s.i.' ' ' ' ' ' ' R.R.R.R.E.E.E.E.E.E.~.E./.GXUXKX5X;X;X;X=X=X=X=X=X=X=X;X=X5XHXUXIXHXlXKXIXPXPXUXUXUXUXUXGX6XKXUXUXUXUXGXlXlXlXkXkXE.A /.GXLXIXPXIXUXUXUXUXUXUXUXIXPXPXIXIXIXIXIXIXIXLXLXLXKXHXVX5X!.i.q./ =.q./ ! T T ! T U U U P L B B N N x N x x x x x z x z z z h z z x B x s g d d d t t e 0 2 , , , , = : : = = = , 0 0 e e 0 0 3 2 3 : , : - = = ; : , 0 0 3 3 , , 3 , 2 0 0 0 0 0 2 , , , ; ; - = = = = = = = = ; : : - , < , 3 d k x z z z z h j c V V P I I C P P P I I I I I I P P P Z C C P C C P I T I P C V V x c C C P P C C C P C C V V V V c c c c j j j j h f d s s e e 0 3 3 2 , ; = $ $ ",
"wXwXwX0X0X0X0X0X0X9X8X9X8X8X8X8X8XI.L.L.L.J.F.F.x.h.y.4.:.;.%. .R Z Z Z C v b b b v Z | >.l.z.z.c.c.b.c.c.c.z.z.z.z.z.l.z.h.f.f.f.f.f.f.e.e.e.f.f.e.e.f.f.f.e.f.e.,.,.>.>.>.>.>.o.| I v j v C I I I I R | o.-.<.1.y.h.h.h.h.j.h.h.1.:.<.1.h.h.h.h.h.h.h.h.h.h.h.h.h.1.1.1.y.h.y.y.y.y.l.y.-.>.-.-.o.| -.:.e.d.-X6X6X` A ( E.E.-X5X5X|.' ' i.i.q.q.q.q.i.i.i.i.i.s.s.s.s.i.' ' ' ' ' ' R.R.R.R.R.R.R.R.E.E.E.~.~.}.lXLXIXGX;X;X;X=X=X=X;X;X;X=X=X=X=XlXLXIXLXVXCXIXIXUXUXUXUXUXUXUXxXxXIXUXUXUXPXVXlXlXlXlX>X( ( lXIXIXPXUXUXUXUXUXUXUXUXUXPXPXIXIXIXIXIXIXIXLXKXHXGXGXlX|.) ! &.&.^ &.^ ^ ^ ! T T U P P U U U U B B N x x x z z z x x z k z h h h z N h s g t e d t 0 w e 0 , , 2 , : , , = = = = , 2 0 t 0 3 3 , 2 , , ; ; = = = - : 3 0 3 0 2 , , , 3 0 3 , 2 0 0 0 2 , ; : ; = = = = - - = = = - : - : , , , < q h x z z h j f c P x c P T I C C C C C I I I I I I P C P C C V V C P P I P C v C c j V C P P P C C C C C C V V C v c c c x j j j j f h f s s e e 4 3 3 , : ; = $ ",
"wXwXwX0X0X0X0X0X0X9X8X8X8X8X8X8XI.I.L.K.K.F.F.F.h.4.y.4.4.:.%. .Z v j j v v v C Z | 1.h.l.z.c.c.c.c.c.z.z.z.c.c.j.l.l.f.h.f.f.f.f.f.f.e.e.f.e.f.f.f.e.f.f.e.e.e.e.e.,.>.,.>.>.>.>.o.o.R v j j v v v C Z Z R | -.<.4.h.h.h.h.h.h.h.1.1.:.:.y.h.y.h.h.h.h.h.h.h.h.y.y.h.1.e.h.h.y.e.y.y.x.e.>.<.:.1.<.o.-.:.w.s.:X6X6X-XH H ( R.}.>X6X5XQ.' ) ' q.i.i.i.i.i.i.i.i.i.s.d.!.s.i.i.' R.~.Q.R.Q.R.R.R.~.E.E.R.R.~.~.E.=X;XGXIXLXkX=X=X=X;X=X;X;X;X=XW.W.W.;XGXIXPXKXxXHXIXIXUXUXUXUXUXUXLXlXGXUXUXPXUXLXlXlXlXlXkX=XA /.HXIXPXIXIXUXUXUXUXUXUXUXIXIXIXIXIXIXIXIXLXKXGXGXGXlX}.i.! E &./ ! &.^ ! ! U U U L L L V B U Q U L F N N N z z z z k h h z h h h k z z e e t e e t e w w 0 0 0 3 , , , , : = * = - , 0 t t 0 w , , 3 , = ; ; = * = : : , 0 3 3 , : , , , 0 0 0 0 0 0 2 : ; - ; ; = = = ; = = = = = = ; ; = - - , - , q h z z h h z U c j V V C V V P V V C C V V C V V C C C V V c c v V C P Z V V C j V C C C P P P C C C C C V C V V v v c j x j h j j f h d t e q 3 3 , : ; ; $ ",
"wXwXwX0X0X0X0X0X0X0X9X8X8X8X8X8XI.I.L.K.K.F.F.h.4.4.4.4.4.3.;.%.| | Y | o.*.<.1.h.j.c.c.c.c.b.H.F.c.c.c.z.z.c.c.j.h.l.f.h.h.f.f.f.f.f.e.f.e.e.e.e.f.f.f.e.e.e.e.e.1.1.1.1.1.,.>.>.o.o...I C v j j v v v b Z | -.1.4.h.h.h.h.h.h.h.1.1.<.<.y.h.y.h.h.h.h.y.h.h.h.y.h.y.e.1.y.y.e.e.y.y.j.e.<.1.1.f.e.<.<.:.w.d.5XlX5XlXE.A ( E.E.-X5X5X-X' ( ' i.i.i.i.i.i.i.i.i.i.s.d.s.!.!.' R.:XVX:XR.Q.R.R.R.~.Q.~.~.}.}.}.}.=X;XlXKXUXGX-X;X;X;X=X;X;X=X(.W.W.(.=X5XHXIXLXGXCXIXIXUXUXUXUXUXUXUXGX6XLXUXUXUXUXHXlXlXlXlXkXE.( lXLXIXIXIXUXUXUXUXUXIXUXUXUXIXIXIXLXLXLXHXGXGXGXlX|.!./ T &.=.=.&.&./ ! U U Q P L V V B N N G L U U G B x x x z k h h h h g k k k h k s e t e e e e 0 e e 0 0 0 , , , : : = = * = : 2 e g e 3 , 3 3 , : = = - = = : , , , , , , , , , , 3 0 0 3 0 w 0 , , ; ; : - = = = = = = = - - ; = = - - , : - : 0 s k z c h z c c j f x c V I C V V V C C C C C P V V V C V c v V c v C V V P c j C C P P P P C C P C V C V V V V V V c x x j h j h h g s e e 4 3 2 , : ; ; ",
"wXwXwX0X0X0XqXqX0X0X8X8X8X8X8X8XI.I.L.K.J.F.j.4.7.7.7.7.4.4.4.:.;.:.1.4.y.j.J.J.F.J.J.J.K.K.K.K.J.H.b.b.c.b.b.c.c.j.j.h.h.f.f.f.f.f.f.f.e.e.1.e.f.f.h.f.f.f.f.f.e.e.e.f.f.e.e.e.e.>.>.o.......R Y Z Z Z Z | | -.:.1.7.7.y.y.y.h.y.1.:.:.1.1.h.y.h.h.h.h.h.h.h.y.h.h.y.y.e.y.y.e.e.y.h.x.e.<.1.:.7.h.1.:.<.w.!.5X6X5X5X5X( A ` E.}.>X5X5X}.' ' i.i.i.i.i.i.i.i.i.i.i.i.s.s.Q.Q.:XHXKX5XR.~.~.Q.~.~.~.~.}.}.}.=X=X}.=X=XxXPXIXlX;X;X;X;X=X=X/.W.W.W.=X=X=XlXLXIXKXGXHXUXUXUXUXUXUXUXUXIXlXVXUXUXUXUXPXVXlXlXlXlX>X( W.GXLXLXPXPXUXIXUXUXUXUXUXUXUXIXLXKXKXHXGXGXHXxX:X!.i.! E =.q.=.=.=./ ! Q Q W L B B B N N N N N G L G F B c z z z k k k g d k g g s g g t e e w e e w 0 e w 0 0 3 2 , : : : - = = = , 0 g t , , 3 , , , - = : - = - : , , , , , : , , , 3 0 3 3 3 0 0 3 , , : , , - = - - = = = ; ; - = = ; > ; : , : , < q k x x s f h s 4 j x c C I I P P I I I P C C C V C P P C C C V v c j j C V c V C P P P P C P P C C C C V V V V V v c x j j j j h h d e e 4 4 3 , , , ; ",
"wXwXwX0X0X0XqXqX0X0X8X8X8X8X8X8XI.I.K.H.F.k.j.h.h.h.h.h.4.4.4.4.4.h.h.j.F.F.J.J.K.K.K.L.L.K.K.K.J.H.H.H.c.c.b.c.j.j.l.h.h.h.f.f.f.f.f.f.f.e.f.f.f.f.h.h.h.h.h.l.h.h.h.h.h.h.h.h.h.1.:.1.<.<.-.=.-.*.*.-.-.-.-.;.1.1.4.4.y.y.1.1.y.e.1.1.1.y.h.y.h.h.h.h.h.h.e.h.h.h.y.h.h.y.h.e.y.y.u.l.1.>.e.1.7.h.1.:.-.q.!.5X6X5X5XlX=XH ( ` E.=X5X5X:XQ.i.i.i.i.i.i.i.i.i.s.i.i.i.i.s.Q.~.GXLXxX~.R.R.Q.Q.~.~.~.}.}.}.}.=X=X~.E./.;XHXUXKXkX;X;X;X/.W.W.W.W.W.W.=X=X;XVXIXIXHXGXLXUXUXUXUXUXUXUXUXKX6XHXUXUXUXUXKXlXlXlXlXlX(.( >XKXPXLXPXPXPXPXUXUXUXUXIXUXIXLXHXHXGXHXHXGX5X-X!.q.&.=.q.q./ / / ! W ! U L B M B B x x x z x x N N N N N z z h h k g g g k g t e e g g e e 0 e e 0 0 0 0 0 0 3 3 0 , , , , - * * - , t g 0 , , 3 2 , , - ; - ; = : , , , , , , , , , 3 3 3 3 , 3 0 3 2 , , , , - = = - = = = = = - = = = = = , , ; : : , q d h h s s s q z h j V C P P T T I P C C C C Z P P P P P C C C C c j j j j c C P P Z C C C P P C C C C C C V V V c x x x j j h h d s e 4 4 3 , , : ; ",
"wXwXwXwXwXqXqX0X0X0X0X8X8X8X8XT.I.L.K.F.j.j.j.j.j.j.j.j.h.h.h.j.j.k.k.F.F.H.H.H.K.K.K.H.K.K.H.H.H.F.F.c.c.j.j.j.h.h.h.h.h.h.f.e.e.e.e.e.1.1.1.1.e.e.1.1.1.h.h.h.h.h.h.h.h.h.h.h.y.e.1.1.1.:.<.-.<.<.:.1.1.:.:.1.1.1.h.h.y.y.1.1.y.1.1.1.1.y.h.h.h.h.h.h.h.4.y.y.y.h.h.h.y.h.y.e.y.y.y.h.<.<.e.1.1.4.7.<.>.u.`.:X6X6XlXkXkXE.A ` E.~.-X5X5X|.i.i.i.i.i.i.i.i.i.i.i.i.i.i.s.Q.|.zXVX}.R.R.R.R.Q.R.R.~.~.}.}.}.~.=X=X~./.(.lXIXIXVX;X;X;X=XW.W.W.W.W.W.(.=X=XkXHXIXKXVXGXIXUXUXUXUXUXUXUXUXCXlXIXUXUXUXUXGXlXlXlXlXlXW.W.xXLXPXIXIXIXIXUXUXUXUXUXIXIXLXHXGXHXHXGXlX|.!.d.q.q.q.q.q./ / ! ! U U U L G B N N x x z k z k z z h k k h g k g k h g g g t e t t g g t 4 4 e e e 0 3 0 3 3 3 3 0 0 , : : ; ; = = = 3 t 0 3 , 0 , , : : - - , - = , , , , : , , , , 2 , , 2 2 3 3 3 0 , : ; , , ; = = ; ; = = = = = = = = = ; = = ; : , , , , q d e q 4 s s j V C V V Z I I C C C C C C C V V V V C C C C V v j j j j P P C P P C C C C P Z Z C V V C V V c c c x j j j f h s s e 3 3 < , , ; ",
"eXwXqXwXwXwXwX0X0X0X0X8X8X8X8XI.I.L.K.F.j.j.j.k.k.k.j.j.j.j.j.D.k.k.F.F.H.H.H.H.K.K.K.H.H.H.H.H.F.F.F.c.k.j.j.j.7.h.f.1.1.1.1.>.-.-.>.>.-.-.1.;.-.-.1.1.1.1.y.h.h.h.h.h.y.1.1.y.y.1.1.1.1.1.:.:.1.1.1.y.1.1.1.1.1.e.h.h.h.h.e.1.1.1.1.1.1.1.h.h.h.h.h.h.y.1.4.1.1.y.h.h.e.y.e.e.y.y.l.h.<.1.e.e.e.h.h.y.w.d.`.|.,X5XkXkXkX;X( H ' R.}.>X5X:X|.i.i.i.i.i.i.i.i.i.i.i.i.i.i.!.!.|.|.Q.R.R.Q.R.R.R.R.~.~.~.}.}.~.}.}.~.W./.;XGXIXLXkX=X;X=XW.W.^.W.W.W.W.=X;X>XlXKXKXxXxXLXUXUXUXUXUXUXUXUXPXlXCXUXUXUXUXLXVXlXlXlXlXkXW.(.GXPXIXPXPXIXUXUXUXIXUXUXUXIXKXHXKXGXlX5X|.s.d.w.q.q.q.=./ ! ! U P L L B G N N x z x N x z k k z k h h h g h g g g g g s t e e e t g t 4 0 4 0 0 3 , 3 3 3 3 3 0 e 2 : : , , , = = , e e 2 , 0 , 2 , : ; = , : = : , , , : , 2 3 , , 2 , 2 3 3 3 3 0 0 , ; , 2 , , : : ; - = = = = = = = + = $ $ ; ; ; ; ; , , q q q e d h c c V V v v v C C C P C V v V V c v V C P C C C V V v j j v V C P P C C C P P I P C C C C V v v c c x j j j f h g s e 0 3 3 < , ; ",
"wXwXwXwXwXqXwXqX0X0X8X8X8X8XT.I.I.L.H.k.j.j.j.D.F.F.F.D.D.F.F.F.F.F.F.F.H.H.H.H.H.H.H.H.F.F.F.F.F.c.c.c.j.j.j.h.4.1.1.:.:.-.-.*.o.o.o.o.o.o.*.-.-.-.>.:.:.1.1.y.h.h.y.y.y.1.1.4.1.1.1.1.1.1.1.1.1.1.1.y.h.1.y.h.1.y.h.h.h.h.y.1.y.y.e.y.e.e.h.y.h.h.h.y.y.1.4.1.1.4.h.h.y.y.y.y.y.u.x.h.<.<.1.1.1.h.h.x.u.d._.|.-X5XlXlX5XlXE.H ( R.R.-X5X5X-XQ.' i.i.i.i.i.i.i.i.i.i.i.i.s.s.Q.Q.Q.' ' R.R.R.R.~.~.~.~.}.}.}.~.}.~.W./.=XkXLXUXHX;X;X=XW.W.=X=X=XW.W.;X;X;X>XxXVXlXVXIXUXUXUXUXUXUXUXUXUXFX6XKXUXUXUXUXHXlXlXlXlXlX(.W.kXKXLXLXIXUXUXUXUXUXUXUXUXUXPXKXGXVXlX:X`.i.q.r.q.q./ ^ ! T U P L B B B B N N x z z z z z k k k g h g g g g g g g g s t e e e t t t e e e 3 3 w 0 3 2 , 2 3 2 3 0 3 , , , , , - = , 0 e 3 , 0 3 0 , : : = ; , - = ; : , : : , 0 , , 2 3 3 , 2 3 3 0 0 , : : , , , , ; = - ; = = = $ = = = ; = + = = = = > , , : < < 4 d j c c c c c c v v C C P P C V V V c v V C C C C C V V V j j f j v V V V C I I I P P P P C C C V V v c x x x x z h h d e q 3 3 3 , : ",
"wXwXwXwXwXqXqX0X0X8X8X8XT.T.I.I.L.K.F.k.j.j.j.F.F.F.F.F.F.F.H.H.H.F.H.F.F.H.H.H.H.H.H.F.F.F.F.k.c.c.c.k.j.j.j.7.1.<.<.-.-.-.-.*.| o.o.o.o.o.o.$.*.-.-.-.<.1.1.1.1.y.1.1.1.1.1.h.y.1.1.1.1.1.1.1.y.1.1.h.h.h.h.h.y.h.h.h.h.h.y.e.h.h.y.h.y.1.h.4.y.h.y.y.e.1.4.1.1.y.h.h.1.y.e.e.y.l.l.y.>.-.<.1.1.e.1.u.d.Z._.`.|.-X5XkXkX5X>X( H R.R.}.>X5X5X|.' i.i.i.i.i.i.i.i.i.i.i.i.i.i.i.s.Q.' ' ' R.R.R.~.Q.~.~.}.}.}.~.}.}.=X=X=X=XxXIXIXxX=X=X=X=X=X=X=X(.=X;X>X;X;X>X>X>XVXIXUXUXUXUXUXUXUXUXUXUXVXlXPXUXUXUXIXGXlXlXlXlXkXW.W.xXKXLXIXIXUXUXUXUXUXUXUXUXUXKXGXlX-X|.`.s.q.r.q./ ! Q Q W L L L B B N N x x x x z h h z k k h g h g g g g g g s g e e 4 e e t t t t t t 4 3 w 0 3 2 : 3 3 , : 0 0 , , , , : - ; : 0 t 0 2 0 3 3 : : , - = - : = ; , , , ; : , , , , , 3 2 , 3 3 0 0 3 , , , , 3 , ; - ; ; ; ; ; = = ; = ; = + = = + = > ; , ; : : : 4 h c B V c c v v c c c v V V V V V v v V v v V V V V v v c j j j c V v V P I I I C C P C C Z C V V v j x j j x x j h s e q 4 3 3 2 : ",
"wXwXwXwXqX0X0X0X0X9X8X8XT.T.I.I.K.H.F.D.D.F.F.F.F.F.F.F.H.H.K.H.H.F.H.H.H.H.H.J.H.H.H.F.F.F.F.k.k.c.j.j.j.h.h.7.1.-.-.-.-.-.*.*.| | o.o.o.o.| | | o.*.-.-.<.1.1.1.1.1.1.1.1.1.4.4.y.1.1.1.1.1.h.h.y.h.h.h.y.h.h.h.h.h.h.y.h.h.h.h.h.h.h.h.e.y.y.h.h.y.y.y.4.7.1.1.y.y.y.y.y.e.e.e.u.l.y.>.-.-.>.:.1.e.u.J.'.'.`.|.-X5X5XkX5XlX}.H ` }.R.=X5X5X-XQ.' i.i.i.i.i.i.i.i.i.i.i.i.i.s.s.Q.i.' ' ' R.R.~.~.~.~.}.}.=X}.}.=X=X=X;X=X;XGXUXLX>X=X=X=X=XW.W.;X;X;X;X;X;X;X;X>XlXLXUXUXUXUXUXUXUXUXUXUXLXlXCXUXUXUXUXIXVXlXlXlXlX;XW.;XHXLXPXPXPXUXUXUXUXUXUXUXUXKXxX:X|.|.`.r.d.r.q./ Q U ! Q U U B N N x x x x x z z z h h k h g g h g d d g g g t t e q 4 4 w e e e u u t 0 3 w e 0 , : , , , , 0 e 3 , , , , = = = 3 u t 3 , 3 0 , ; , : = = : - = ; : , , - ; , , : : 2 3 , , 2 0 0 0 3 , , , , , , : ; ; - ; ; ; ; = = ; = $ = = = = = = > - = = : : 4 h B P L C C C V c v v V C V V v V V V V V V V v v V v c j j j j c v V C P P C C P P C P P P C V v c x x j x x j h d s q q 4 3 3 , ",
"wXwXwXqX0X0X0X0X0X8X8X8XI.I.I.I.K.H.F.F.F.F.H.H.F.H.F.F.K.K.K.H.H.K.H.K.K.F.F.J.H.H.H.H.F.F.c.k.c.j.j.h.h.7.7.4.1.-.-.-.*.-.*.|  . ...o...| |  . .| *.-.-.-.<.<.:.1.1.4.1.4.1.1.4.4.4.4.e.h.e.y.y.y.y.y.h.h.h.y.y.y.y.y.1.y.4.1.y.h.h.h.h.h.y.y.h.y.y.y.h.y.h.h.1.1.y.e.y.y.e.y.e.y.l.e.>.>.-.-.:.e.y.u.J.'.S._.`.|.-X5X5X5X5X5X` H R.R.}.-X5X5X=X' ' i.q.i.i.q.q.i.i.i.i.i.i.s.i.i.i.' ' Q.=X~.R.~.R.~.~.}.}.=X=X=X=X=X=X/./.lXKXUXGX=X=X;X=XW.;X;X;X;X;X;X;X;X;X>XkXGXUXUXUXUXUXUXUXUXUXUXUXZX6XKXUXUXUXUXKXlXlXlXlXlXW.W.lXKXLXIXLXUXUXUXUXUXUXUXPXGX5X-X|.|.!.r.d.q.q./ T L L U U L B N N x x z z z z k z k g h h g h h g g h g g g s t e e 4 4 3 e e e e t u t e e t e 3 , , , 3 2 , 0 3 , 2 2 , , : = , e t 0 , 0 0 , = : : ; : = : = - = , , : : , 3 , : , , , 2 2 2 0 0 0 0 , , , , , , : : ; = = ; ; = ; ; = + = = = = = = ; - = ; ; = = : 3 x P L C C C V C V C C C C V V V V P P C C V v V c c c j j j j v v V C C C C I I C C C P P C V c c x x j z j f f d e e e 3 3 , ",
"eXqXqX0XqX0X0X0X0X8X8X8XI.I.I.L.K.H.F.F.F.F.H.K.H.K.H.H.K.K.H.H.K.K.H.K.H.F.H.H.H.H.H.F.F.k.k.k.k.j.j.h.h.4.4.4.:.;.-.*.*.*.|  .E R  . . . . . .R  .$.-.-.-.-.;.<.1.1.1.1.4.1.4.4.4.4.y.y.y.h.y.y.y.1.y.h.y.h.h.y.h.h.h.4.y.y.y.h.h.h.h.h.h.y.1.1.y.y.y.h.4.4.4.1.1.y.y.y.e.e.e.1.y.y.1.-.-.>.<.1.e.e.u.Z._.'.S._.`.|.-X5X5X5X5X-XH ( R.E.}.>X5X-XQ.` ) q.q.q.q.i.i.i.i.i.i.i.s.Q.!.s.' Q.:X5X}.R.R.R.R.E.~.}.=X=X=X=X~.E.E.W.=XxXIXLXkX/.;X=X;XkX;X;X;X;X;X;X;X>XkX;XkXHXUXUXUXUXUXUXUXUXUXUXUXzXlXPXUXUXUXUXGXlXlXxXlXkXW.W.GXLXLXIXLXPXUXUXUXUXUXKXlX:X:X:X`.r.r.u.q./ Q Q T U U L L B B N z z z z z h h k h g h h h h g g g g g g g g g t e 4 4 4 4 e w e t t t e e e e e 2 3 0 3 3 , 3 3 , 2 2 0 , , : , 3 0 0 0 3 3 , - - ; = ; ; : - = = - ; : , , , , , : , , 0 3 , 3 0 0 w , , , , , , : : : ; ; = = = = = = + = = = = $ $ = = = = = = , : * : h c V C C C C C C C C V V c v V P P C C C V V c c c j j j j j c v V C C C P I C C C P C C V c c x j j j h f d d t 4 e 4 3 : ",
"wXqXqX%X8X0X0X0X0X8X8X8XI.I.I.L.K.F.H.H.K.K.K.K.K.K.K.K.K.K.H.H.K.K.H.K.K.F.H.H.H.H.H.H.c.c.c.F.k.j.j.h.h.7.4.4.1.<.;.=.*.$.|  .E E R R E  . . .R  .o.*.*.*.-.;.<.<.<.;.1.4.1.4.4.4.4.h.h.h.h.h.h.h.h.h.h.y.h.h.h.h.4.h.1.e.y.1.y.1.y.1.h.h.e.1.1.1.1.1.y.1.4.1.1.y.y.y.y.y.e.e.<.e.y.e.>.>.<.<.1.e.w.u.Z.a.S.S.S.`.|.-X>X5X5X5X5XE.H E.R.E.-X5X5X|.i.) ) q.i.i.i.i.i.i.i.i.i.i.Q.!.i.Q.|.5X-X~.~.R.R.R.E.~.}.}.=X=X}.~.E.E.W./.;XHXUXHX;X=X;X;X;X;X;X;X;X=X;X>X;X;X;X;XlXLXIXIXUXUXUXUXUXUXPXUXKX6XZXUXUXUXUXLXxXlXxXxXxX;XW.;XHXLXLXKXKXUXUXUXPXKXVX>X5XlX:X!.r.q.q.q.Q Q ! T U L B N N N z z k k h h h g g g g h h h g h g s e t g g s g s t e e w 4 w e t e e e e 0 0 e e 4 0 0 4 4 3 3 3 , , , , , , , , , 3 0 0 3 0 2 : - : ; - : - : - = * = ; , ; , , , : : , 3 3 2 2 0 0 0 2 , 2 , , , : , ; ; = = ; + $ = + + = = = = $ $ = = = $ $ $ = > = : < 4 h M C C P C C C C C V c c v C C C P C C C V v j c v v c j j j v V C C P P C C P P P C V c x x x j h h f f d t 4 4 4 2 : ",
"qXqXwXqX0X0X0X0X8X8X8XI.I.I.I.L.H.F.H.K.K.K.K.K.K.K.K.K.K.K.H.H.F.H.H.H.H.F.F.H.H.H.H.F.F.F.F.F.k.j.j.h.7.7.4.4.1.<.<.;.*.*.|  . .R R R E  . . .E  .$.*.-.-.<.<.:.1.<.:.1.4.1.4.4.7.7.h.h.h.h.h.h.h.h.h.y.h.h.h.y.y.y.y.e.y.1.e.y.y.y.y.h.h.1.1.1.1.e.1.e.1.1.4.1.y.y.e.y.e.e.e.<.e.y.e.<.<.<.<.1.w.u.d.d.t.p.A.S._.`.|.-X5X5X5X5X:X( ( }.E.}.-X5X:X|.' ) i.i.i.i.i.i.i.i.i.i.s.s.s.s.!.|.}.Q.~.~.R.R.R.R.~.~.}.}.}.}.~.~.W.=X;X=XlXLXUXVX;X>X;X;X;X;X;X;X;X;X;X=X=X;X;X;XxXHXHXIXUXUXUXUXUXUXUXUXZXlXPXUXUXUXUXHXlXxXxXxXlXW.E.lXKXKXKXLXLXLXLXKXCXlX6XVXzX|.s.s.q.q./ Q U U L G N x x x x z z k k h h h g h h g g h h g t e e e t g g t t t t t e e w e e e e t g e 0 e t e e 0 3 0 0 0 e 3 2 , , , , , , 2 , 2 0 0 0 0 3 : - ; ; : - - : = = + * ; , : - , , , : , , 3 3 3 0 0 0 3 , 2 , , , , , : = = ; ; = = = = + = = = = $ $ $ $ $ $ + $ = ; ; = = * : 4 x L P P P P C C V v v c v v v V V v V C V c j c v v j j j v V V P P P C C C C C C V c x x j j j j h h h s e e 4 3 : ",
"wXqXwXqX0X0X0X0X8XXXI.I.I.L.L.K.F.F.H.H.K.K.K.L.K.K.K.K.K.H.K.K.H.H.F.H.H.H.F.F.F.F.F.F.F.F.k.k.k.k.j.7.7.4.1.:.:.:.;.=.*.*.&. . .E R R E  .&.&.&.| *.*.-.;.<.1.1.1.1.4.1.1.4.7.4.4.7.h.h.h.h.h.h.h.h.h.y.h.h.h.y.1.y.e.1.1.1.e.1.1.y.h.h.y.y.1.1.1.e.1.e.1.y.4.1.y.y.e.e.e.e.1.w.y.y.1.1.<.<.<.<.w.u.Z.r._ t.C.S.C._.|.|.5XkXkX5X5X}.H ' Q.R.}.>X>X-XQ.' i.i.i.i.i.i.i.i.i.i.i.s.s.s.Q.Q.Q.Q.Q.Q.Q.R.R.R.R.~.~.}.}.=X}.}.=X=X=X=X;XGXIXIXlX;X;X;X;X;X;X;X>X;X;X;X=X=X;X;XlXGXHXKXUXUXUXUXUXUXUXUXUXzXCXUXUXUXUXUXGXlXxXxXxXkXW.W.GXKXKXLXKXKXKXHXVXlXVXPX7X!.d.r.q.=./ Q U L G N N x x z z z z k h h h g h g d g g g k g t e t t t t t e e e e e e e e e e e e e g u t e e e e 4 3 0 0 0 e w , : 3 , : , , 2 3 2 3 3 e e 0 , = - ; : - = = = ; ; + = ; ; : , , , - = , 3 , 0 0 3 3 0 3 , , , , , , , ; = = ; - = = = = + + = = $ $ = = $ $ $ = = = = $ = = = , 3 d k c L V V V V C C v v c c j c c v V V c x c V V v c j c v V C C P I P P C V C V M c j s j j j h h s s s q 4 3 2 ",
"eXwXqXqX0X0X0X0X8XXXI.I.I.L.L.K.F.F.F.H.H.H.K.K.K.K.K.K.K.K.K.K.H.H.H.F.H.F.F.F.H.F.F.F.F.D.k.k.k.j.j.7.7.7.4.4.1.:.;.=.&.*.&.| |  .E R R | &.&.&.*.*.*.-.;.<.:.1.1.4.4.4.4.4.4.4.7.7.h.h.h.h.h.h.h.h.h.h.y.y.y.h.e.1.y.1.1.1.1.1.1.1.e.y.y.y.1.1.1.y.1.1.1.4.4.1.y.y.e.e.e.y.e.w.u.y.1.1.<.<.1.<.u.Z.r./ / t.p.C.C.C._.|.-X5XkX5X5X5X` H R.R./.-X:X-X|.Q.i.i.i.i.i.i.i.i.i.s.s.i.i.s.s.i.Q.Q.Q.Q.Q.E.R.E.R.~.~.}.}.=X=X=X=X=X=X/.=XkXLXIXGX>X;X;X;X;X>XkX;X=X=X;X;X=X;XkXGXLXHXKXUXUXUXUXUXUXUXUXUXJX7XKXUXUXUXUXKXxXlXxXxXxX(.( ;XHXHXKXKXHXKXGXVXzXJXPX+Xs.d.q.q./ Q U U G B N z z z z k z k g g g h g d s s d g h g e t t e s t t t e e e e e e e w e e e e e e t e e t e e e 4 3 3 0 0 e 0 , , 3 , : : , 3 3 0 3 0 q 0 : = = ; , ; = = = = = = = = > , : , , , ; = , , 3 0 , 2 0 0 0 , , , , , , ; = = ; ; = - ; = = * * $ $ $ = = $ $ = = $ = = = ; ; = > ; : : < s j c V V V v c v c V v v c c x c c j c C C C c c c v V V C P P P P C C C C M c j s h j j h h s s s e 0 3 2 ",
"eXeXwXqXqX0X0X8X8XXXI.I.I.L.L.H.F.F.H.F.F.H.H.K.K.K.K.K.K.K.K.K.K.K.K.H.H.F.F.F.H.F.F.F.F.D.D.k.j.j.j.7.7.7.7.4.4.4.:.<.;.*.*.&.&.|  .R E  . .| &.&.$.*.-.;.<.1.1.y.4.4.4.4.4.4.4.7.h.h.h.h.h.h.4.h.7.h.h.y.y.y.y.1.e.y.y.1.1.1.1.1.1.e.y.y.1.1.1.1.1.1.1.1.1.1.4.y.y.e.e.e.e.w.y.u.y.<.1.<.<.<.u.Z.d.^ ^ / _ t.p.S.A.C._.|.:X5X5X5X5X-XH ( R.E.}.-X:X:X|.i.i.i.i.i.i.i.i.i.i.i.i.s.s.s.i.Q.Q.Q.~.~.~.~.Q.R.R.~.~.}.=X=X=X=X=X/./.=X;XVXIXIXlX;X;X;X>X>X;X;X;X=X=X=X;XlXGXIXIXKXLXUXUXUXUXUXUXUXUXUXUXVXcXUXUXUXUXUXHXlXlXxXxXlXW.E.lXHXKXKXHXGXVXlXVXUXFX|.!.s.q./ ! U U L F N z k k k k k l k d s s g g g g d g t g g s s g t g t e t e e e e e e e e e e t e e e t e e e w e t e w 0 3 3 0 0 3 , 3 2 , : , , , 3 3 3 q 0 : = = = : - = ; = = = ; $ = ; , : : , , , = : , 3 3 , , 0 e e 0 , , , , , : - ; ; = = - : - - = = = $ $ = = $ = = = $ $ = $ ; ; = = = ; ; : , 4 g x B C V c V V C V V V v x x j j c C Z C v c c v v V C C C P P P C C C M M j s j j j j h s s s e q 4 2 ",
"eXqXqXwXqX0X0XXXXXXXI.I.I.L.L.K.F.F.F.F.F.F.H.H.K.K.K.K.K.K.K.K.K.K.K.H.H.H.F.F.F.F.F.F.F.F.k.k.j.j.j.h.7.7.7.4.1.4.:.;.;.&.&.| | ..|  . . .| | &.*.*.*.-.<.<.:.1.y.h.7.7.7.7.7.4.4.7.h.h.h.h.4.4.4.7.h.h.y.h.y.h.1.h.y.y.y.1.y.y.1.1.1.y.h.e.1.1.1.1.1.1.1.1.1.y.y.y.e.y.1.1.<.w.u.y.1.e.<.w.w.u.r./ ^ / / / / _ V.C.C._.`.-X5X5X5X5X5X~.H ( E.E.-X:X:X-XQ.i.i.i.i.i.i.i.i.i.i.i.s.s.i.i.i.Q.Q.Q.~.~.~.R.R.R.E.~.}.}.=X=X}.W.W.=X;X;X>XHXUXHX>X;XkX>X;X;X;X;X=X=X;XlXHXLXIXIXHXKXUXUXUXUXUXUXUXUXUXUXLXlXZXUXUXUXUXPXGXxXxXlXxX;XE.=XGXKXKXGXxXlXlXKXUXzXi.i.q.) ! Q L L F N z k k z z k g l k g u u g t g u g u t d g g g t h g e e e e e e e e e e e e e e e e e t t e 4 4 e e w e w 3 0 3 3 3 , , 2 , , , , : 3 3 0 e e : ; = + = = ; = = = = = = $ = : : ; , , 3 : ; , 3 3 2 , , w t 0 < , , 2 , , - ; ; = = - ; = ; , ; = $ $ = = = = = $ = = $ + = = = $ $ $ = = = = = < e h x c V C C V V V V c c j j j j V V V j c c c V C C C P P P C C C V c j s h j j h h d s s e e 4 3 ",
"eXqXqXqXqX0X0X8X8XXXI.I.L.L.K.H.F.H.H.F.F.F.F.K.H.K.K.K.K.K.K.K.K.K.H.F.H.F.H.F.F.F.F.F.F.F.k.k.j.j.j.h.7.7.4.7.4.:.4.:.*.*.&. . . .|  . . .| | $.*.*.*.-.<.<.:.1.h.h.4.7.4.4.7.h.7.h.h.h.h.h.4.1.4.4.1.e.1.1.1.1.y.h.y.1.y.1.y.1.1.y.y.y.y.y.y.y.1.1.1.1.1.1.4.1.y.y.e.y.e.w.w.w.y.e.y.w.=.u.r.Q Q ~ ~ ~ ~ ^ ~ / p.S.C.C._.|.-X5X5X5X5X-X( H E.R.}.-X5X:X|.i.i.i.i.i.i.i.i.i.i.i.i.i.i.i.i.Q.Q.Q.Q.~.Q.R.R.R.E.~.~.}.=X=X=X~.=X>X;X;X;XlXLXIXxXkXkX;X;X;X;X;X;X;XlXHXLXIXIXLXxXVXUXUXUXUXUXUXUXUXUXUXUXZXlXLXUXUXPXUXLXxXxXxXlXlXW.E.kXGXHXGXxX-XlXUXPX+Xi.i.q./ Q U F B N x z z z g k g g g u g k g t u u e u u t d g g g e g t e e w e 4 e t t e e e t w e w e t t e e w w e w w w 0 0 0 0 3 3 3 2 , 3 3 : : , 3 3 2 3 0 , : - + + + = $ = = = ; ; + + - : ; : , 3 , , , , 3 0 3 3 0 0 0 3 , , , , , , ; ; - = ; ; - : : ; ; = = $ $ = = = = = = $ $ $ $ = = $ $ $ $ + = = = = < 4 s x V C V C C C C V j j j j V c c j v C V C V V C V C C V C C M x h f j j j h h h s s e 4 3 3 ",
"wXqXqXqXqX0X0X8X8XXXI.I.I.L.K.H.H.H.F.F.F.F.F.H.H.K.H.K.K.K.K.K.L.K.H.F.K.H.K.H.F.F.F.F.F.F.k.j.k.k.j.j.j.4.4.7.1.:.1.:.;.$.$.| | | ..o.o.o.| o.$.*.$.$.*.-.<.1.1.h.h.4.7.7.4.h.h.4.h.h.h.h.h.h.4.4.1.1.1.1.1.1.1.y.1.1.1.e.1.1.1.:.1.1.1.1.1.1.1.1.1.1.e.1.1.1.1.4.1.e.e.e.1.w.w.y.w.q.q.u.q.U n M U ~ ~ ~ ~ ~ / t.C.S.C.A._.|.,X5X5X5X>X}.H ( R.~.=X>X5X-XQ.' i.i.i.i.i.i.i.i.i.i.i.i.i.i.Q.Q.Q.Q.Q.R.R.R.R.E.E.~.~.~.=X=X=X;X;X;X;X;X;XVXUXGXkX;X;X;X;X;X=X>XxXHXLXIXIXIXLXlX>XKXUXUXUXUXUXUXUXUXUXUXPXcXVXUXUXUXUXUXGXlXxXlXlXkXW.^.lXGXVX5X-XVXUXmX!.s.i./ ! ! L F B N x z h k g g g g g g g g t g g t t t t t t t t g g t e e e 4 w e t e t t t e t e e e e e e e e e e w w 4 4 0 0 4 0 0 0 0 4 3 3 2 : ; : , 3 3 0 w 3 , , = = = = $ = = = = ; = $ ; : ; : , , , , : , , 2 3 3 3 3 0 0 0 , , , , , , 1 , ; ; = - : ; - > ; $ $ = $ = ; ; = = $ = $ + $ = = % = $ $ $ % = = * : < : 3 d c B L V V V M x j j c v v c x c V C V c x c V V V V M c M x j j j x z h h s s e q 4 3 ",
"qXqXqXqXqX0X0XXXXXXXI.I.I.L.H.H.H.F.F.F.F.F.F.H.H.H.H.H.K.K.K.K.K.K.K.F.H.H.K.H.F.F.F.F.F.F.k.j.k.k.j.h.h.7.7.7.4.:.:.:.;.;.;.=.-.=.*.=.=.=.*.*.*.*.$.$.*.-.<.1.1.y.h.7.7.7.7.h.h.4.4.h.4.4.h.h.7.4.1.1.1.1.1.1.1.1.1.1.1.1.1.1.1.1.e.e.1.1.1.1.1.1.1.1.1.1.1.1.1.1.1.w.e.1.<.w.u.u.u.r.d.^ n n N n B Q ~ ~ ~ ~ / _ p.C.C.C.A.|.-X,X5X5X>X>X` H ` R./.-X:X:X|.i.i.i.i.i.i.i.i.i.i.i.i.i.i.i.Q.Q.Q.Q.' ' R.R.R.R.E.E.E.~.=X=X;X;X=X;X;X=X=XkXHXGX>X;X;X;X=X=X>XVXKXLXLXIXIXIXLXkX;XxXIXUXUXUXUXUXUXUXUXUXUXLXlXHXUXUXUXUXPXVXlXlXlXlX;XE.;XxXzX-X5XKXKX:XQ.i.) Q W W B B B c x z h h g g s s d s e 4 e d g d d s t e t g g g g 4 e e e w e e t 4 e u t e e e 4 e t e e e e e e w w 4 0 0 0 0 0 e e e w 3 3 2 , : : , 3 3 q 0 0 0 , - = = = = = = = = = = ; ; : ; : , ; : , : ; : , 2 2 3 3 3 3 0 , , , ; , 2 8 , ; - = = ; = = , ; = = = $ = ; = = = $ = $ $ $ $ $ $ = = $ = % % % = = ; ; * = 3 t z c M V V j x c V V V c j h j c j j h j c c c j c c j s h j j x h h h s s e e 4 3 ",
"qXwXqXqXqXqX0XXXXXI.I.I.I.K.F.F.F.F.F.F.F.F.F.H.F.F.H.H.K.H.K.H.H.K.H.F.F.F.F.F.F.F.F.F.F.F.k.k.k.k.j.j.h.4.7.7.4.4.:.:.:.4.1.<.<.1.<.<.-.=.=.;.-.*.*.*.*.-.<.<.1.1.h.h.7.7.7.h.h.4.4.h.4.4.h.4.1.1.1.1.1.1.1.1.:.:.:.<.1.1.1.1.1.1.1.1.1.1.1.1.e.1.1.1.:.<.1.1.<.1.1.<.1.1.<.w.w.d.J.A.U e 1 y m m N J Q ~ ~ ~ ~ ) _ V.S.V.C.`.-X-X5X>X5X>X}.H H ' E.}.>X5X-X|.i.i.i.i.i.i.i.i.i.i.i.s.i.s.Q.!.Q.Q.R.' R.R.R.R.E.E.E.E.~.=X=X=X=X=X=X;X;X>XkX>X;X;X;X=X=XkXGXLXIXIXIXIXIXIXHXkX;X>XHXUXUXUXUXUXUXUXUXUXUXUXCXlXLXUXUXUXUXHXlXxXlXlXlX^.E.:X:X}.xXKXVX!.!.q.! U L L L F B x x z h g s s s s z j j x M M x M M N z g g g g g t 3 4 4 e w e e e w e t t t t e w e t e e e e w e e e e w 4 0 0 0 e w 0 0 3 3 3 2 , : , , , 3 0 0 2 : ; ; = + = = ; ; = = + ; - - = : , , : , , = ; , 3 2 2 3 3 , 3 3 , , ; , 2 2 , : ; ; - = = = ; > ; $ $ = = = $ $ $ $ = $ + $ $ + + = $ $ > = = = = $ = ; ; ; ; ; , q s x x f j c C C V V j j j j c j j j j j s s h x s a h j j x h h h h s s e 4 3 ",
"qXwXqXqXqX0X8XXXXXXXI.I.L.K.F.F.F.F.F.F.F.F.F.F.F.F.F.F.F.H.H.H.H.H.H.H.F.F.F.F.F.F.F.F.F.F.k.j.k.k.j.j.7.7.7.7.7.4.4.4.4.4.4.1.1.4.1.<.;.;.;.-.*.;.;.;.<.<.<.<.1.1.4.4.4.4.7.7.7.4.4.h.y.4.y.4.4.1.1.1.1.1.1.1.1.1.1.1.1.1.1.1.1.<.1.1.1.4.4.e.1.1.1.1.;.<.1.1.1.w.e.w.w.1.=.w.r.d.P.A.U 1 1 1 n D n N U ~ Q ~ ~ ~ ) _ C.A.S._.|.-X5X>X5X>X5XR.H ( R.R.-X,X5X-XQ.' i.i.i.i.i.i.i.i.i.s.s.s.s.!.Q.Q.i.' ' R.R.R.E.E.E.~.~.~.=X=X=X=X=X>X>X;X;X;X;X;X=X=XlXGXLXIXIXIXIXIXIXIXGX;X;X;XGXUXUXUXUXUXUXUXUXUXUXUXPXlXVXUXUXUXUXPXGXlXlXlXlX>X~.!.!.-XHXKXlXs.s.q.W L L L L F N N x s a j j M Z Z E $. . .&.$.&.&.&. .E I C V x h s a a e e e e e t t 3 e e e t e e e w w e t t e e e e e e w 0 0 0 0 0 e 3 3 0 3 3 3 3 , 2 3 3 0 0 3 , ; - = = = = = = = = = = = = = - : : = - 3 , - : 0 3 3 3 3 3 3 0 0 , ; , : 2 , , : ; - = = - - ; ; ; = - = = = = = $ = = $ = $ + $ $ + $ = ; = ; = = ; ; = ; = = * * * : : 3 s h B V V V x j x j c c c j s s a a s j h h j V j s s h h h s e e 4 2 ",
"qXqXqXqXqX0X8XXXXXXXI.I.I.K.F.F.F.F.F.F.F.F.F.H.F.F.F.F.F.F.H.H.H.H.H.H.H.H.H.H.F.F.F.F.D.k.j.j.j.k.j.7.7.7.j.7.7.y.y.h.h.h.h.4.4.4.1.<.<.<.<.<.<.<.<.;.<.<.<.1.1.4.4.4.4.4.4.4.4.4.4.y.y.4.4.4.4.4.1.1.1.1.<.<.<.1.1.<.<.<.1.<.<.1.1.1.1.4.y.y.1.1.1.<.;.<.1.1.1.e.y.w.w.<.=.q.q.a.P.S.V.z > > w n n n M Q Q ~ Q ~ ~ _ p.C.S.V._.|.-X5X>X5X5X-X( H ` R.}.-X5X:X}.' ` i.i.i.i.i.i.i.i.i.s.s.s.s.!.s.i.' ' R.R.R.E.E.E.~.~.~.=X=X=X;X;X;X;X=X=X;XlXGXlXlXHXIXIXIXIXIXIXIXLXLXxX(.;X;XVXIXUXUXIXUXUXUXUXUXUXUXUXHXlXJXUXPXPXUXKXlXlXlXlXlX|.!.s.5XKXGX-Xi.q.! Q W W G N z z z h j v Z R $.-.;.:.:.:.:.:.4.4.:.:.;.:.;.$.| R Z C C V c f s 4 4 e t e e 4 4 e e t e e t e e t e e e e e e e w 0 w 0 0 w 0 0 0 0 3 3 3 , , 3 3 0 0 3 , , ; = = = = = = - = = = ; ; ; ; , ; ; = , , : ; , 2 3 3 3 2 3 0 0 2 : , : , , , , : - = = = = ; - : ; = = = = = = = $ = = = = $ $ $ $ + $ = $ ; ; ; ; ; = ; = ; = * = * * = : < q h x B c x c c j j x h s a s a a a s h s j P 2.V s h s e e e 4 3 ",
"qXqXqXqXqXqX8X8X8XXXI.I.I.K.H.H.H.F.F.F.F.F.F.F.F.F.F.F.F.F.H.F.H.F.F.F.F.H.H.F.F.F.F.F.F.F.k.j.k.j.j.j.7.j.7.7.j.j.j.j.j.j.j.h.h.4.1.<.<.<.;.<.<.;.;.;.<.<.<.<.1.1.4.4.4.4.4.4.4.4.4.y.4.4.4.4.4.1.1.<.<.<.<.<.<.<.<.<.<.<.1.<.<.<.1.1.1.1.4.1.1.<.1.<.<.-.<.1.e.w.w.1.<.<.<.2.q.S.P.Z.S./ w 9 8 y n l m U Q Q Q Q ~ ) _ V._.C.C.`.-X,X5X5X5X5X}.H ( ' R.|.:X5X-XQ.( i.i.i.i.i.i.i.s.i.s.s.s.!.!.s.i.Q.R.R.R.E.E.E.E.E.E.~.=X=X;X>X>X;X=X=X=X;XGXIXLXLXIXIXIXIXIXIXIXIXIXLXlX(.;X;XVXIXIXKXGXLXUXUXUXUXUXUXUXUXCXlXPXUXPXUXPXGXlXlXlXlX:X`.!.:XHXxX~.i./ W Q Q U F x x h f c Z  .*.4.h.7.7.7.7.7.7.7.7.7.7.7.7.4.7.:.:.;.%.;.*.$. . .Z c s a 4 e t 3 3 e e t e e t e e e e e e e e e e w 0 0 e 0 3 0 0 0 3 3 3 2 , , 3 2 3 0 0 , , : : = = = = * = = = = = = = ; ; ; , = - , , : ; , , 3 3 , 2 3 3 0 3 , , , , , , , , : : = - ; ; ; - - = = = $ = = $ = = $ = = $ $ $ + + + = = = ; ; = ; ; ; ; ; ; ; ; = : : : : : : 3 4 s x x B B x x h h h s a 4 4 4 4 < a ^ ^ x z g s e e 0 3 ",
"qXqXqXqX0X0X8XXXXXXXI.I.I.K.H.H.H.F.H.F.F.F.F.F.F.D.D.F.F.F.F.F.H.F.F.H.H.H.H.H.H.F.F.F.F.F.D.k.j.j.k.j.j.j.j.j.j.c.j.j.c.j.j.j.h.y.y.4.1.<.<.<.<.<.<.<.<.<.1.1.1.4.4.4.4.4.4.4.4.4.4.y.4.1.4.4.4.1.1.<.<.<.-.;.<.<.<.<.;.<.<.<.<.<.1.1.1.1.4.1.1.<.1.1.<.<.<.<.1.w.1.<.<.=.<.2.r.S.S.S.Z.A.J w w w l l n D Q Q Q U ~ ~ _ p.S.S.C._.|.-X5X5X>X>X-X` H ` R.}.-X:X:X|.' i.i.i.i.i.i.i.s.i.s.s.s.s.!.s.i.Q.R.R.R.~.~.E.R.E.E.~.}.=X;X>X;X=X=X=X=X=XlXIXIXIXIXIXIXIXIXIXIXIXIXLXlX(.;X;XGXLXIXGX>XGXUXUXUXUXUXUXUXUXPXzXZXUXUXUXUXKXVXlXlXlX:X`.|.~.VX5XQ.) ! ! W W G c x h x I =.<.4.7.j.k.c.k.k.7.7.7.7.7.7.7.7.7.7.9.7.7.7.:.4.:.:.:.:.;.$.Y C j a 4 e 3 e e t e e e t e 3 w w 4 e e e e 0 0 w e 0 0 0 0 0 0 3 3 3 3 3 3 2 0 0 0 , , : : : = = = * * = * * = = = = ; - : : - : , , : : , 2 2 , , 3 0 0 0 , 2 , , , , , , , , , ; : - ; = ; - = = ; ; = = = $ $ = = $ = $ $ + + = $ = ; ; = = ; = ; = = ; = = ; : ; , ; + * ; : : 3 q s g h h z h h s s 4 z s 4 4 4 z g d e e w 3 3 3 ",
"qXqXqXqXqX0X8XXXXXI.I.I.I.K.K.H.F.F.F.F.F.F.F.F.F.D.F.F.F.F.F.F.F.F.F.F.F.F.F.F.H.F.F.F.F.F.F.D.k.j.k.j.D.D.j.j.D.F.c.c.c.j.j.j.j.h.y.y.4.4.4.1.1.4.<.<.<.1.1.1.1.1.4.4.1.4.4.4.4.4.4.4.4.4.4.4.1.<.<.;.<.<.-.-.-.-.-.-.;.<.<.<.;.<.1.1.1.1.1.1.<.<.<.1.<.<.<.=.<.1.<.<.=.=.=.=.r. XS.S.Z.S.t.u 8 9 9 n n n K Q Q U Q ~ ) _ V.S.S._._.|.-X5X5X5X>X=X( ( ' R.}.-X:X:X}.' i.i.i.i.i.i.i.i.i.s.s.s.s.i.i.Q.Q.R.}.=X=XE.E.R.E.~.}.=X=X;X;X=X=X=X=X>XCXIXIXIXIXIXIXIXIXIXIXIXIXKXkX(.;XkXHXLXLXHX5XCXUXUXUXUXUXUXUXUXUXJXzXLXUXPXUXUXHXxXlXlX:X`.|.R.-X|.i.) ! ! ! L c s s V E 3.y.j.G.G.F.F.H.c.k.j.7.k.k.9.7.k.k.j.9.9.9.9.7.7.7.h.7.7.7.:.4.1.;.*.Y V s 4 4 4 e e e e t u t e e e e e e e e 0 e e 0 0 0 0 3 3 3 3 3 3 3 3 3 0 0 0 3 2 , : : , - = = + + + + = = = - , : , , , - : , , , : , 0 , 2 3 3 3 0 , , , , , , , , , , , : : ; - = - - = - ; = = ; = $ $ = = = = = = $ $ $ + $ = = = = ; = = = = ; ; = = ; = = = = ; * = ; * * : < 3 4 t g g d e 4 N z z B N < X * : 2 3 2 2 2 ",
"qXqXqXqXqX0X8XXXXXXXXXI.L.K.H.F.F.F.F.F.F.F.F.F.F.F.F.D.D.F.F.F.F.F.H.H.F.F.F.F.F.F.F.F.F.F.F.F.F.F.F.F.F.F.F.F.F.F.F.F.F.j.j.j.j.j.j.y.y.y.y.4.4.1.1.1.1.1.1.1.1.<.1.<.<.4.4.1.1.1.1.4.4.4.1.1.1.;.;.;.-.-.-.-.-.-.-.;.<.<.<.-.*.-.<.1.<.<.<.<.<.<.<.<.<.<.;.-.<.<.<.<.<.=.=.=.Z..XS.S.S.Z.A.J 3 w 1 p D l D Q Q Q Q ~ ~ ) p.C.S.C.C.|.-X5X>X5X>X:XR.H ` E.E.-X>X-X-XQ.i.i.i.i.i.i.i.i.i.i.i.s.!.i.i.Q.Q.}.-X=X}.~.E.R.E.~.}.~.=X=X;X=X=X;XkXGXLXIXIXIXIXIXIXIXIXIXIXIXIXHX;X(.;XkXHXLXLXHXGXKXUXUXUXUXUXUXUXUXUXUXVXVXIXUXUXUXLXVXlXlX:X|.-XQ.|.!.i.! ! ! W c s s C =.y.F.F.H.H.H.H.H.H.H.c.k.k.k.k.k.k.9.9.k.k.9.9.9.9.9.k.9.9.7.7.9.7.7.7.7.7.1.| C j a 4 q e t e u e w e e e w e e e e w e 0 3 0 0 3 3 3 3 3 3 2 3 0 3 3 0 , , 2 , , , ; = = + X + * = = = - ; : : : : ; = : , , = : 0 , 2 , 3 0 3 3 2 , , , , : , , , , , , , - - ; - ; ; > = = = = ; = ; = = = ; = $ $ $ $ $ $ $ $ = = $ $ = $ $ $ = ; ; = $ = = = = = = = = = = = * = : , 2 2 3 e k G ) p.w X = - , 2 2 , , ",
"qXqXqXqXqX0X8XXXXXXXI.I.L.K.H.H.F.H.H.F.F.F.F.F.F.F.F.D.F.F.F.F.F.F.F.H.K.H.K.K.F.F.F.F.F.F.F.F.F.F.F.F.F.F.F.F.F.F.F.F.F.j.j.j.j.j.j.h.y.y.4.4.4.4.1.1.1.1.1.<.1.1.:.;.;.1.1.4.1.1.4.4.4.4.1.1.1.;.;.;.-.-.;.-.-.-.-.-.-.-.-.-.-.-.<.1.<.1.<.<.<.<.<.<.<.<.<.<.<.<.<.<.<.=.=.r.S. X].P.S.Z.S.t.u w 8 1 l l l K Q Q Q ~ Q ~ _ r.A.C.C.`.|.-X5X>X>X5X-X` ( E.E./.-X>X:X|.i.i.i.i.i.i.i.i.i.i.i.i.s.i.i.i.|.|.}.=X}.~.E.E.E.E.~.~.=X=X;X=X=XkXGXLXIXIXIXIXIXIXIXIXIXIXIXIXIXGX;X=X;XlXHXLXLXKXLXUXUXUXUXUXUXUXUXUXUXUXKXlXGXUXIXUXUXGXlXlX-X:X6X-X`.s.q.! ! W F f s Z w.F.K.K.H.H.H.H.H.H.G.G.k.k.k.k.k.k.9.9.9.9.9.9.9.9.9.7.9.9.9.7.j.k.k.k.9.8.9.9.7.:.$.Y M s 4 e t e e e e e e 0 0 e w w w e 0 3 3 0 0 3 , 3 0 3 , 3 3 3 0 0 0 2 , , , 2 , - - = + + + $ + = = ; - , , : : - - : , ; - , , , , 2 3 3 0 0 , , , , , , , , ; ; , : ; ; ; ; ; ; , ; = = = = = = = $ = = = = = $ $ $ + + + + = = = = = = = = = ; = = = - = = = $ $ + $ = $ $ + + + + + ; * ; , e k 8 = = $ ; ; > ; = ",
"qXqXqXqXqX0X8X8XXXXXI.I.L.K.K.L.K.K.F.F.F.D.F.F.F.F.F.F.F.F.F.H.K.H.H.F.H.F.F.H.H.H.H.H.H.H.H.H.K.H.H.K.H.H.H.H.H.F.F.F.F.j.j.j.j.j.y.h.y.y.y.4.4.1.1.1.4.1.<.1.1.1.<.<.<.1.1.y.1.1.y.4.1.1.1.<.<.;.;.;.-.-.;.;.-.-.-.;.-.*.-.-.-.<.<.1.1.1.<.<.<.<.<.<.<.;.<.<.<.=.=.=.=.=.=.d..X X{.]. XS.S.Z.K 9 9 > 9 l l m K Q Q Q Q ~ / _ V.C.C._.|.-X:X5X>X>X5X}.( ( E.E.=X>X,X:X!.i.i.i.i.i.i.i.i.i.i.i.i.i.) i.!.~.~.}.}.~.R.R.R.E.E.~.=X=X=X=XkXGXLXIXIXIXIXIXIXIXIXIXIXIXIXIXIXxX;X;X;XxXKXLXKXKXLXUXUXUXUXUXUXUXUXUXUXUXUXVXlXKXUXUXUXKXVXlX:X6XlX,X`.s.q.! W B h s C 3.J.L.I.I.L.K.H.H.H.H.G.F.k.k.9.9.9.k.9.9.9.9.9.9.9.9.9.9.9.9.9.7.7.7.7.7.7.8.9.9.9.9.7.4.3.&.Z s 4 3 e t e e e 0 w e e w 0 w 0 3 4 w 0 3 3 3 0 3 2 3 3 3 3 0 0 3 , , 2 2 , , ; = + + * + + + = - - , 3 : - - = - , , ; : , 2 , , , 3 0 0 3 , , , , , , , ; ; : , : ; = ; = - ; = > > = $ = $ = = = = = = = $ $ $ + + + + = = = = = = = = $ = = = = = = = $ $ + + $ $ + $ + + X X + + + $ X . X + ; $ + $ $ = $ $ ",
"qXqX%X%X%X8X8XXXXXXXI.I.L.K.L.L.L.H.H.H.F.F.F.F.F.F.F.F.H.F.F.H.H.H.F.H.H.H.H.H.H.H.K.K.K.K.K.L.K.K.K.K.K.L.K.L.K.F.F.F.F.F.c.j.j.h.y.y.y.y.4.4.4.4.<.4.y.1.1.1.1.<.<.<.;.<.1.4.4.4.y.4.1.1.1.<.;.-.;.;.-.-.-.;.-.-.-.-.*.-.-.-.-.;.;.<.1.1.<.<.<.<.<.<.<.=.=.;.=.*.=.=.=.=.=.d..X.X X X].S.Z.S.r.p 8 8 > y n l D U U U Q Q ~ ) _ V.C._._.|.-X>X>X>X5X5X` H ( E./.=X-X:X+Xs.i.i.i.i.i.i.i.i.i.i.i.i.i.i.i.Q.~.~.}.~.R.R.R.E.E.~.~.=X=X;XlXLXIXIXPXIXIXIXIXIXIXIXIXIXIXIXLXxX;X;X;XVXLXLXKXLXKXKXUXUXUXUXUXUXUXUXUXUXUXLXlXVXIXUXPXKXGXlX5XlX6X,Xd.r.q.! P h s C u.K.I.I.I.L.L.K.H.H.H.H.H.F.G.k.k.9.9.9.9.9.9.7.9.v.v.v.9.9.9.9.9.9.9.9.7.7.9.k.k.9.9.9.9.7.7.7.4.;.T z 4 4 4 e e w w w 0 e w e 0 3 3 0 0 3 3 3 3 2 3 3 2 , 3 0 0 0 3 , , 3 3 , : = = + * + + + = = = , 2 = = = - = : 2 , = : , , , , , 3 0 0 , , : , , , , , ; ; : : ; ; ; ; ; ; ; > > ; ; ; ; ; = = = = = = = = = $ $ $ $ = = $ $ = = = = = = = = = = = $ = = $ + $ # X $ $ # + X + + + o o X + + o + o + X + # + ",
"qXqX%X0XXXXX8XXXXXXXI.I.I.I.I.I.I.L.K.K.K.J.F.H.H.H.F.F.F.F.H.H.H.H.F.H.K.K.L.L.L.L.I.I.K.L.L.I.I.I.I.I.I.I.I.I.K.J.F.F.F.F.x.j.h.y.h.y.y.y.4.y.y.4.<.4.y.1.1.4.1.1.1.<.<.<.<.1.1.1.y.4.y.y.1.<.;.=.;.;.=.-.-.*.-.-.=.=.=.-.;.<.<.;.<.<.<.<.<.<.<.<.;.;.;.-.=.=.=.=.=.=.=.=.q.'.@X.X{. X].'.S.Z.S.Q 3 w 1 7 n n n K U ~ ~ ~ ~ ~ _ a.V.V.C.`.|.-X>X>X>X>X=X( ( ` R.}.-X5X:X}.i.i.i.i.i.i.i.i.i.) ' i.i.i.s.Q.Q.Q.}.-X}.R.R.E.R.E.E.W.=X;XkXKXIXIXIXIXIXIXIXIXIXIXIXIXIXIXLXlX;X;X>XGXLXLXLXLXKXHXLXUXIXUXIXUXUXUXUXUXUXUXGX6XGXPXKXKXHXlXlXlXlX+Xi.q./ Q c a j w.XXXXI.I.I.L.L.K.K.H.H.H.H.F.c.k.v.v.v.k.v.v.9.9.9.9.9.k.9.9.9.9.9.9.9.9.9.9.9.9.k.k.9.k.9.9.9.9.7.7.4.=.Y j a 4 t t w w q e e 4 4 w 2 3 4 3 2 0 3 , 3 0 2 , 2 , 3 0 0 2 , 2 0 , , = = = + + $ $ $ = = > , = = $ $ = = , , ; ; - , , , , , 3 0 0 , : , : , , , , : - = ; : : , : = ; ; ; > ; ; ; ; = = = = = = ; ; = = $ $ $ = = $ $ = = ; $ $ ; = = = $ + $ = $ $ $ $ + + + $ + + + + + o o X o X X o o o o X + + X ",
"%X%X%X%XXXXX8XXXXXXXI.I.I.I.I.I.I.I.L.K.K.K.F.H.H.H.F.F.H.F.H.H.K.K.K.K.L.L.L.L.I.I.I.I.I.I.I.I.I.XXXXXXXXI.I.I.K.J.F.F.F.j.j.j.h.j.h.y.y.y.y.y.y.y.y.1.1.<.1.4.1.<.<.<.<.<.<.<.1.1.4.4.4.4.<.<.<.=.-.;.=.=.-.*.=.=.=.=.*.-.;.;.;.<.<.<.<.<.<.<.<.<.<.;.-.=.=.=.=.=.&.=.=.q.t..X.X.X.X X{.].S.Z.S.a.n 2 1 1 y n n D U / ~ ~ Q ~ ) _ V.A.V._.|.-X>X>X5X>X>XE.H ( R.}.-X:X:X-XQ.' i.i.i.i.i.i.i.i.i.i.i.i.s.!.s.!.}.-X}.R.R.R.R.E.E.W.=X=X>XVXLXIXIXIXIXIXIXIXIXIXIXIXIXIXKXkX;X;X>XGXLXLXLXLXLXHXGXIXUXIXIXPXUXUXUXUXPXUXIXVXlXHXHXHXGXxXzXzX7X Xi.q./ L s f =.I.XXXXXXI.I.I.L.L.K.K.H.H.H.G.F.F.v.v.v.v.k.k.9.9.k.7.9.9.k.9.9.9.9.9.9.9.9.9.9.9.9.9.9.9.k.9.9.9.9.7.7.j.j.<.R M s 3 0 w 0 e 4 4 3 4 3 3 3 3 3 3 3 3 0 3 , 2 2 , 3 0 0 , , , 2 2 , : ; = = $ $ $ $ + $ ; > ; ; = X ; = , , > ; = : , , , , 2 3 0 2 , , : , , , , , - = = ; : : , ; ; = = ; ; ; > > ; = = = = = = = ; ; = = = $ = $ $ = = = $ $ ; = = = $ $ $ $ $ $ $ $ $ # # $ + + + X + X o X X X X X X o o X + # + ",
"qXqX%XXXXXXX8XXXXXXXXXI.I.I.I.I.I.I.I.L.K.K.K.K.J.H.H.H.K.K.K.L.L.L.I.I.I.I.I.I.I.I.I.T.I.T.8XT.T.8XXXXXXXXXI.I.K.J.F.F.F.c.j.h.j.j.j.j.j.y.y.y.y.y.4.1.1.y.4.1.1.<.<.<.<.<.<.<.1.4.4.y.y.4.1.<.;.=.*.-.=.*.-.*.*.*.=.=.*.-.-.;.;.;.<.<.<.<.<.<.<.<.;.;.=.*.*.*.=.=.=.=.=.&.A.%X@XOXOX X X].'.S.S.S.) w 2 7 8 l m m D ~ ~ Q ~ ~ ) ) p.C.C.C._.|.-X5X>X>X5X-X( H ` R.}.-X5X:X}.' i.i.i.i.i.i.i.i.i.i.i.i.s.!.Q.Q.Q.~.~.E.E.E.E.R.E.W.=X=X;XkXHXIXLXIXIXIXIXIXIXIXIXIXIXIXHXkX;X;XkXHXLXLXLXLXLXKXGXHXLXHXKXUXPXUXUXIXUXIXUXKXlXlXHXHXVXVXCXVX6X!.q.q.Q h a Y I.8XXXXXXXI.I.I.L.L.K.K.H.H.H.G.G.F.v.v.v.v.k.k.9.9.k.7.9.9.k.9.9.9.9.9.k.9.k.9.9.9.k.k.9.9.9.9.9.k.9.9.9.7.7.7.h.1.I j s 4 3 e e 4 0 4 4 3 3 3 3 0 3 3 0 3 2 3 2 2 2 0 0 2 , , 2 3 , , ; ; = = $ $ $ + = ; > ; ; ; + = ; ; ; > ; = = : , , , , , 3 3 , , , , , , , , : - - ; ; : : ; ; = = ; = ; ; > ; ; = = = = $ $ = = = = $ = = $ $ $ $ = $ = = = = = = $ $ $ $ $ $ $ % $ $ # + + + + + + o o o o X X o o o X + # + ",
"qXqXXXXXXXXX0X8XXXXXXXXXI.I.I.I.I.I.I.I.K.K.K.K.J.J.J.J.K.K.L.I.I.I.I.I.I.I.I.XX8X8X8X8X8X8X8X8X8X8XXXXXXXXXI.K.K.K.J.F.F.F.x.h.j.j.y.y.y.y.y.y.y.y.y.y.y.y.1.1.1.<.1.<.<.<.<.<.1.1.1.1.1.1.1.<.<.*.*.=.=.=.=.*.*.*.=.=.=.*.=.;.<.<.<.<.<.<.<.<.<.<.<.=.*.*.*.*.&.=.=.=.=.=..X@X#XOX.X.X X X X'.S.S.A.K 1 9 1 y m n m U ~ ~ ~ ~ ) ) _ a.C.C.C._.-X5X5X5X5X5X}.H ( ' R.}.>X>X-XQ.' i.i.i.i.i.i.i.i.s.s.s.!.!.!.i.Q.~.~.E.E.E.E.R.E.W.=X=X=X;XlXKXLXLXIXIXIXIXIXIXIXIXIXIXGX;X;X;XlXKXLXLXLXLXLXKXGXlXlXkXlXLXPXPXIXUXUXUXUXUXGXlXVXGXlXCXKXZX:Xs.q.q.B 4 x J.0X8XXX8XXXI.I.I.L.K.K.H.H.H.H.G.G.F.v.v.v.k.v.v.k.9.9.9.k.k.9.9.9.9.9.9.k.9.k.9.9.9.k.k.9.k.k.9.9.9.9.9.9.k.k.9.7.7.7.;.R j 4 e e 0 w w w w 0 4 3 0 3 2 0 0 2 2 3 2 2 0 0 3 , 3 3 2 , , ; ; = = = = + $ = = = ; ; , ; = = ; ; > : = = , , : , , , , 3 , , , , , , 3 , : - : , ; - = = ; ; ; ; ; ; ; > ; ; ; ; > ; = $ = = = = = $ = $ $ $ + $ = = = $ ; = ; = $ = $ $ $ $ = = $ $ + + + X + O o X X X X X X o o X + + X ",
"%XXXXXXXXXXXXXXXXXXXXXXXXXXXXXI.I.I.I.I.I.I.L.K.J.J.J.K.K.K.L.I.I.I.I.XXXX8X8X8X8X8X0X0X8X8X8XXXXX8XXXXXXXI.K.J.J.J.F.F.x.x.j.j.h.y.y.y.y.y.y.y.y.y.y.y.y.1.e.1.<.<.<.<.<.<.<.1.<.<.1.1.1.1.<.<.;.-.*.*.=.=.=.*.=.*.*.=.=.=.=.=.=.=.=.<.<.<.<.=.=.=.=.=.&.*.*.&.&.=.=.&./ r.$X#X@X@XOX X X X X].S.S.S._ y 1 8 1 p m n D Q Q ~ Q ~ ) ) t.V.C.C.C.|.-X5X5X5X5X:X( A ` E./.-X>X:X-XR.' i.i.i.i.i.i.i.s.s.s.s.s.!.Q.Q.Q.~.E.E.E.R.E.E.E.~.=X=X;X>XGXLXLXLXIXIXIXIXIXIXIXLXLXxX;X;X;XxXLXLXLXLXLXKXKXHXkX;X;XkXGXPXPXKXPXUXUXUXUXHXlXlXlXlXGXKXFX+Xi.q.! h 4 =.0XqX8X0X8X8XXXI.I.L.L.L.K.H.H.H.G.G.F.v.v.v.k.v.v.9.9.9.9.9.k.v.k.9.k.9.k.v.k.k.v.v.v.k.9.k.9.9.v.9.9.9.9.k.k.9.9.9.7.7.7.4.<.Y j s 4 3 e w w 4 4 3 3 4 4 0 0 0 3 3 2 3 0 0 0 3 3 3 3 2 , ; ; ; = = $ + + $ $ = = $ ; > = = = ; > - ; - = ; , , ; , , , 2 3 : , , , , , , : - : ; = = = = ; ; ; = ; ; ; > ; = = ; ; ; ; = = = $ = ; = = $ $ $ $ $ $ = = $ = = = $ = = = $ $ % $ $ + $ + X + # X o o X o X o X o + X o X X ",
"%XXXXX8XXXXX8XXX8XXXXX8XXXXXXXI.I.I.I.I.I.I.I.P.K.P.I.I.I.I.I.XXXXXXXXXX8X0X0X0X0X0X0X0X8XXXXXXXXXXXXXI.I.I.J.J.J.F.F.x.j.x.j.j.y.y.h.y.j.y.y.y.y.4.y.y.y.1.y.1.<.<.<.<.<.<.<.<.1.1.<.1.1.1.<.<.-.-.=.=.=.=.=.*.*.*.*.*.*.*.*.*.=.*.=.<.<.<.<.=.=.*.*.*.*.*.=.&.&.&.&.=./ '.$X#X#X@XOXOX.X.X{.].'.S.Z.S.U 2 9 1 2 n n m Q Q ~ ~ ~ ~ ) _ p.C.C.C._.|.-X5X5X5X5X}.H ( R.E.=X>X5X-X}.i.i.i.i.i.i.i.i.i.i.i.i.i.s.!.Q.Q.~.=X~.E.E.E.E.E.W.W.=X=X;XlXGXLXLXLXIXIXIXIXIXIXIXLXxX;X;X>XxXKXLXLXLXKXKXKXKXxX;X;XkXlXKXLXKXLXUXUXUXUXKXGXlX5XzXGXHXGX|.i.q.L 4 j XXqXqX0X0X8X8XXXI.I.L.K.L.K.K.H.H.H.G.F.v.v.v.k.v.v.9.9.9.9.9.k.v.v.k.k.v.v.k.k.k.9.9.9.9.k.v.9.k.9.9.9.9.9.k.k.k.9.9.9.k.7.7.7.7.*.Z h 4 4 w e 0 3 w 0 0 0 0 0 0 3 3 3 3 3 0 0 3 , , , , , ; = ; = = $ $ $ $ $ = = = = ; ; + + = ; - ; ; = = ; , , , , , 2 3 , - : , , , , : - ; ; ; ; ; = ; ; ; = ; ; ; > ; ; ; ; ; ; > ; = = = = = = ; = $ $ $ $ = = = = = = = $ = = = = $ $ $ $ $ $ # + + # + o X o o o X X X X o o o X ",
"%XXXXXXXXXXX0X0X0X8X8X8X8X8XXXI.I.I.I.I.I.I.I.I.I.XXXXXXXXI.XXXXXXXXXX0X0X0X0XwX0X0X0X0X8XXXXXXXXXXXXXI.I.I.J.F.F.c.c.c.x.x.x.j.j.j.h.j.h.y.y.y.4.4.y.y.y.w.e.1.<.<.<.<.<.<.<.=.1.w.<.<.<.<.<.-.-.-.=.=.<.=.=.&.=.*.*.*.*.*.*.*.*.*.*.=.=.=.=.*.*.*.*.&.&.&.&.&.&.&.&./ ) @X$X#X#X#X@X@XOX.X X X].S.S.S.V.l 1 8 1 y n l J Q Q ~ ~ Q ~ ) _ V.C.C.C.`.-X5X5X5X5X5XE.A ` E.E.-X>X:X-XQ.i.i.i.i.i.i.i.i.i.i.i.i.s.!.Q.Q.Q.lXVX~.E.E.E.E.E.E.}.=X;X;XxXKXLXLXLXLXIXIXIXIXIXIXlX;X;XkXGXLXLXLXLXKXKXKXKXHX>X;XkXkXVXKXPXPXIXUXUXPXKXKXzX5XzXCXGXCX`.i./ f < =.qXqXqX0X0X8XXXXXXXI.I.L.K.K.H.H.H.H.H.G.G.v.v.v.v.v.v.v.9.9.9.k.k.v.v.v.v.k.9.9.v.9.9.9.k.k.9.v.v.9.9.v.9.9.k.c.k.k.9.k.k.j.j.7.7.7.4.&.V s 4 4 e e e 0 3 3 3 2 3 3 3 3 3 3 0 0 3 2 , , , 2 ; = ; = = = = $ $ $ $ = ; + = ; = = = ; ; = ; ; ; = ; , , , , , , , ; ; , , , 3 , : = = - - = = = ; ; ; ; ; ; ; ; ; ; = ; = ; ; ; ; ; = = ; ; = $ $ $ $ = = = = = = = = = $ $ = $ # $ $ % $ $ # $ + X o o X o o X o o o X o X X ",
"%XXXXXXX8XXX0X0X0X8XXX8X8X8XXXXXXXI.I.I.I.I.I.I.XXXXXXXXXXXXXXXXXXXX0X0X0XwXwXwX0X0X0X0X8XXXXXI.I.I.I.I.I.K.F.D.D.c.c.x.x.j.x.j.j.j.y.j.y.y.y.y.y.y.y.w.1.1.w.1.<.<.<.<.<.<.<.=.<.<.<.1.1.1.<.-.-.-.-.=.=.=.=.*.*.&.&.&.&.*.*.*.*.*.&.*.*.*.*.*.*.*.&.| &.&. .E ......! a.<X$X$X$X#X#X@X@XOX.X X XS.S.Z.S.) 9 1 1 3 p l n J Q ~ ~ ~ ~ ) _ p.C.C.C._.|.>X5X5X5X5X-X( ( E.E.}.>X5X-X|.i.i.i.i.i.i.i.i.i.i.i.s.i.s.Q.Q.-XHXLX>XE.E.E.E.E.~.~.}.=X;XkXGXLXLXLXLXLXLXIXIXIXLXlX;XkXkXHXLXLXLXKXKXLXKXKXKXlX=X;XkXlXGXPXPXIXPXUXKXKXKXCX6XlXcXZX7Xs.q.W < z oXqXqXqXqXqX8XXXXXI.I.I.K.K.K.H.H.H.H.G.F.G.G.v.v.v.v.9.k.9.9.9.k.v.k.9.9.9.9.9.k.9.k.k.v.v.9.k.9.9.v.9.k.k.9.k.k.k.9.9.9.7.j.j.7.k.k.7.7.<.E V s e e e 0 3 3 3 0 3 3 0 0 0 3 0 0 3 0 , : : 2 , ; = = = = = = = = = = = $ = = ; ; = = = ; = ; , = = > , , , , , , , , , , , 2 , : = = = = = = = ; ; = = ; = = ; > ; = = = = > > ; ; ; ; ; ; ; = = = = $ $ $ $ + $ $ $ $ $ = = % $ $ $ $ # = $ $ # + X X o o X X X X o X o X X ",
"%X%X%X8X8XXXXX8X8X8X8X8X8XXXXXXXI.I.I.I.XXXXXXXXXXXX8X0XXXXXXXXXXX8X0X0X0X0X0X0X0X0X0X0X8XXXI.I.I.K.K.K.J.J.D.D.c.D.D.x.y.y.y.u.x.u.y.y.y.y.y.1.3.3.y.w.1.<.w.w.1.<.=.=.<.<.<.=.=.<.<.<.<.<.<.=.=.-.-.=.=.=.=.=.*.*.*.*.&.&.&.&.&.&.&.&.&.*.*.*.&.&.|  . ...! ......! q.@X<X$X$X#X$X#X#X@XOXOXOX X].].].S.S.N 2 w 2 y l l N Q ~ ~ ~ ~ ) ) _ a.S.C.S.[.-X5X>X5X5X5X}.H E.E.E.-X:X:X:X!.i.i.i.i.i.i.i.i.i.s.i.i.i.i.i.lXKXKXVXE.E.E.R.E.E.E.~.=X=X;XlXHXLXLXLXLXLXLXIXIXLXlX;XkXkXHXLXLXLXKXKXLXLXKXLXGX;X;X;X>XlXKXUXIXIXPXKXKXKXCXcXlXlXcX2Xi.) F < ! qXqXqXqX0X0X8X8XXXXXI.I.L.L.K.H.H.H.H.G.F.G.v.v.k.k.9.9.9.9.k.9.9.k.9.k.v.v.9.k.9.9.v.v.k.k.v.v.9.9.k.k.k.9.k.9.k.k.9.9.9.9.9.h.k.k.7.9.7.7.4.-.P j s 4 e 0 0 3 0 , , 3 3 3 3 0 0 0 0 3 , : , 2 , = = = ; ; = = = = = = $ $ $ = = + + = = = ; , = = ; ; , , : , , 2 , : : , , , , : - = = = = = ; ; = = ; ; ; = ; ; = > ; = ; ; = ; ; ; = = = ; = = = = = $ = + + $ $ $ $ $ = = $ $ $ + + $ $ $ $ # + X X X X X o o o o + X X ",
"%X%X%X%XXXXXXX8XXX8XXX8X8X8X8XXXI.XXXXXXXXXXXXXXXXXX0X0XXXXXXXXXXX0X0XwXqX0X8XXX8X8XXXXXXXXXI.K.K.K.J.J.J.J.J.D.c.D.x.u.y.y.y.y.u.u.u.u.y.w.w.<.3.w.w.3.<.<.w.w.<.<.=.=.=.=.<.=.=.w.<.<.<.<.=.=.=.=.=.=.=.=.=.=.=.*.*.&.&.&.&.&.&.&.&.&.&.&.&.&.&.&.&.&. .! ! ....X.! a.,X,X$X$X$X#X$X#X#XOXOXOX X X{.'.S.S.r.u 3 w w u n m K Q ~ ~ ~ / ) _ p.S.A.C._.|.-X5XkXkX>X>X( ( E.R.}.-X:X:X|.Q.' i.i.i.s.i.i.i.i.i.i.i.i.i.-XkXxXHX=XE.E.E.E.E.W.~.=X=X=X>XVXKXKXKXLXLXLXLXIXIXxX;X;XlXKXLXLXLXLXLXLXKXKXKXHXkX(.;X;XkXGXIXPXPXLXHXKXHXGXGXcXlX7X,Xi.) x 4 d.qXqXqXqXqX0X0X8XXXI.I.I.L.L.K.K.H.H.H.H.H.v.v.k.k.9.9.v.v.v.v.9.9.k.9.k.v.v.k.k.9.9.k.v.v.v.v.v.k.v.v.v.v.k.9.k.v.k.k.9.k.k.9.9.k.h.k.h.7.7.7.:.:. .V s 3 0 0 3 3 , 2 3 3 3 3 0 0 0 0 0 3 , , 3 , ; ; = ; ; = = = = = $ + + + $ ; = = = + = = ; ; = ; ; , , ; , , 3 3 : : , , , , , : = = = = = = ; = = ; ; ; = = ; = , , ; ; = = ; = = = = = = = = = = $ + = $ $ $ $ = = = = = $ $ $ $ $ = = $ $ $ $ # + X o o o o X o X o X ",
"%X%X%XXXXXXXXXXXXX8XXXXXXX8XXXXXXXXXXXXXXXXXXXXXXXXX0X0XXX%XXXXX0X0X0XqX0XXXXXXXXXXXXXI.I.I.I.K.J.J.J.D.D.J.J.D.x.x.x.u.y.y.4.y.y.y.u.u.w.3.<.<.w.w.<.<.<.<.3.3.<.<.=.=.=.=.=.=.=.=.=.=.=.=.=.*.*.=.=.*.=.=.=.=.*.*.*.&. .E E &.&.&.&.&.&.&.&. . . .&.&. .E ! ....! ) .X<X,X$X$X$X$X$X#X#XOXOXOX X X X].S.S.S.~ 3 e 3 w m m m U ~ / ~ ~ / _ p.C.A.A.A.`.-X5XkXkX>X5X=XH ` ~.E.=X:X5X:X|.' i.i.i.i.i.i.i.i.i.' i.i.i.~.}.-XVXkXE.E.E.E.E.E.W.~.=X=X;XkXGXKXLXLXLXLXLXLXIXKXkX;XxXKXLXLXLXKXLXLXKXLXKXKXlX=X=X;XkXVXLXIXIXHXGXHXHXHXHXGXlX6X:Xi.! q x %XqXqXqXqXqX0X0X8X8XXXI.I.L.L.L.K.H.H.H.H.H.G.v.k.k.v.9.9.9.v.k.9.9.9.9.9.k.k.v.v.k.9.v.v.v.k.v.v.9.v.v.v.k.9.9.v.k.9.k.k.9.9.9.9.k.k.k.j.k.7.7.7.7.:.;.I s 4 q 0 3 0 3 3 3 3 3 0 0 0 0 0 0 3 , , , , ; = ; ; ; = = = = $ + + + + ; > = = + $ = = ; ; = ; , , ; ; ; , 0 , , , , , , 3 , : = = = = ; = ; ; = $ $ = ; ; = ; ; ; = = ; = = = = = = = = = = $ $ + + $ $ $ $ $ = $ $ = $ $ $ $ $ = = $ $ $ $ % # X o o X + + o o X o ",
"%X%XXXXXXXXXqXXXXXXXXXXXXX8XXXXXXXXXXXXXXXXXXX0XXXXXXX0X0X0X0XXX0X0X0X0XXXXXXXXXXXXXI.I.I.I.I.K.J.J.D.x.u.x.D.D.u.u.u.y.y.y.3.3.y.w.w.w.3.<.<.<.w.<.<.<.=.=.=.<.<.=.*.=.=.=.=.=.=.=.*.*.=.=.=.=.=.=.*.*.&.*.*.=.&.&.&. .&.! E &.&.&.&.&.&..... .E  .&.&...E E &.&./ A.&X<X<X,X$X$X$X$X$X#X#XOXOX X X X].].S.S.V.N 4 u n N N n J Q ) / / ~ _ t.p.C.S.S.`.|.-X5XkXkX>X5XE.( E.E.~.-X5X5X-XQ.i.i.i.i.i.i.i.i.i.i.i.i.i.Q.Q.Q.5XlXE.E.E.E.E.E.E.~.=X=X=X;XlXHXLXLXLXLXLXKXHXKXxXkXxXLXLXLXLXKXLXKXLXLXHXLXGX;X;X;X;XlXKXIXIXHXHXHXGXHXKXKXVX6X+Xi.L : ! eXqXqXqXqXqX0X0X8X8XI.I.I.L.L.L.K.K.H.H.H.H.H.G.v.v.9.9.v.v.v.v.9.9.9.9.v.v.v.k.v.v.k.v.k.v.k.v.v.9.k.v.9.9.9.k.k.v.k.9.9.k.k.9.9.k.k.k.k.k.7.7.9.7.7.7.:. .M a < e 0 0 0 0 3 3 0 0 0 0 0 0 3 , , ; , > = = ; ; ; ; = = $ + + + + = = = ; = $ $ = = ; ; ; , 2 : ; ; , 0 0 3 , ; ; , , , , - ; ; = = = = = ; = = ; ; ; = ; ; ; = ; ; ; = ; = ; = = = = = $ = = $ $ $ $ $ $ $ $ $ $ $ $ = $ $ $ $ $ $ $ $ # # + + + + X + X X o o ",
"%X%XXXXXXXXXXXXXXXXXXXXX8X8XXXXXXXXXXXXXXXXXXX8X8XXXXX%X0X0X0X0XqXqX0X0XXXP.K.K.I.I.I.I.K.P.K.J.J.J.D.x.u.u.x.x.u.u.y.y.w.w.3.<.3.3.w.w.<.<.<.<.<.=.<.=.*.*.*.=.=.*.*.=.=.=.=.=.<.<.*.*.=.=.=.=.=.=.=.*.&.&.=.=.*.&.&...&.&.E &.&.E &.&...&...E E E E E E E E E E =.@X<X$X<X,X,X$X$X$X$X#X#XOXOXOX X X X].S.S.S._ M ~ ~ B G m N U / ) / / ) _ _ V.S.A._.[.|.-XkXkX>X5X-X( ` }.E.}.-X5X:X}.i.i.i.i.i.' ' i.i.i.i.i.s.Q.Q.Q.|.:X~.E.R.E.E.E.E.~.~.W.=X;XkXGXKXLXLXKXKXKXxXGXKXlXVXLXLXLXLXKXKXLXKXKXHXKXGXkX;X;X;XkXGXIXPXHXHXHXGXKXKXKXGXzX|.' c : d.eXqXqXqXqXqX0X8X8XXXXXXXI.I.L.L.K.K.H.H.H.H.G.G.v.v.v.v.9.9.v.v.9.9.k.v.v.v.v.v.v.v.k.v.v.v.v.v.v.k.v.v.k.k.k.v.k.v.v.k.9.9.k.9.9.k.k.9.k.9.9.9.9.9.9.7.7.4.*.I j 4 3 0 0 2 8 0 0 0 0 0 0 0 3 3 , : , , ; = ; ; ; ; ; = = $ $ $ + $ $ = ; = = = = + ; ; = ; , , : : , , 3 0 2 : : : , , , : , : - = = = = : ; ; ; ; ; = ; ; ; ; ; ; ; ; ; ; ; = = = = = = = = $ $ $ $ $ $ $ $ $ $ $ $ = = $ $ $ $ = % $ # # $ + # + X + X + X X ",
"oX%XoXXXXXXXXXXXXXXXXXXXXX8XXXXXXXXXXXXXXXXXXXXX8XXX%X%X%X0X0X0X0X0X0X8XXXI.K.K.K.I.K.K.J.J.J.J.J.D.x.x.x.u.y.y.y.y.w.3.w.<.=.=.<.<.<.<.<.<.<.<.<.<.=.*.*.*.*.*.*.&.&.=.=.=.=.=.=.=.=.*.=.=.=.*.=.=.=.=.*.&.&.=.=.&.&.&.&.&.E E E E E &...&.! E E E E E E E  .&.! A.*X<X$X<X<X,X,X,X$X$X#X#X@XOXOX.X.X X X XS.S.Z.t.r.r.K B B m D Q / ) ) ~ / _ p.A.A.C._.`.-X5XkXkX5XlX/.H E.}.E.=X>X>X-XQ.' ' ) i.i.i.i.s.i.i.i.s.Q.Q.Q.Q.|.Q.R.E.R.R.R.R.E.W.W.(.=X;XlXHXLXKXLXLXHXlXkXHXGXGXLXLXLXLXLXLXKXKXKXKXHXlX;X;X;X;X>XlXKXLXHXHXGXHXKXKXKXHXGX|.) h 4 .XeXqXqXqX0XqX0X8X8XXXXXXXI.I.L.L.K.L.K.H.H.G.v.k.k.v.v.9.9.9.9.v.v.v.v.v.v.v.v.v.v.v.k.v.v.k.v.v.k.v.v.v.v.v.v.v.v.k.v.v.v.9.9.9.9.9.k.9.k.9.9.9.9.9.9.7.7.7.:.:. .j < , 3 0 8 0 0 0 0 0 0 0 3 , 2 0 > > , ; ; , ; = ; = = = = $ $ $ + = ; = = $ + = ; ; ; ; ; - , , , , , 3 0 , : : , , 3 , ; : ; = * = = = ; ; = ; ; = = ; ; ; ; ; = ; ; ; ; ; = = ; = = = + $ $ $ $ $ $ $ $ + + $ $ $ $ $ $ $ = > $ + $ $ $ $ % $ + + + X O X ",
".XoXoXoXXXXXXXXXXXXXXXXXXXXXXXXXXXXXI.I.XXXXXXXXXXXX%XXX%X0X0X0X0X0XXXXXXXXXK.J.K.K.J.J.J.J.F.F.F.D.x.j.u.y.y.u.u.w.3.<.3.<.*.*.*.=.<.<.=.<.<.<.=.=.=.=.*.*.*.*.*.&.&.=.=.=.=.*.=.=.*.&.*.*.*.*.*.*.*.=.&.&.=.&.=.&.&.&.&.&.E E E E ! ! ..^ ! E E E ! ! E E &.^ t.@X<X,X<X<X<X,X,X,X$X$X#X#X#X@X@XOX.X.X.X.X XS.Z.A.r.t.~ N J N m K / ) ) / / ) _ p.C.S.A._.|.:X5X5X5X5X5X` ( }.~.~.-X5X5X-XR.' ' i.i.i.i.s.i.i.s.Q.Q.Q.!.Q.Q.Q.R.R.R.R.R.R.E.E.=X=X=X;XkXxXKXLXKXLXHXkX;XxXKXKXLXLXLXLXLXKXKXLXKXGXlX;X;X;X;X;X;XlXGXHXHXHXGXHXKXHXLXHXKX:X( q h %XeXqXqXqXqXqX0X8X8XXXXXXXI.I.L.L.L.K.K.H.H.H.v.v.v.v.v.9.9.9.9.k.9.k.v.k.k.k.v.v.9.v.9.v.v.k.v.v.v.v.v.v.v.k.v.v.v.k.k.k.k.9.k.k.9.9.9.9.9.9.k.9.9.k.j.7.7.7.7.:.:.$.C 4 < 0 0 w 0 0 0 0 0 0 0 2 2 0 , ; , , ; ; ; ; ; = = = = = = = $ = = $ = + + = = ; ; ; ; = , , , , , , 0 0 , : : , 3 3 2 , , , = = = = = = ; ; ; ; = ; ; ; ; ; = ; ; ; ; ; ; = = + = = $ + + $ $ $ $ = = + $ $ + $ $ $ $ $ = ; $ # $ $ $ $ $ $ $ $ $ # # O ",
"'.oXoXXXXXXXoXoXXXXXXXXXXXXXXXXXXXXXP.XXXXXXXXXXXX8X%XXX%X%X0X0X0XXXXXXXXXXXK.K.K.J.J.J.J.J.D.D.D.D.x.u.y.y.y.u.y.w.<.<.<.<.=.*.&.*.=.=.=.=.=.=.=.*.*.=.*.&.*.*.*.*.*.=.=.=.*.&.*.*.&.*.*.*.*.=.&.&.&.&.=.&.=.&.&...E E &.&.E E E E E E ! ! E E E E E E E E &.! S.1X2X,X<X,X<X,X<X<X,X$X$X#X#X#X@X@X@X@X.X.X XS.S.Z.r./ / U N B N D Q / ) / / ) _ _ V.S.A._.|.-X5X5XlXkXlX=X( R.}.R.=X>X5X>X}.' ' i.i.i.i.i.i.i.s.Q.Q.Q.!.Q.Q.Q.R.R.R.R.~.~.E.E.~.=X(.(.;XkXGXLXKXKXGX;X(.kXHXIXIXLXLXLXKXKXKXHXxXkX;X;X;X;X;X;X;XkXxXGXGXHXGXHXHXHXKXHXKX:XQ < B qXwXqXqXqXqXqX0X8XXXXXXXXXI.I.L.L.L.L.K.H.H.H.G.v.v.G.v.v.9.9.v.k.v.v.v.v.9.9.v.k.9.9.9.k.k.9.k.v.v.v.v.v.v.v.v.v.v.v.v.v.v.9.k.k.k.9.v.9.v.v.v.k.k.k.k.7.7.7.7.4.:.:.<.R j < , 0 0 0 q e 0 0 0 , , 2 1 ; ; , ; > ; ; > ; = = = = = = $ $ = $ = = + $ + = ; ; ; = ; , , , , , 3 0 2 , ; : 2 3 0 2 , , : - - = = ; ; > ; ; ; = ; ; = ; ; ; ; ; ; > ; ; = $ = = $ = = = = $ $ = $ + $ $ $ $ $ $ $ $ = % $ $ % $ $ $ $ $ % % % $ $ # ",
".XoXoXoXoXoXoXoXXXXXXXXXXXXXXXXXXXXXXXXXXXXXXXXX8X8X0X0XXXXXXXXXXXXXXXXXI.K.J.J.K.J.F.J.J.J.D.D.x.D.x.u.y.y.y.3.<.3.<.<.<.=.*.*.=.=.=.=.=.=.=.=.=.*.&.*.*.&.*.*.&.&.&.*.*.*.*.&.*.*...=.=.=.=.=.&.E &.&.&.E ! &.! E E E E ! ! E E E E E E E E T T T E ! ! E ! q.&X3X2X<X<X2X<X,X<X<X,X$X$X$X#X#X#X@X@X.X.X.X X].S.S.S.t./ ^ B G D N K ~ / ~ / / ) _ a.A.A.C._.|.-X5XlXlXlX5XR.( }.~.E.-X5X5X-XQ.i.i.i.i.i.i.i.s.Q.Q.!.Q.Q.Q.Q.Q.Q.R.' R.R.Q.~.E.~.=X=X=X;X;XlXHXKXHXGX;X(.;XVXIXIXLXLXLXKXHXxXkXkX;X;X;X;X;X;X;X;XkXlXGXVXGXGXHXGXKXKXKXLX-XK < U eXqXqXqXqXqXqX0X8X8XXX8XXXI.I.I.L.L.L.K.H.H.H.G.G.G.G.G.v.v.v.v.k.k.v.k.k.9.9.v.k.9.9.9.k.k.9.k.v.9.9.9.k.k.v.v.v.v.v.k.k.9.v.v.v.k.9.k.k.v.k.k.9.9.k.k.9.7.7.j.7.4.1.:.<.&.V 4 < 3 3 q e w 0 0 2 , 0 8 , ; , , , ; ; > ; = = = = ; ; + $ = $ = = = + + = = ; , - = - , , : , 2 2 2 , : : , 3 3 , : , , , : = = = $ ; ; ; ; = = = = = ; ; ; ; ; ; ; ; ; = = = = = = = = $ $ $ $ + + $ + + $ $ $ $ = $ $ $ $ $ % $ $ % ; % $ % $ $ ",
"oXoXoXoXoXoXoXXXXXXXoXXXXXXXXXXXXXXXP.P.XXXXXXXXXXXXXXXXXXXXXXXXXXXXXXI.K.J.J.J.F.J.F.F.J.D.D.D.x.x.x.u.w.3.3.w.<.<.<.=.=.=.=.=.=.=.=.=.=.=.=.=.=.=.=.=.=.=.=.=.=.=.&.=.=.&.&.&.=.=.&.&.&.=.=...! &.&.&.^ E ! ^ E E E E E ! E E E E E E E E E T T ! E R E ! Q ].2X2X2X2X<X<X<X<X<X,X,X$X$X$X$X#X#X#X@XOXOX.X.X X].S.S.Z./ ^ J N D D G Q ~ ~ ~ / ) _ _ p.C.C.C.`.|.5XlXlXkXlX-X( E.=XE.=X>X>X>X-Xi.i.i.i.i.i.s.s.s.Q.Q.Q.Q.Q.Q.Q.Q.' ' R.R.Q.~.W.W.=X=X=X=X;XkXGXHXKXGX=X(.;XxXIXIXIXKXHXGXlXkX;X;X;X;X;X>XkX;X;X>X>XlXxXxXGXHXGXGXHXKXPXKX-XH < q.eXqXqXqXqXqXqX0X8X8X8X8XXXI.I.I.L.L.L.L.H.H.H.G.v.v.v.v.v.v.v.v.9.v.9.9.9.9.v.9.9.9.9.9.k.9.9.k.v.k.9.v.9.9.v.v.v.k.v.v.k.v.v.v.v.v.9.9.k.v.9.k.9.7.k.9.k.7.7.7.7.7.7.:.%.:.-.Z a < 3 w 3 0 w 0 , , , < , , , : , > ; ; ; = = = = = = $ + $ $ = = $ = $ $ $ = ; > = = ; ; ; , , , 2 3 , , , , : , : : : , , : ; ; + = ; ; ; ; ; = = = ; ; ; ; ; ; ; = = ; ; = = = $ = ; = = = $ + + $ $ $ + $ $ $ $ $ $ $ $ $ $ $ $ $ ; = = = $ $ ",
".XoXoXoXoXoXoXoXXXoXXXXXXXXXXXXXXXXXP.P.XXXXXXXXXXXXXXXXXXXXI.P.I.I.I.I.J.J.J.D.D.D.D.D.D.j.u.u.u.u.u.u.w.<.w.3.<.2.2.=.=.=.=.=.=.=.2.<.=.=.=.=.=.=.=.=.=.=.=.=.=.=.&.=.=.&.&.E &.&.=.&.! ..&.........&.! E E ! T T E E E E E E E E E E E R E E T ! R E E Q s.<X2X,X2X2X2X2X<X<X<X<X<X,X$X$X$X#X@X@X#X@XOXOX.X X].].S.S.r.^ J N D D D K Q / / ~ / ) _ p.A.V.a.A.`.-XlXlXkXkXlX/.` }.}.}.-X>X>X-X|.i.i.i.i.i.i.i.i.s.Q.Q.s.Q.Q.Q.Q.Q.' ' R.Q.~.~.W.W.~.=X(.=X;XlXHXLXxX=X;X;XxXIXIXLXGXlXkX;X;X;X;X;XkXxXGXGXlX;X>XkXlXxXVXGXKXHXGXGXKXLXKX-XS < d.eXqXqXqXqXqX0XqX8X8X8X8XXXI.I.L.L.L.L.L.H.H.H.H.G.G.G.v.9.v.v.v.9.9.9.9.9.9.v.9.k.k.k.k.k.v.v.9.9.v.k.v.v.9.v.v.v.v.v.v.v.v.v.v.v.v.9.k.k.k.9.k.9.k.k.9.k.7.7.7.7.7.7.7.:.:.:.;.Y s : , 2 2 t 0 3 3 3 : , 2 , , , , > ; ; = ; = = = = = = = $ $ + $ = $ $ + + = ; ; $ ; ; > , : , , 3 , , , : : 2 : ; = ; : , : ; + + + ; ; ; ; ; ; = ; ; ; > ; ; ; ; = ; ; ; ; = = = ; = = = = = $ $ $ $ $ $ $ + $ $ $ $ $ $ = = = $ $ $ = = = ; ",
".XoXoXoXoXoXoXoXoXoXP.XXXXXXXXXXXXXXP.K.P.I.I.XXI.I.XXXXXXXXI.K.K.K.K.K.J.J.J.D.u.u.u.j.x.u.u.u.y.y.u.u.y.3.w.w.<.2.=.=.=.=.&.=.=.=.=.=.=.=.=.=.=.=.=.=.=.=.=.&.=.=.&.&.&.&.&.=.&...&...! ! ! &...E E ..! E E E Y Y T E E E E E E E E E E Y E ! T R E E E !  XrX<X<X2X2X2X<X2X2X<X<X<X<X,X$X$X#X#X#X#X#X#XOXOX.X X].].S.S./ N n n D N D U / ) / ~ ~ ) t.a.C.C.V.`.|.5XlXlXlXlX5XE.E.}.E.}.-X>X5X-X!.s.i.i.i.i.i.i.i.Q.Q.s.i.i.i.Q.Q.' ' R.R.}.-XW.W.~.=X=X=X;XkXxXKXxX=X;X;XxXKXLXKXxX;X;X;X;X;XlXGXHXHXHXKXGX>X>XlXVXGXGXHXHXGXVXHXLXPXKX=Xk < '.eXqXqXqXqXqXqX0X8X8X8X8X8XI.I.L.I.L.L.L.H.H.G.H.G.G.G.v.v.v.v.v.9.v.9.9.9.9.9.9.k.k.9.k.9.9.v.v.k.v.v.v.v.v.v.k.k.v.v.v.k.v.v.v.v.v.v.v.k.9.k.k.v.v.k.k.c.k.j.7.7.7.7.7.:.:.:.:.<.&.j : , 3 0 w 0 3 3 3 2 3 3 2 , , > ; ; = ; ; = = = = = + X + $ = = = $ $ + $ ; ; = = = ; , : , , , , , , : : , , : = = : 3 , : = + + = ; = ; ; ; = = ; ; ; ; ; ; ; = ; ; ; ; = = = = = = + = = $ $ $ $ $ + + + + $ $ $ $ $ $ $ $ $ $ $ $ $ ; ; ",
".XoXoXoXoXoXoXoXoXXXP.XXXXXXXXXXXXP.K.J.P.P.K.P.P.P.P.I.I.P.P.J.J.J.J.J.J.J.F.D.u.y.u.x.u.u.u.u.y.3.y.y.3.3.w.w.<.=.=.=.=.=.&.=.=.&.&.=.=.=.=.=.=.&.=.=.=.=.&.&.=.=.&.&.&.E E &.E E E &.....! E E E E ! E E E Y I I T T E E E E E T E E T T E E T T E ! T t.<X2X2X3X2X2X2X2X2X2X2X<X<X<X,X$X$X$X$X$X#X#X#X@X@X.X X X].S.S.V.U g z D D D K ~ / / ~ ~ ) _ _ C.A.V._.}.-X5XlXlXlXlX-X( ~.}.E.=X>X5X5X|.Q.i.i.i.i.i.i.i.s.s.i.i.i.i.Q.Q.Q.R.R.R.~.kX>XW.~.=X=X=X=X;XkXGXxX=X;X;XkXlXlXGXGXkX;X;XlXGXHXHXHXGXHXHXGXlXxXHXGXHXHXHXGXVXGXPXIXUXKX}.k < .XeXqXqXqXqXqXqXqX8XXXXX8XXXI.I.T.L.L.L.L.H.H.H.G.v.v.v.v.v.v.v.v.9.9.9.v.9.9.9.9.9.v.k.k.v.k.9.k.v.v.9.v.k.G.v.9.v.v.v.v.v.v.v.v.v.v.v.v.k.k.v.k.v.v.k.k.v.k.k.h.h.h.7.7.7.:.:.:.1.<.&.c < : 2 w w 3 3 3 , 3 0 , , , , > ; ; ; ; ; ; = $ $ $ + X + $ = = $ = = $ ; ; ; = = ; , , , , , , 2 2 , , : , , , : : 3 , , ; - + + = = ; = ; ; > ; ; ; ; ; ; , ; ; ; = = = = $ + $ = = = + + $ $ $ + + $ + + $ $ $ $ $ + $ $ $ $ $ = = = = ",
".X.XoXoXoXoXoXoXoXoXoXXXXXXXXXXXXXP.K.J.P.K.J.K.K.P.P.XXP.P.K.J.J.J.J.J.J.D.J.x.y.y.u.u.y.y.y.u.y.y.4.<.3.3.<.w.<.=.=.=.=.=.&.&.&.E &.&.&.=.=.=.=.=.=.=.=.&.&.&.=.=.&.&.E E E E E E E E E E E E E E R E E E E T Y I T T T E E E E T T T T R T T T T ! / Q  X4X2X2X2X2X3X3X2X2X2X2X2X<X<X<X,X$X$X$X$X$X$X#X#X@XOX.X X X].S.Z._ n m D N N D Q ~ / / ~ / ) _ t.V.C.V._.|.-XlXlXlXlXlXE.` =X}.E.-XkX5X:X!.i.i.i.i.i.i.i.i.i.i.i.i.i.Q.Q.Q.Q.Q.' R.kXVX=XW.=X(.=X=X=X;XlXlX;X=X;X;X;X;XlXHXlXlXGXHXHXHXHXHXHXHXHXGXHXLXLXHXHXGXGXGXHXLXPXIXPXLX=Xp q oXeXqXqXqXqXqXqX0X8X8X8X8X8XI.I.I.L.L.L.L.H.H.F.H.G.v.v.v.9.9.9.v.v.v.v.9.9.9.9.v.9.9.9.9.k.v.9.9.k.v.9.v.k.v.k.k.k.v.k.k.k.v.v.v.v.v.v.v.v.G.v.v.k.k.k.k.k.k.k.k.k.j.7.7.7.7.4.:.:.:.;.&.B < : 4 3 3 e 4 < , 2 3 2 , , : ; > = = = ; ; = $ = $ + + $ = = = = $ $ = ; ; ; = = - : , , , , , 0 , : : : , 3 , : : , , , : = = + = ; = ; ; ; > > > > ; ; ; ; ; ; ; ; = = = $ = = = $ = + + $ + + $ $ + $ $ $ $ $ $ $ $ $ = $ $ $ = = ; ",
".X.X.XoX.XoXoXoXoXoXoXXXXXXXXXP.P.K.J.J.J.P.J.J.J.K.P.K.J.J.J.J.J.J.J.J.D.x.x.u.y.y.y.y.3.3.3.3.3.y.3.<.<.<.=.<.=.=.=.=.=.&.&.E E E E E E &.&.E E &.=.=.=.&.&.&...&...E E &.&.E E R E E R E ! E E T T E T T T T T T T T T T T T T T T T T T T T T E ! ! t.<X2X2X2X2X3X4X3X3X2X2X2X2X<X<X<X,X,X$X$X$X$X#X$X#XOX@X@X.X X].S.S.Z.^ J K N N D J ~ ) / / ~ / ) _ V.A.C.V._.|.5XlXlXlXlX>X( R.=XE.=X>X5X>X|.Q.i.i.i.i.i.i.i.Q.Q.i.i.Q.i.Q.Q.Q.Q.R.R.;XGXlXW.W.W.=X=X=X=X>X>X;X;X;X;X;X;XkXGXKXHXHXHXHXHXHXHXHXHXHXHXLXIXIXHXGXGXGXGXLXIXIXIXPXLX=Xi q oXeXqXqXqXqX0X0X0X8X8X8X8X8XXXI.I.L.L.L.K.H.H.H.H.G.G.v.v.v.v.v.v.v.v.v.9.9.9.9.9.9.9.9.9.9.9.k.9.v.v.v.k.v.k.v.v.k.v.k.9.k.v.v.v.v.v.v.v.G.G.v.v.v.v.k.k.k.k.c.k.k.j.h.7.7.7.7.:.1.:.;.-.=.C < : e e e 3 3 , , , 2 2 , , , > $ = = = = = = $ = $ $ $ = = = $ + + + = ; ; ; $ = : , , , , , 3 , : , , , , 3 , : , , , , : ; = = $ + = = = ; ; ; = ; ; ; ; ; = ; > ; = = = = = = + = $ + $ $ $ + $ $ + $ $ $ $ $ $ $ $ $ = $ $ $ = = ",
"oX.X.X.X.X.XoXoXoX].oXXXXXXXXXP.J.J.x.u.D.J.J.J.J.J.J.J.J.J.J.J.J.J.J.J.D.x.u.y.y.y.y.y.3.<.<.<.<.<.<.<.<.=.=.=.*.=.=.=.&.&.&.E E E E E E &.E E E E &.&.&.E E E E E E E E ..E E E Y R R T E E E R T E E E E T E T E T T E E T T T T E E E T T T E ! ^ Q '.rX2X3X2X2X2X4X3X3X3X2X2X,X<X<X<X,X<X<X$X$X$X$X$X#X@X@X@X.X.X].].S.S.V.^ U D N N m U / / / ~ / ) _ p.C.A.C.C.|.-XlXlXlXlXlX}.( }.}.W.=X5X5X-X}.' i.i.i.' ' i.!.s.i.i.Q.i.Q.Q.Q.Q.Q.R.E.lXHX;XE.W.=X=X=X=X=X;X;X;X=X;X;XkXVXHXLXLXHXHXHXHXHXGXGXHXKXLXIXIXLXGXGXHXKXKXIXIXIXIXLXLX=Xi d *XeXqXqXqXqX0X8X0X8X8X8XXX8XXXI.I.L.L.L.K.H.L.H.H.G.G.G.v.v.v.v.v.v.9.9.9.9.v.9.9.9.9.9.9.9.9.9.v.v.k.v.9.k.v.v.v.v.v.v.k.v.v.v.v.v.v.v.v.v.G.G.G.v.v.v.k.k.k.k.k.k.j.j.7.7.7.7.4.4.:.:.;.*.*.P 4 < s s 4 3 , , , , 2 , , , > = = = = = = = = $ $ $ $ = $ = $ + + = = = ; > = = : : : , , : , 3 : , : , 2 3 , , , : , , , , ; = + + + = = ; ; ; ; ; ; ; ; ; = ; , , ; = = ; ; ; = = = + $ $ = + $ = + + + + + $ $ $ $ = $ $ $ = = ; ",
".X.X.X.X.X.XoXoXoX].oXoXoXoXXXP.J.D.x.u.D.J.J.J.J.J.J.J.K.J.J.D.D.D.D.D.D.x.x.y.y.y.3.3.<.<.<.<.<.;.;.<.=.*.=.*.*.=.=.=.&.&.&.E E Y E Y Y E E E E E E E ^ E E E E E E E E E E E E Y E E R R R E Y Y E E T T T E E T E T E E T T Y T E E T E E Y E ! ! / $X7X3X3X2X2X2X3X3X3X2X2X2X2X<X<X<X<X<X<X&X$X$X$X$X#X@X@X@X@X.X.X XS.Z.Z.r.^ U N m m D U / / ~ ~ / _ _ V.A.C.V._.|.5XlXlXlXlXkX` E.=X/.}.-X5X5X-XQ.' ' i.i.i.i.s.i.i.i.Q.i.Q.Q.Q.Q.Q.R.E.>XKXVXW.W.=X(.(.=X=X;X;X=X=X=XlXGXKXHXKXLXKXHXHXHXHXHXHXLXIXIXIXLXHXGXHXLXLXKXIXLXIXIXLXLX=Xi f *XqXqXqXqXqX%XXXXX8X8X8XXX8X8XT.I.L.L.L.L.L.L.H.H.G.G.v.v.v.9.9.v.v.9.9.9.9.v.9.9.k.9.9.9.9.9.k.9.k.k.v.k.v.v.v.v.v.v.v.k.v.v.v.v.v.v.v.v.v.G.G.G.v.v.k.k.k.k.c.c.j.k.j.7.9.j.7.7.4.1.:.:.;.;.*.P a < 4 t q 3 < , , , , , , > $ $ $ $ = ; = = $ $ $ $ $ $ $ $ + + = ; = ; ; ; = = = - ; , , , , , , : : : , , 3 , : , 2 3 2 , : * + $ = = = = = = ; ; ; ; ; ; ; ; 2 > ; ; ; ; ; ; ; ; = $ $ = $ $ $ $ $ + $ + $ $ $ = = $ $ $ ; = ; ",
".X].].]..XoXoXoX.XP..X].P.J.P.P.J.D.D.D.D.D.J.D.D.J.J.J.J.J.D.D.x.x.u.u.u.u.u.u.y.y.3.<.=.<.<.<.<.=.<.=.*.&.&.=.*.=.=.&.E ..E Y Y T T Y Y T Y Y Y E E ! E E E E E Y Y Y I E E E E E E E T T Y Y I I T Y I I Y E T T T T E E T T T T E E T E E T T T U ) <X4X4X4X4X2X4X4X3X2X2X2X2X2X2X<X<X<X<X<X<X$X$X$X$X#X@X@X@X@X.X.X X].S.S.Z._ ~ G N D m D ~ / ~ ~ ~ ~ ) t.V.V.V.A.`.-XlXlXlXlXlX=X( ~.}.E.=X>X5X5X|.' ' ' i.i.i.s.i.i.Q.Q.s.i.Q.Q.Q.Q.R.E.=XVXHX;XW.W.W././.=X;X;X;X=X=XkXGXHXHXHXHXHXHXHXGXHXKXLXIXIXLXKXKXHXHXKXLXKXHXLXKXIXIXLXLX-X9 k qXqXqXqXqXqX0XXX%XXX8X8X8X8XXXI.I.L.L.L.L.L.H.H.H.H.k.9.v.v.v.v.v.v.v.9.9.9.9.9.9.9.9.9.k.9.k.9.9.9.v.9.v.v.k.k.v.k.v.v.v.v.v.v.v.v.v.v.v.v.G.v.G.v.v.v.c.c.k.c.k.k.k.k.j.7.j.h.7.7.7.7.7.:.:.-.=.P a < s e 3 , , , , , , , ; $ + + = = = = = = = = = $ $ $ + + + $ = ; ; ; > ; = = = ; : , , , , , , , : : : , , , , , 3 3 , , = * * + = = = = = = ; ; ; ; ; ; ; ; , ; ; ; ; ; ; ; ; > = = ; = $ $ = $ $ $ $ $ $ + $ $ $ = = ; = = ",
".XoX'.].]..XoX.X'.'.oX].J.J.J.J.J.D.D.D.D.u.D.D.D.D.D.D.D.D.u.u.u.u.u.u.u.u.u.u.y.3.3.<.<.<.<.<.=.=.=.=.*.&.&.*.=.*.&...E &.E Y Y E Y T I I T E T Y E E Y Y T T T T T T I E E E E E ! T T Y T Y I I I I T E T E E Y T T T E E T T T E E E T T R E ! W p.4X4X4X4X4X4X4X4X2X2X2X2X2X2X2X2X2X<X<X,X<X$X$X$X$X#X#X#X#XOX.X.X X X].S.S.r.^ U N N m m U / / / ~ U / t.a.C.C.A.`.|.5XlXlXlXlXlXW.E.=X~.~.;X5X5X:XQ.` ' i.i.i.i.s.s.Q.i.i.s.i.i.Q.Q.Q.~.~.>XlX;XW.W.W././.=X=X;X;X=X=X>XxXHXHXHXKXKXHXHXHXLXIXIXIXLXLXKXLXLXHXKXLXKXKXLXLXIXIXLXLX-Xq x qXqXqXqXqXqX0X0XqXXXXX8X8XXXXXI.I.I.L.L.L.L.H.H.H.G.k.k.k.v.v.v.v.v.v.9.9.9.9.9.9.v.9.9.9.9.9.9.9.9.k.9.v.v.k.v.v.v.v.v.v.v.v.G.v.G.G.v.G.H.G.H.G.G.v.G.G.v.c.c.k.j.k.k.k.k.k.h.7.7.7.7.7.:.:.:.%.$.P s 4 d e , , , , , < < : = + + = $ = = = ; ; = = = $ + + $ $ = $ = ; = > , ; + = ; ; , , , , 3 3 , , , , , 2 3 , : , 3 , : : = = + = = ; ; ; ; = = = ; ; ; ; ; : , , , : : - = = ; = = = = $ = * = $ $ $ $ $ $ $ $ $ = ; = = = ",
".XoX'.'.'.oXoXoXP.J.P.P.J.J.J.D.D.D.D.D.D.u.D.D.D.D.D.D.D.u.u.u.u.u.u.u.u.y.u.3.w.3.3.<.<.=.=.=.=.=.*.*.&.&. .&.*.=.&. .E E E Y Y Y Y T Y I T Y I P I T I I I Y Y Y T E T E E E T T E T T Y E T I Y T T E E E T E T E E T T T T T T T E E T T E ! =.Q `.4X2X4X4X4X4X4X4X3X3X2X2X2X2X2X<X<X<X<X<X<X&X$X$X$X#X#X#X#X@X@X@X.X X XS.S.Z./ ~ G z m m D Q ) / Q U ) A.S.A.A.A._.`.-X5XlXlXlXlXkXE.E.=XE.=X>X5X5X-X' ' i.i.s.i.i.i.i.i.i.i.i.s.Q.Q.Q.~.~.=X^.=XW.W.W.W././.=X=X;X;X=X=XkXGXHXHXHXKXLXLXIXIXIXIXIXLXLXIXIXLXKXKXLXHXKXLXLXIXIXLXLX:Xi x eXeXqXqXqXqX0X0X%XXXXX8X8X8XXXI.T.I.L.L.L.L.K.H.H.H.G.G.v.v.v.9.v.v.9.9.9.9.9.9.9.9.9.9.9.9.9.v.9.v.k.v.k.v.k.v.v.v.v.v.v.v.v.v.v.v.v.v.v.v.v.H.G.v.v.v.v.c.c.c.c.k.k.j.k.k.k.h.7.7.7.7.7.4.:.:.%.-.&.C s d h 3 , , : , < 3 2 : = * + $ $ $ ; > ; = = = $ $ + $ + $ = $ $ = > , ; = = = : , , , , 2 3 3 , , , : 3 3 , : : , , , , : ; = $ + = = $ = = = ; ; ; ; ; ; : , , , , , = ; , ; = = = = = = $ = = $ $ $ $ $ $ $ $ = = = = % ",
"].'.'.'.'.'.].P.J.J.J.J.Z.D.D.D.D.D.D.D.D.u.u.u.u.u.u.u.u.y.y.u.y.y.3.3.u.3.2.3.3.<.<.;.=.=.*.*.=.*.*.&.&.&. .&.&.*.&. .E E E Y I Y Y Y I I Z Y Z C I Y Y T T T Y I Y T T E E E T T Y Y I I T T T T T T T T E T T T E T I T T T T T E E E T T E &./ ) @X4X2X4X4X2X2X2X2X2X2X2X2X<X2X2X2X2X<X<X2X<X<X$X$X$X$X$X#X#XOXOX@X.X X XS.S.S.r.^ U z z n m K ~ / Q t.S.A.S._.S.A.C._.|.-XlXlXlXlXlX=XE.=X}.E.-X5X5X5X}.' i.i.i.s.s.s.i.i.i.s.i.i.Q.Q.Q.~.R.}.~.E.W.W.W.W././.=X=X;X;X;X=X;XlXHXHXHXKXPXIXIXIXIXLXLXIXIXIXIXKXKXLXKXHXKXLXLXLXIXKXKX:Xp z eXeXqXqXqXqX0X%XXXXXXXXX8X8X8XT.I.I.L.L.L.L.L.H.H.H.H.G.G.k.9.9.9.9.9.9.9.9.9.9.9.9.9.9.9.9.9.9.v.v.v.v.v.v.k.k.v.v.v.v.v.v.v.G.v.G.G.v.v.H.H.H.H.G.v.v.v.v.c.j.k.k.k.k.k.7.7.7.h.h.7.7.7.4.:.:.:.;.| &.C s f s 0 , , : , 2 < : - = + + $ = = > > = = = = $ $ + X + $ + $ $ ; , ; ; = = ; : , , , : 2 2 , , , : 3 3 , , : : : : : , , = $ + + = $ = $ = = ; ; ; ; ; ; ; ; , , , ; , , ; = = ; ; = = + = = $ $ $ $ $ $ $ = $ $ = = = ",
"'.'.'.J.P.P.P.J.J.J.J.J.D.D.D.u.u.D.D.D.D.u.u.u.u.u.u.u.y.u.y.u.3.3.<.<.2.2.2.<.<.<.<.=.=.=.=.=.=.*.&.&.&.&. . . ... .E E Y Y T I Y I I P P I Y I P Y Y T T I T T T T T T E T E E T I Y I I T T T T T T T T E E T T E T Y T E T T T E E E E T E ^ / t.<X4X4X4X4X4X2X4X2X2X2X2X2X2X2X2X2X2X2X2X2X<X<X<X$X&X$X#X$X#X@X@X@XOX.X.X XP.Z.Z._ Q G n z m D U Q / S. X'.'.'._.A.A.S._.|.5XlXlXlXlXkXE.E.=X/.=X>XkX5X:XQ.i.i.i.i.i.i.Q.Q.Q.Q.s.i.Q.Q.Q.R.R.R.~.E.W.=X/.W././.=X=X;X;X;X;X;X>XVXHXKXPXUXUXIXIXIXIXIXIXIXIXIXKXHXLXKXHXKXLXIXLXLXHXJX5Xp h qXeXqXqXqXqX0X0X8XXXXXXXXX8X8XT.T.I.L.L.L.L.L.L.H.H.H.G.G.v.9.9.9.9.9.9.9.9.9.9.9.9.9.9.9.9.9.9.v.v.9.v.k.v.k.v.v.v.v.v.v.v.v.v.v.v.v.v.G.G.G.H.G.G.v.v.v.v.c.c.k.c.k.k.k.k.k.h.k.7.7.7.7.4.:.:.:.:.%.$. .V s s q 3 , , , , , : ; - = $ $ $ = = ; = = = $ $ $ $ X + = $ $ + = ; ; , ; = = ; : , : : , , , 2 3 : , , 3 3 : : = = : , , : = X + + + = = = ; ; = ; ; ; ; = = , , , , , , ; ; = ; ; = = = = % $ $ $ $ $ = = ; $ $ = ; ; ",
"'.J.J.J.J.J.J.J.Z.d.x.D.u.D.D.u.u.D.D.D.D.u.u.u.u.y.y.u.y.3.2.3.3.<.<.<.<.<.2.=.=.=.=.&.=.=.&.&.&.*.&.&.E  . .E  .E  .E Y Y Y Y Y I C I Y I Y Y Y Y T T T T T Y T T T E T T T T Y E E T T I T T T T T T E E E E T E E E E T T T T T E E E ! T ! ! / a.2X7X4X4X4X7X7X7X4X4X4X4X3X2X2X2X2X2X2X2X2X<X<X<X<X&X$X#X$X#X$X#X@X@X@X.X X].S.S.V.~ U N l z m J ~ / V..X].].'._._.A.Z.A.|.-XlXlXlXlXlX;X( }.=XW.=X>X5X5X|.i.i.i.i.i.i.i.Q.Q.Q.s.i.i.' ' ' R.R.Q.E.>XGXkXW./.=X=X=X;X;X>X>X;X>XVXLXUXUXUXUXIXIXIXIXIXIXIXIXIXHXKXKXKXKXKXIXIXKXHXGXJX5Xi d 1XeXqXqXqXqX0X0X0X8XXX8X8X8XI.I.T.T.T.L.L.L.L.L.H.H.H.G.G.k.9.9.9.9.9.9.9.9.9.9.9.9.9.9.9.9.v.9.9.v.9.v.9.v.v.G.v.G.v.v.v.G.v.k.v.v.v.v.H.G.G.v.v.v.G.v.G.v.G.c.c.c.c.c.c.j.k.k.k.h.7.7.7.7.4.4.:.:.%.%.| R V a 4 3 < 2 - , : : , , = + + $ = = ; = = = $ $ ; = + $ $ $ $ $ = = = ; , : = = : , , : , , , 2 2 , : , 0 0 3 : = * : , 3 , , = + + + = = $ = = = ; ; ; : = = , , , , 2 , ; ; ; = ; ; ; = > = $ ; = = $ = = = = $ % = = ",
"J.d.d.d.J.Z.Z.Z.d.u.u.x.u.y.y.u.u.D.D.u.u.u.u.u.u.u.y.3.3.3.<.<.<.<.=.<.=.=.=.&.&.&.&.$.&.&.&.&.&.=.&.&.E E  .E E E E R R R Y Y Y I T Y Y Y Y Y Y Y T E T T T T T E T T E T T Y I E E T T T T T T T E E E ! E E T E E E T T T E E E E T T ! ! ! &./ A.2X7X4X4X4X7X7X7X4X4X4X2X2X2X<X2X3X2X2X2X2X2X<X<X<X&X$X$X$X$X#X#X@X@X@X.X X XS.S.Z.t.U B n z z n U / _ S. X].'.'.S.A.A.A.`.|.>XlXlXlXlXlXE.E.=X/./.;XkX5X:X}.' i.i.i.i.i.i.i.s.i.i.i.i.Q.R.R.Q.Q.=XGXKXGX=XW.=X=X=X;X;X;X>X5XCXPXUXUXUXUXIXIXIXIXIXIXIXIXIXIXHXKXLXKXHXKXLXHXGXHXGXGX,Xk e 1XeXqXqXqXqX0X%X8X8XXXXXXXI.I.I.T.T.I.L.L.L.L.L.H.H.H.G.G.9.9.9.9.9.9.9.9.9.9.9.9.9.9.9.9.9.v.9.9.9.9.v.9.v.v.G.v.v.v.v.v.v.v.v.G.v.v.v.H.v.v.G.v.G.G.v.v.v.H.c.c.c.c.k.k.k.k.k.k.j.k.h.7.7.4.4.:.:.%.%.%.$. .C s 4 3 , ; ; : , 2 , = + + $ = = ; ; ; = = = ; = + $ $ $ $ $ = = = ; , , - - - : , , , : : , 2 , : , 3 3 3 3 : = = : , 3 3 2 , = + + + = = = ; ; ; ; ; - ; ; : , , , , , > ; ; ; ; ; ; > = = ; ; = $ = = $ $ # $ = = ",
"J.d.d.d.Z.J.d.d.u.d.u.u.u.3.u.u.u.D.D.u.u.u.u.u.u.y.y.2.<.2.<.<.=.=.=.=.&.&.&.&.&.&.$.&.&.&.&.&.&.&.&.&.E E E E E E E R E E E Y I I I I Y T Y T I I T T Y I Y T T E T T E T T T T T T T T T E E E E E E E E E T T E E E T T T E T T E E E ! ! ! =.q._.4X7X7X4X4X4X4X4X4X7X4X4X3X2X2X3X3X2X2X2X2X2X<X<X,X&X$X$X$X$X#X@X@X#X@X.X X].S.S.Z.Z.^ U N n z z B Q / r. X X'.'.S.A.A.C._.`.-XkXlXlXlXlX>X( W.=X/.=X>X5X5X-XQ.i.i.i.i.i.i.i.Q.s.i.i.s.Q.Q.R.Q.Q.-XHXHXHXlX/./.=X=X;X-X-XlXHXUXUXUXUXUXPXUXIXUXUXUXIXIXIXIXLXHXKXLXLXHXHXHXGXHXHXGXCX:XD q @XeXqXqXqXqX%XXX8X8X8X8XXXI.I.I.T.I.L.L.L.L.L.L.H.H.H.G.G.v.v.v.v.9.9.9.9.9.9.9.9.9.9.9.9.9.v.v.9.9.9.v.9.v.v.v.v.v.v.v.v.v.v.G.G.G.v.v.H.v.v.v.v.v.v.v.v.v.v.v.c.c.c.k.k.j.k.k.k.k.h.7.7.7.7.4.:.:.:.:.:.%.$. .C s 3 3 , = , 3 , : , = + o + = = ; = = ; = = $ $ = $ $ = $ $ * = = = : : ; = - , , : : : , 2 2 2 3 3 2 2 3 : : * : , , 3 3 , , = + + $ = = ; ; ; ; ; , , , : , , , , 2 , , , > , > , > > ; ; ; ; = = = = = $ = = % ",
"Z.Z.d.d.d.d.d.u.u.u.u.w.u.y.y.u.u.u.u.u.u.y.u.y.y.y.u.3.=.=.<.=.=.=.=.=.=.&.$.&.&.&.&.$.&.&.E Y E  .E E E E E Y E E E R E E E Y I Y I Z Y I Y Y Y T T E T I T T T Y T T T T E E E E T Y T T E E E E E E E E E T T E E T E E T T E E E E T ! ! / q.q.'.7X7X2X4X4X4X4X4X4X4X4X4X4X3X3X3X3X2X2X2X2X<X<X,X$X$X$X$X$X$X#X@X@X@X@X.X.X X XP.S.S.r.U B z g z l D / ) S..X[.'.S.S.a._ p._.}.>XlXlXlXlXlX=XE.=X}.E.;X5X5X5X}.i.i.i.i.i.i.i.i.i.i.i.i.i.Q.Q.Q.Q.=XVXKXHXGXkX/.=X=X=X-XlXKXUXUXUXUXUXUXPXUXUXUXUXIXIXIXIXIXLXHXKXKXKXGXGXHXHXHXCXVXcX,XF < .XeXqXqXqXqX%XXX8XXX8X8X8X8XI.I.I.I.I.L.L.L.L.H.K.H.H.v.G.v.v.v.v.9.9.9.9.9.9.9.9.9.9.9.9.9.v.v.v.9.9.v.9.v.v.v.k.v.v.v.v.v.G.G.G.v.k.c.H.v.c.v.H.v.G.G.G.v.G.c.c.c.c.c.j.k.k.k.k.k.k.h.7.7.7.4.4.4.;.%.%.%.%.| E j 4 3 , = ; , - : , > $ X $ = = $ $ ; ; ; = $ $ = + = = = $ + $ = = ; , ; - - : , , : : , 2 2 3 4 3 3 , 3 3 : = - : : , 2 3 0 , = + X = ; ; ; ; = = ; , , ; , , , , 8 2 1 , , , , 2 , > > ; ; > = $ = ; ; % ; % % ",
"Z.d.d.u.u.u.u.u.u.u.u.u.y.u.3.3.3.3.y.y.y.y.u.2.y.y.3.3.=.&.=.=.=.=.=.=.=.=.&.=.&.&.&.&.&.E E E E E E E E E E Y Y E E E E E E Y I T Y I T Y T Y T T Y Y Y I Y T I I I R T T E E E T T T T T T E E E E E E E E E E E T T E E E T E E E E T T ! &.q.q.+XiX4X4X7X7X4X4X4X4X7X7X4X4X4X2X3X4X2X2X2X2X<X<X<X<X<X<X$X$X$X#X#X@X@X@X.X.X X{.].S.S.Z./ U m g g u l K / _ ]. X_._.p.~ ~ ) _.`.|.5XlXlXlXxXlXE.E.;XE./.>X5X5X-XQ.i.i.i.i.' i.s.s.i.i.Q.Q.Q.Q.Q.Q.~.lXHXHXHXxX=X/.=X-XlXKXUXUXUXUXUXUXUXUXUXUXUXIXPXIXIXIXIXKXHXHXHXGXVXVXHXGXCXCXcXcX4XU : '.uXeXqXqXqX%X%X%XXXXX8XXXXXXXI.I.I.L.L.L.L.L.L.L.H.H.G.v.9.v.v.v.v.9.9.9.k.9.7.9.9.9.9.9.9.9.9.v.v.k.v.9.9.v.v.v.v.v.v.v.v.v.G.G.G.v.v.v.v.v.k.c.v.v.v.v.v.v.v.c.c.c.c.c.j.k.c.k.k.j.k.h.7.7.7.7.4.%.| %.%.%.$.$.Z s 4 0 , * * : : , , ; # $ $ $ $ = ; ; = = = $ = + $ $ $ $ $ $ + + = = ; , ; : , , : : : 3 3 3 3 2 2 : 3 4 2 : : : = = = 3 0 2 : + X $ ; ; ; ; ; ; ; - ; , , , , , , 3 3 , , , , : ; ; ; ; ; ; = = ; ; ; = = $ = ",
"Z.d.u.u.u.u.u.u.u.u.u.u.u.y.y.3.y.3.y.y.3.3.y.2.2.3.3.3.=.=.=.=.=.=.=.&.=.=.&.&.&.&.&.&.&.E E E  .E  .&.&.E E Y E E E E E E E E Y Y Y Y Y Y E T E E Y Y Y Y E E T Y T E E E ! E E T E E E E E T E E E E E T T E E E T T E E E E E E E E E T ! =.q.i.,X7X2X4X7X4X2X7X4X7X7X4X4X4X2X2X4X4X2X4X2X2X<X<X<X<X<X<X$X$X#X#X#X#X#X@XOX.X.X X].].S.S.r.~ J z u u u m ~ ) a.{.S.) K U ~ _ _.`.|.-XlXlXlXlXlX-X( =X=XW.=X5X5X>X=XQ.' i.i.i.i.Q.Q.i.i.Q.Q.Q.Q.Q.Q.~.>XGXHXHXGXkX=X>XlXGXKXPXUXUXUXUXUXUXUXUXUXUXIXPXPXIXIXIXKXHXGXGXVXVXVXVXVXcXcXcXiXiX) : `.uXqXqX%XqXqX%X%XXXXX8XXXXX8XXXI.I.L.L.L.L.L.L.H.H.H.G.v.k.v.9.9.v.v.9.9.9.9.9.7.9.9.9.9.9.9.9.v.v.9.k.9.9.v.v.v.v.v.v.v.v.v.G.G.G.v.v.v.v.v.v.v.v.v.v.v.v.v.b.v.v.b.b.c.c.k.k.c.k.7.k.k.h.7.7.7.:.:.%.%.%.%.%.%.| C a 3 0 : * = ; 2 2 > % $ $ $ $ = $ ; = > = $ = $ $ $ $ $ $ = + + = + ; , > - : : : , : , 4 3 3 3 : 3 : : 3 3 , : = = = : , 3 , ; = + = ; - ; ; ; ; = - , , , : : : , 2 3 2 2 2 : > ; ; ; > ; ; = ; ; ; ; $ $ = ",
"Z.u.D.u.u.u.u.u.u.u.u.u.u.u.y.y.y.3.3.y.3.3.3.u.2.2.3.<.=.=.&.=.=.=.=.&.&.&.&.&.&.&.&.&.&.&.&.E &.&.&.&.&.&.E E E E E ..E E E E E E Y E E E E E E E T T E E E T E E E E E E ! E E E E E E E E E E E E E E T T E T T T T E E E E ! E T T E ! ^ =.q.s.4X7X4X7X7X4X4X4X4X7X4X4X4X4X4X2X2X2X4X4X2X2X<X<X<X<X<X<X$X&X&X$X$X#X@X@XOXOXOX X{.].'.S.S._ U N l u u l K ~ ~ a._ D u J ~ _ V.C._.|.>XlXlXlXxXlXE.E.;X/./.>X5X5X:XQ.' i.i.i.i.i.i.Q.i.s.Q.Q.Q.Q.Q.}.=XxXKXHXHXVXlXxXGXGXGXKXKXLXUXUXUXUXUXUXUXUXUXIXPXIXIXLXHXGXGXCXCXVXVXcXzXcXcXcXiXiXp.< r.uXqXqXqXqX%X%X%XXXXX8X8X8X8XI.I.I.I.L.L.L.L.L.G.H.H.G.G.G.v.9.9.v.9.9.9.9.k.9.7.9.9.9.9.9.9.9.v.v.k.k.9.9.v.v.k.v.v.v.v.v.v.v.G.v.v.H.v.v.H.v.v.b.b.v.G.G.v.b.v.v.b.c.k.k.k.k.c.j.7.h.k.7.7.7.7.7.7.:.:.%.%.%.%.$.| c 4 3 2 = $ ; > 2 , > = = $ $ = = ; $ = = $ $ = $ $ + + $ + + + = + = > , ; : : : : : : 3 4 4 4 3 3 : : 4 3 2 : = ; : : : , 2 , , = = = = - - ; ; = ; : ; : ; , 2 : : , , 2 2 , , , ; ; > , > ; ; ; ; ; ; = ; ",
"u.u.u.u.u.u.y.y.y.w.3.y.u.y.y.3.3.3.3.3.3.<.<.2.3.2.<.3.<.=.&.&.&.=.&.&.&.&.&.&.&.&.&.&.&.&.&.E E E E &.&.&.&.E E E E E E &.E E E E E E E E E E E E E E E E E E E E E E E E ..E E E ..! ! E E E E E E E T T T T T T E E ! E E E ! E Y I T ! ^ =.q.`.yX7X7X4X4X7X4X7X4X4X4X4X7X4X4X4X2X2X4X4X4X3X2X<X<X<X<X<X$X&X&X$X$X$X#X@XOXOXOX X X X].S.S.V.^ G n u u r l m l Q _ Q n N ~ _ p.a.C._.|.lXlXlXlXlX>XE./.=XW.=X5X5X5X|.Q.i.i.i.i.i.Q.Q.Q.Q.Q.Q.Q.Q.Q.}.}.kXHXGXGXGXGXGXGXGXGXCXGXPXUXUXUXUXUXUXUXUXUXIXPXIXLXHXGXGXGXGXCXVXVXcXcXcXzXiXiX7XA.< ! uXeXqXqX%X%X%X%X8XXX8XXXXX8XI.I.I.I.L.L.L.L.L.L.H.H.G.G.v.v.v.v.v.k.k.k.9.v.9.7.9.9.9.9.9.9.9.v.v.9.k.9.k.v.v.9.v.G.v.v.v.v.v.v.v.v.v.v.v.v.v.v.v.b.G.H.H.H.H.b.v.c.c.k.k.k.k.k.k.k.k.k.7.7.7.7.7.7.7.7.:.:.%.%.$.| Z s : 2 ; $ $ $ , , ; ; = $ $ = = = $ = ; = $ > = = $ + $ = + + = = $ ; > , , : ; : : ; : 3 3 3 3 2 : : 3 3 3 2 : = * ; : , , , 2 2 = = = = = ; : = = ; = = - ; : : : , , 2 2 2 2 , , , ; , 1 , > ; ; ; $ = ; ",
"D.x.u.u.u.u.u.y.3.3.y.y.y.y.3.3.y.y.3.3.<.<.<.<.<.<.=.=.<.=.&.&.&.=.&.&.&.&.&.&.&.&.&.&.&.&.&.E E E E E E &. .E E &.E E &.&.! E E E E E E E E E E E E E E E E E E E E ! ! ! ! ! ! E ! ! E E E E E T T T E E T T T T E E E E E E E E T T E ^ &.q.q.OXyX4X4X2X4X4X4X7X7X4X7X4X4X4X4X2X2X2X2X4X2X2X<X2X<X<X<X<X<X&X&X&X$X#X#X#X@X@XOXOX.X.X X'.S.A.r.Q B g u r y w 1 l p.p.K m K / _ p.V.V.|.-XlXlXlXxXlX/.E.=X=X/.;X5X5X:X}.' i.i.Q.Q.Q.Q.Q.Q.Q.Q.Q.Q.!.}.}.-XVXGXGXGXGXGXVXVXVXGXKXPXUXUXUXUXUXUXUXUXUXIXIXLXHXGXGXGXCXCXVXcXcXcXzXzXiXyXiXrX'.3 L tXqXqXqXqX%X%X0X8X8X8XXX8XXXI.I.I.L.L.L.L.L.K.G.H.H.G.G.v.v.v.v.k.k.9.k.9.9.9.7.9.9.9.9.9.9.9.9.9.k.k.k.v.v.v.k.v.v.k.v.v.v.v.v.v.v.v.v.v.v.v.v.b.b.H.G.v.H.H.H.H.b.c.c.k.c.c.k.k.j.k.k.k.h.7.7.7.7.7.:.:.:.:.%.%.|  .Z 4 : , ; % = > , ; > > $ + $ = = = = = = $ ; = = $ $ $ + + $ = ; = = ; 3 , : = : : : : 2 2 : 2 3 2 2 : 3 3 3 2 : * * * = : , 0 0 , - = * = - ; = - = = = ; ; ; ; , 2 , 2 3 3 2 2 , > > ; , ; ; ; ; ; ; ; ; ",
"D.D.x.u.u.u.u.y.3.3.3.y.y.3.<.3.3.3.3.3.3.<.3.<.<.<.=.=.=.=.&.&.=.=.&.&.&.&.=.=.=.*.&.&.&.&.&.E &.&.&.&.&.&.&.E E E E ..&.E &.&.&.&.=.=.&.&.! &.&.&.&.&.&.E ^ E E E &.&.&.&.! E ! E E E E T E E E E E E E E E E T T T E E E E E E E E E E ^ &.q.t.@X7X7X7X4X7X4X4X4X7X4X7X7X7X4X4X4X2X2X2X2X2X2X2X2X<X,X<X<X<X&X&X&X$X$X#X#X#X@XOXOX.X.X X].'.A.Z./ U N e r u w 8 w Q V.) D N U ) p.a.V._.|.5XlXlXlXxXkXE.E.=XW.}.>X5X5X-XQ.i.i.Q.Q.i.i.Q.Q.Q.Q.Q.Q.!.}.}.-XlXGXVXGXGXGXVXVXGXGXKXLXUXUXUXUXUXUXUXUXUXPXKXHXGXGXHXGXVXcXVXcX7XzXzXzXiXiXyX2X].e h eXqXqXqXqX%X%XXX8X8X8X8X8XXXXXI.I.L.L.L.L.L.K.H.H.H.G.G.v.k.k.v.v.9.9.k.9.9.9.9.9.9.9.9.9.9.9.9.v.k.9.k.9.k.v.k.k.k.k.k.v.v.G.v.G.v.v.v.v.v.v.H.H.H.H.G.v.H.H.H.b.b.b.c.c.c.c.c.c.k.k.k.h.7.h.7.7.7.7.7.7.:.:.%.%.%.$. .V 4 : $ ; ; ; ; , , , = + $ = = = = % $ $ = = = = $ $ + + = = = $ + * : , : = : : : : : 2 : 2 3 , : : : 3 3 3 3 : = * * : , 3 3 0 , : = - = = ; ; = = - ; ; : ; : : : , 2 2 , 2 , ; , ; > > ; ; ; ; ; ; ; ",
"x.x.x.u.u.u.u.y.3.<.<.3.y.<.<.<.=.3.3.3.3.<.<.=.<.=.=.*.=.&.$.&.=.=.&.=.=.=.&.&.=.*.=.&.&.=.&.&.&.&.=.&.&.&.&.&.E E E &.&.E &.&.&.=.=.=.&.&.E E E &.&.&.! E E ^ E ^ &.......! E E E E E E E T E E E E E E E E E T T E E E E E E E E E E E ! =.q.t.<X7X7X7X4X4X4X4X7X7X4X7X7X7X7X4X4X4X2X2X2X2X2X2X2X<X<X<X<X&X&X&X&X$X$X$X$X#X#X#XOXOX.X X{.].S.S.r.Q B u w r r r > u _ V.~ m N ~ _ p.a.C._.-XlXlXxXlXxX=X( /./.E.=X5X5X5X|.i.i.i.i.Q.i.Q.Q.Q.Q.Q.Q.}.}.-X5XVXVXVXVXVXxXVXGXGXGXHXKXLXUXUXUXUXUXUXUXPXKXHXHXKXHXZXCXcXcXcXzX7XzXzXiXiXiX2X`.s.x q *XeXqXqXqX0X%XXXXXXX8X8XXXXXI.I.I.I.L.L.L.L.K.H.H.H.G.G.v.v.v.v.v.k.k.k.9.9.9.9.9.9.9.9.9.v.v.9.v.9.9.9.7.k.k.9.k.v.v.v.v.v.v.v.v.v.v.v.v.v.b.H.b.b.G.G.v.H.H.H.H.b.v.c.c.c.c.c.c.j.j.k.k.h.h.7.7.7.7.7.7.7.:.:.:.%.| | Y j : = % % ; ; , , , > = $ $ $ = > $ $ $ = = = = % $ + $ = = + + + + = : , : ; ; : : : : 3 3 3 3 3 2 , , 3 3 3 3 : * + * = : , 3 3 , : ; = - ; ; - = ; ; ; , : : = ; : : : 2 2 1 , ; ; ; ; > ; ; ; ; ; ; ",
"u.x.x.u.y.u.u.y.3.<.<.3.3.3.<.=.=.<.3.3.<.<.<.<.<.<.=.=.=.*.*.&.=.=.&.=.=.=.&.&.=.*.&.&.&.&.&.&.&.&.=.&.&.E &.&.&.&.&.&.E &.=.=.=.=.&.&.&.E &.&.&.&.&.&.E E E E ! E E ......! E E E E E E E E E E E E T T T T E T E T E E E E E E E E E ! ! =.=.a.2X7X7X4X4X7X4X4X4X7X7X7X7X4X4X4X4X7X7X4X2X2X3X3X2X2X<X<X<X<X<X&X$X&X$X$X$X$X#X#X#XOXOX X X X'.Z.A./ D l y 8 9 8 ; ; J V.t.G n K ) p.p.a.p.|.5XlXlXlXxXlXE.E./.E.}.>X5X5X:X|.Q.i.' i.i.Q.Q.Q.Q.!.Q.!.|.6XVXVXVXVXxXxXVXGXGXGXGXGXHXLXUXUXUXUXUXUXLXLXKXKXKXKXZXcXcXcXcXcXzXzXcXiXiX7X+X!.s.s.L : oXeXqXqXqXqX%XXXXXXXXX8X8XXXXXI.I.I.L.L.L.L.K.H.H.H.G.G.G.v.k.v.k.9.9.9.k.9.9.9.9.9.9.9.9.v.9.9.v.k.9.k.9.k.v.9.k.v.v.v.v.v.v.v.v.v.v.v.v.v.v.H.b.v.v.H.H.H.H.H.b.b.b.b.c.c.c.c.c.c.j.k.k.k.k.h.7.7.7.7.7.1.:.:.:.:.-.|  .C s * $ ; ; > > 1 , 2 , = $ $ $ ; = $ $ = = = = % + + * = = = = + * = ; : , : : : : : : : 3 3 3 3 4 3 , 3 , 3 0 0 : * * * = : , 3 3 , : = = - ; ; ; ; ; : : : : ; : ; : : 2 1 1 1 ; ; ; > ; ; ; ; ; ; ; ",
"u.j.j.j.y.u.u.y.3.3.=.<.<.3.<.<.<.<.<.3.<.<.<.<.<.<.<.=.=.=.=.=.=.=.=.<.=.=.&.&.&.&.&.&.&.&.&.&.&.&.E E &. .E &.E E &...&.&.&.&.&.&.=.&.&.E &.&.&.&. .E E E E E E E E ! ....E E ! E ..! E E E E ! ! E E T T T E T T E E E E E E E E E E ! &.=.q.S.4X7X7X4X7X7X7X4X4X7X7X7X4X4X4X4X2X7X7X4X2X2X2X2X2X2X<X<X<X<X<X&X$X&X$X$X$X$X$X#X#XOXOX.X X X].Z.A.V.~ N r 1 1 & > + 3 ) C.~ N G ~ p.p.p.a.Q.-XlXlXlXlXxX-X( E.}.E.=X>X5X5X-XQ.i.' i.i.Q.Q.Q.Q.!.|.:X7XcXVXVXxXlXxXVXGXGXGXGXGXGXHXLXUXUXUXUXPXLXHXKXLXLXHXCXVXcXcXzXcXcXzXzXzX7X,X`.' ) _ s.Q - '.uXqXqXqXqX%XXXXXXXXXXXXXXXXXI.I.I.L.L.L.L.L.H.H.H.G.G.G.v.v.v.v.9.9.9.9.9.9.7.9.9.9.9.9.9.9.9.v.9.9.v.v.v.v.v.v.v.v.v.v.v.v.v.v.v.v.v.v.v.H.H.b.v.v.H.H.H.H.H.H.b.b.c.c.c.c.k.c.c.c.j.k.k.k.h.7.7.7.7.7.4.:.:.:.:.-.|  . .V 3 + = = = = > , 2 , ; = $ + $ = $ $ = = ; ; = $ $ $ = = = $ $ = = = = : : : : : : : : : 3 3 3 4 3 , 3 , 3 0 e 3 : * * * = : 3 0 0 , ; ; ; : ; : : : ; ; = : , : ; : , 2 , , , , , , ; ; ; ; ; > ; ; ",
"j.j.h.h.h.h.y.4.y.3.<.;.3.<.3.<.=.<.=.<.3.<.=.=.=.=.=.=.=.=.=.<.=.=.=.=.=.&.*.&.&.&.&.&.&.&.&.&.&.&.E &.&.E E &.&.E E &.E &.&.&.E &.&.&.&.&.&.&.&.&.&.E E E E E E E ..! ..! E E &.....E E E E E ! E T E T T T E E E E E E E E E E R R E ..&.q.q.OXyX7X7X7X7X4X7X7X7X4X7X4X4X4X4X7X4X7X2X2X4X2X<X<X<X<X2X<X<X2X<X&X&X$X$X&X$X$X#X#X#XOXOXOX X X].'.A.V.t.~ w % > & & $ + D V.p.U N K ) t.p.a.s.}.>XlXlXxXlXlXE.( }.E.}.-X5X5X:X}.Q.' i.i.Q.!.!.`.|.,XlXzXlXlXlXlXxXVXGXGXGXVXGXGXGXHXKXPXUXPXLXKXGXKXLXLXGXVXCXVXcXcXcXcXcXzXzXiX:Xs.` ` ` ` s.) : r.uXqXqXqX%X%X%XXXXXXXXXXXXXI.I.I.I.I.L.L.L.L.H.H.H.G.G.G.G.v.v.v.k.9.9.9.9.9.9.9.8.9.9.v.9.k.k.9.9.9.9.9.9.9.v.v.v.v.k.v.v.G.G.v.v.c.v.G.H.H.G.G.v.H.H.H.H.H.H.H.H.G.c.c.c.c.k.c.k.c.c.k.k.k.k.h.h.7.7.7.7.4.:.:.;.%.%.$.$.Y j : * * + $ = ; , , , = $ + $ $ ; $ $ = $ = ; ; = $ $ $ $ $ % $ = = = ; : : : : ; : : : : 3 4 4 4 3 3 3 3 q e 4 3 : * * + = : 3 0 3 , : : = : : : : = - ; ; : , ; ; ; > , > , , , , = ; ; ; , , ; ; ",
"j.h.h.h.h.y.y.y.y.y.3.3.3.3.<.<.=.=.<.<.<.=.=.=.=.<.<.=.=.=.=.=.=.=.=.=.=.&.*.*.&.&.&.&.&.E &.&.&.&.&.&.&.E E &.E E &.&.&.&.&.&.&.&.&.&.&.&.&.&.&.&. .E E E E E E E E ! ! ! E E ! E ! E E E E E E T E E E T T T T T E E R R R E E E E E &.=.q.q.@XyX7X7X7X7X4X4X4X4X7X4X4X4X4X7X4X4X7X4X4X4X4X3X2X2X2X2X<X<X<X<X&X&X$X$X$X$X$X$X#X#X@X@XOX X X].'.S.A.r.t.D > # > & > ; 2 ~ V.~ m D ~ _ p.V.V.}.=XlXlXlXlXlX>X( E.}.E.}.>X5X5X-XQ.' Q.Q.s.Q.!.|.6XzXlXlXlXlXlXxXVXVXVXGXGXVXGXGXGXGXHXKXLXKXGXGXKXLXKXCXVXVXVXcXcXcXcXzXcXiX6X|.' ) ` ` _ p.s.p.0 / uXqXqXqX%X%XXXXXXXXXXXXXXXI.I.I.I.L.L.L.L.L.H.H.H.G.G.G.v.v.v.k.k.9.9.9.9.9.k.k.9.9.9.9.9.9.k.9.9.9.k.k.9.v.v.v.G.v.v.v.v.v.G.v.G.v.v.v.G.G.H.G.v.v.H.b.H.H.H.H.H.v.c.c.c.c.k.c.k.c.k.k.k.k.j.7.7.7.7.7.7.1.:.:.:.:.-.%.| R C e * * = + + = > , 2 > $ + $ = = $ $ $ = = ; = $ $ $ $ $ $ $ $ = * * = = : : : : : : : : 3 3 3 3 3 3 3 3 4 q e 4 3 ; = + * = : 2 2 3 : : : : : : : : ; ; ; ; - ; ; = = ; ; ; ; > , ; > ; ; ; ; ; ; ",
"x.j.j.h.h.h.y.y.y.y.4.3.3.3.<.3.<.=.<.3.<.=.=.=.<.<.<.=.=.=.=.=.=.=.=.=.*.*.=.=.&.&. .&.&.&.&.=.&.&.&.&.&.&.&.&. .E  .&. .&.&.&.&.&.&.&.&.&.&. .E &.E E ..E E E E E E E E E E E E R E E E E T E E T E T E T T T T T E T T T R E E E E ! &.=.q.s.2XyX7X7X7X7X4X4X4X4X7X4X4X4X4X4X4X7X7X2X2X2X4X4X2X2X2X2X<X<X<X<X&X<X<X&X$X$X$X$X#X#X#X#X@X.X X{.].'.A.r.r./ m 2 1 8 8 2 * l ~ J N K / _ p.V.V.R.}.>XlXlXlXlXlXW.( E.E.E.=X>X5X5X|.Q.Q.!.Q.Q.+X6X7X7X7XlX7XlXlXVXVXVXVXVXVXVXVXGXVXGXGXGXCXVXGXHXKXGXCXCXCXcXcXcXcXcXzXzXzX2X`.` ` ` ) _ p.s._.`.g F tXqXqXqX%X%XXXXXXXXXXXXXI.I.I.I.I.L.L.L.L.L.L.H.H.G.G.G.v.v.v.v.v.v.v.v.k.k.k.9.9.9.9.9.9.9.9.9.9.k.9.k.v.k.v.v.v.v.v.v.k.v.G.v.G.v.v.G.H.v.v.H.H.H.b.H.H.H.H.H.H.G.c.c.c.c.k.c.c.c.k.k.k.k.k.h.7.7.7.7.7.1.:.1.:.:.;.%.| $.E M 3 * + + $ $ = , 8 > = $ $ = ; $ $ $ = = ; = $ $ $ $ $ + $ = - = = = = = ; : : : : : 2 3 3 3 3 3 4 3 3 3 3 4 4 3 : ; = = = : : , 3 3 : : : : : : : : : ; - - ; ; = = ; ; ; ; ; ; > > , > ; ; ; ; ",
"F.j.j.j.j.j.j.j.4.y.4.4.3.3.<.<.<.=.=.<.=.=.<.<.<.<.<.=.=.=.=.=.=.*.*.*.&.*.=.=.&.E E E &.E &.*.&.&.&.&.&.&.E E E E E &.&.&.&.&.&.&.&.&.E &.&.E E E ! E &.E E E E &.&.E E R E E T T E E E E T T T Y T Y I T T T I T E T T R E E ! E E ..&.=.q.d.7X7X7X7X7X7X7X4X4X4X7X7X7X7X4X7X4X7X7X4X4X4X4X2X2X2X2X2X2X2X<X<X&X<X<X&X&X$X$X$X$X#X#X@X@XOX X X].].S.V.r._ / K r 2 8 3 2 w N N J Q / ) _ p.V.V.}.|.lXlXlXlXlXkX( ( }.E.E.-X:X5X-X|.!.Q.|.:X6X6X7X7X7X6X7XlXcXcXVXVXVXVXVXVXVXVXVXVXVXVXVXVXGXGXCXVXCXVXcXcXcXcXcXcXzX4X+X' ` ` ) ` p.s._.`.`.{.k d 1XeXqXqXqX%XXXXXXXXXXXXXI.I.I.I.I.L.L.L.L.K.H.H.H.G.G.G.G.v.v.k.v.v.v.v.k.9.9.9.9.9.9.k.9.9.9.9.9.9.k.v.k.v.v.v.k.k.v.k.k.G.G.v.v.v.v.v.G.G.v.G.H.H.b.b.b.H.H.H.G.v.c.c.c.c.c.c.k.c.c.k.k.k.k.k.k.7.7.7.7.4.:.1.:.:.-.%.$.$.| I h * X + = + $ > , > , ; $ $ = = ; $ $ = ; ; = $ $ = $ + + = = = = = = = ; , : : ; : , 2 3 3 3 4 4 3 3 3 3 4 4 4 3 : * * : : : : 2 2 3 3 : : : : : : : ; ; ; ; = ; = = ; = = = ; > ; ; ; ; ; ; ; ",
"F.x.j.j.j.h.y.h.4.4.3.3.3.;.<.<.=.=.=.=.<.=.<.<.<.<.<.<.=.=.<.=.=.*.*.=.*.&.*.=.E &.&.&.&.&.&.&.&.&.&.&.&.&.&. .&.&.E E &.&.&.&.&. .E &.E E &.&.&.E &.&.&.E E ! E &.E E E E R R E E R E E T T T T I T E E T E T T T T T E E E E E ! ....&.=.=._.yX4X7X7X7X7X7X7X4X4X7X7X7X7X4X7X7X4X4X7X7X7X4X2X2X2X2X2X2X2X<X<X<X&X&X$X$X$X$X$X$X#X#X@XOXOXOX X X].S.A.V.r./ ~ m w r r y n J J U K ~ ) ) _ V.p._.}.-XlXlXlXlXlX/.( E.~.E.}.-X,X:X-X|.|.,X,X,X6X,X,X6X7XlXcXcXzXzXVXVXVXVXGXGXVXxXxXxXVXVXCXCXCXCXVXcXcXcXcXcXzXcXzX,X`.` ) ` ` ` s.Q.`.|.|.|.+XQ - .XtXqXqXqXqX%XXXXXXXXXXXXXXXI.I.I.L.L.L.L.K.H.H.H.G.G.G.G.G.v.v.v.v.v.9.9.9.k.9.9.9.k.9.9.9.9.9.9.9.k.k.9.v.v.v.v.v.v.v.v.G.v.v.v.v.v.v.G.G.G.v.G.H.b.H.H.H.b.H.v.v.c.c.k.k.c.c.c.c.c.c.k.k.k.k.k.k.7.7.7.7.7.1.:.:.:.-.;.%.| | C 4 * = ; = $ = > , > > = + + $ = $ $ $ = ; = $ $ $ $ $ $ $ = = = = - = - , : : : : ; : 3 3 3 3 4 3 3 3 4 4 4 q 3 2 : : = * * : : : 2 3 3 : : : : : : : ; ; ; ; ; ; = = = = = ; ; ; ; ; , > ; ; ",
"F.F.x.j.j.h.y.y.y.4.;.3.3.;.<.<.<.<.=.=.<.<.<.<.<.=.<.=.=.=.=.=.=.=.=.*.&.&.&.&.&.&.&.&.&.&.&.&.&.&.&.&.&.&.&.&.&.&.E  . . .&. .E E E E E &.&.&.&. .E E E E E E E E E E E E E E R T R E E T Y Y Y I T E E T E T T E Y Y R R E E E ! ..&.&.=.q. XyX6X7X7X7X7X4X7X7X7X7X7X7X7X4X4X7X4X4X7X7X4X4X2X3X3X2X2X2X2X<X<X<X&X&X&X&X$X$X$X$X$X#X#XOXOXOX X X].'.S.V.V._ U J p y u y N Q U K K ~ ~ ) _ p.V.p.p.}.5XlXlXlXlXlX` ( E.E.}.|.:X:X:X+X:X,X,X,X,X,X,X7X7XlXzXlXlXlXcXVXVXVXVXVXxXlXlXVXVXCXVXCXVXVXmXcXcXcXcXzXzX7X+Xs.' ) ` _ _ s._.`.|.|.|.-X,X` > !.uXqXqX%X%X%XXXXXXXXXXXXXI.I.I.L.L.L.L.K.K.L.H.H.G.G.G.G.v.k.v.v.k.9.9.9.k.k.k.9.9.9.9.9.9.9.9.9.9.9.v.v.v.v.v.9.9.k.v.v.v.v.v.v.v.c.v.v.H.G.v.v.H.b.H.H.H.H.H.H.b.H.c.k.k.c.c.c.c.c.k.k.k.k.k.k.k.h.7.7.7.7.1.:.1.:.:.;.%.| | Y V q , ; $ + $ ; > > > > = + $ = $ = $ $ = = $ $ $ $ $ $ $ = = = = = = = = : : : : * : : 3 4 3 3 3 4 3 3 3 3 4 3 4 3 : : : : * : : : 3 3 3 , : : , , ; ; ; ; ; ; ; ; = = = = ; ; ; ; ; > ; ; ; ",
"x.x.j.j.j.j.j.y.y.y.4.4.4.3.<.<.3.3.<.=.<.<.<.<.=.=.=.<.<.<.<.=.=.=.=.*.*.=.=.=.=.&.&.=.&.&.&.&.&.&.&.&.&.&.&.&.&.&.&.&.E  . .E E E E E E &.&. .E E E E E E E E E E E E E E E E T T R E E T T T T Y T E E T E T E E Y I T R R E E ! &.&.=.=.q.@XyX7X7X7X7X4X4X7X7X7X4X7X7X4X4X7X7X4X7X7X4X4X2X2X2X2X2X2X2X2X<X<X<X&X&X&X&X$X$X$X$X$X$X#X#XOXOX X X X].'.S.a.p./ K m y y u l K Q U K Q ~ ~ ) _ p.p.p.}.-XlXlXlXlXlX-X( ` }.R.}.|.-X:X$X:X,X,X:X:X,X6X7X7X7X7XlXlXlXlXxXVXVXxXlXlXlXcXVXVXVXCXCXCXVXcXcXcXcXcXzX2X`.` ) ` ) _ s.s.`.`.|.-X-X-X:X5X`., ) uX*XqXqXqX%X%XXXXXXXXXXXI.I.I.I.L.L.L.L.K.K.H.H.H.H.G.G.v.v.k.k.9.9.k.k.k.k.9.9.9.9.9.9.9.9.9.9.k.k.9.v.v.v.v.k.9.v.G.v.v.v.v.v.v.v.v.v.G.v.v.v.H.H.H.H.H.H.H.H.H.v.c.c.c.k.c.c.c.c.c.k.k.k.k.h.k.h.7.7.7.7.1.:.:.:.:.:.%.$.| | Y h < > = + + = ; > , , > + + $ = = $ $ $ $ = $ $ $ $ $ $ = = = = = - = = : : 2 : : * : < 3 3 3 3 4 3 3 3 3 3 3 4 4 3 : : : * ; : : : : : , : : , , ; ; ; ; ; ; ; ; = = = = ; ; ; ; ; ; ; ; ; ",
"j.j.D.j.j.j.j.y.y.y.y.3.3.<.3.3.<.<.;.=.<.<.<.<.=.=.=.<.3.<.=.=.=.=.=.=.=.=.=.*.=.&.&.&.&.E &.&.&.E &.&.&.&.E E E E E &.&.&.&.E E E E E E E E E E Y E E E E E E E E E E E E T Y T E R E E T T T Y I T E E T E T T E T T T R R R E ! &.=.=.=.r.<X7X2X7X7X7X7X7X4X4X4X4X4X4X4X4X7X7X4X7X4X2X2X2X2X2X2X2X2X2X<X2X<X<X&X&X&X$X$X$X$X$X$X#X#X#XOX.X.X.X X].'.'.A.V.r.Q D n u u l m Q U K K Q ~ ~ ) _ p.V.}.}.5XlXlXlXlXlXR.H R.R.}.|.+X+X$X,X:X:X:X,X,X7X7X7X7X7X7X7XlXlXzXcXlXlXlXlXcXVXVXVXCXCXCXmXVXmXcXcXcXzX,XQ.` ) ~ ` _ p.`.`.`.|.-X-X:X:X,X5X:Xr F rXqXqXqXqXqX%XXXXXXXXXXXI.I.I.I.L.L.L.K.K.L.L.H.H.G.G.v.v.v.9.9.9.k.k.k.9.v.k.9.9.k.9.9.9.9.9.9.9.9.9.k.v.v.v.k.k.v.v.v.v.v.v.v.c.v.v.v.H.v.v.v.H.H.H.v.v.b.b.v.b.G.k.v.c.c.c.c.c.c.k.k.k.k.j.h.h.7.7.7.7.7.7.4.4.:.;.:.;.%.| | | V q , > $ $ $ $ ; , , ; $ $ $ $ = $ $ $ $ = $ $ $ $ $ $ = = = = = = = = = ; : 2 : : : : 3 3 3 4 4 4 4 3 3 3 4 4 4 4 < : : : : : 2 : : : , , , , , ; - - ; ; ; ; = = = = = ; = = = = ; ; = = ",
"j.F.j.j.j.j.j.h.y.y.4.4.3.3.3.3.<.<.=.=.<.<.<.<.<.=.<.<.<.<.*.=.=.=.=.*.=.=.&.*.=.*.&.&.&.&. . . .&.&.&.&.E E E E E E &.&.&.E E E Y E E E E E Y Y Y E E E E E E E E E R R E R R R R R R R T T T T Y T T Y Y T T E T Y T R R E E E ..&.=.=.=.d.2X2X7X7X7X4X4X4X4X4X4X7X4X7X7X7X4X4X4X7X4X4X4X3X2X2X2X2X2X2X2X2X<X<X<X<X<X&X&X$X$X$X$X$X$X@XOXOX X.X X{.].'.S.V.a.) K m u y u l K Q K K K Q ~ ) ) p.a._._.|.6XlXlXlXlX-XH ( Q.|.|.+X+X+X+X+X+X,X,X,X6X7X7X7X7X7X7X7XlXlX6X6X6XlXcXcXVXVXCXCXmXVXVXmXcXcXmX7X|.` ) ) ~ ` ' s.Q.|.|.|.-X+X,X,X,X,X6X6Xm t 1XeXqXqX*X%X%XXXXXXXXXXXI.I.I.I.L.L.L.L.L.K.H.H.H.G.v.v.v.k.k.9.9.9.v.v.k.k.9.9.9.9.9.9.9.9.k.k.9.9.9.9.9.k.k.k.k.v.v.v.v.v.v.v.v.v.v.G.G.v.v.v.H.H.H.v.v.H.H.v.b.v.k.k.c.k.k.c.c.c.c.c.k.k.k.k.h.7.7.7.7.7.7.7.7.4.:.:.%.%.%.|  .P j < = = = $ $ = > > ; $ $ $ $ $ $ $ $ $ % $ = = = $ + $ $ $ $ $ = ; ; = = ; : , , : : < 3 < 3 q 4 q e 4 4 4 4 4 e e 3 : < : : : : : : : : 2 , : = ; ; ; ; = ; ; ; ; = = = ; ; ; ; ; > ; ; ",
"D.D.j.j.j.j.x.h.h.4.4.4.4.4.3.<.<.<.=.<.3.<.<.<.<.=.=.=.<.=.*.;.*.=.*.=.=.=.*.=.=.*.*.&.=.&. . . .&.&. .E E E  . .E E &.&.&.E E E Y E &.E E E E E E E E E  .E E E E R R R E E E T Y T R R R E T Y T T T Y Y Y Y Y R Y Y Y R E  ...&.&.*.=.=.A.7X7X7X7X7X7X4X7X7X7X7X4X4X4X7X7X7X4X4X4X4X4X4X3X2X2X2X2X2X<X2X2X<X2X<X<X<X<X<X$X$X$X$X$X$X@XOXOXOXOX X{.].].S.C.V.p.U G n w u g m U K D N D Q / ) _ p.a.p.C.:XlXlXlXlX5X` Q |.+X+X+X+X+X+X+X:X,X,X,X,X,X6X6X6X6X6X6X6X5X,X6XlXcXcXcXVXVXVXVXmXcXmXcXcXcX2XQ.) ~ ~ ` ` ' Q.`.|.|.|.|.-X:X,X,X,X6X6XlX) >  XeX*XqX*X%XoXXXXXXXXXXXI.L.L.I.L.L.L.L.L.K.H.H.H.H.G.v.v.k.v.k.9.9.v.v.v.9.9.9.9.9.9.9.9.9.k.9.7.9.9.9.9.9.9.k.9.k.v.v.v.v.v.v.v.v.v.H.v.v.H.v.b.H.H.v.b.H.H.v.H.c.c.k.c.k.k.c.c.k.c.c.c.k.k.k.7.7.7.7.7.7.7.7.1.7.7.:.:.;.%.%.$.E C s : = % + $ $ $ > > % $ $ $ $ $ $ % = = = = = = $ $ $ $ $ $ $ ; ; > > - ; : , , , , : 3 3 4 4 4 4 e e 4 4 4 4 q e 4 3 < : : * * * ; : : 2 , : ; = : ; ; ; ; ; ; = + = = ; ; ; ; ; > ; ; ",
"D.F.D.D.D.j.j.j.h.h.h.h.4.4.3.3.<.<.<.<.<.<.=.<.=.=.=.=.=.=.=.=.&.*.*.=.<.;.=.=.*.*.=.&.&.&. . .&.&.&.&.&.E  .&.&.E E &.&.&.E  . .E E &.E E &.E E E E E E E E E E E E R E E R T T T T R T R R T I Y Y Y Y R E R Y E E Y Y E  ...&.&.*.=.=.=.'.7X7X7X7X7X7X4X4X7X7X7X4X4X4X7X7X4X7X7X4X2X4X4X4X2X3X2X2X2X<X2X2X<X<X<X<X<X<X<X$X$X$X$X$X#X#X@XOXOXOX X X{.]._.S.C.V./ J N u r u l J Q J N D K ~ ) _ p.a.p._ |.5XlXlXlX:X[.`.+XOX+X X{. X|.+X,X,X,X,X,X,X,X6X6X6X6X,X,X,X6X7XlXcXcXVXCXmXmXVXmXcXcXcXcX-X' ( ~ ) ` ' s.Q.|.|.|.-X-X-X,X,X,X2X6X7X7XzX|.= p.uX*XqX*X%X%XoXXXXXXXXXI.I.I.I.L.L.L.L.L.K.K.H.H.H.G.G.G.v.v.v.k.k.v.v.v.v.9.9.9.9.9.k.k.k.k.9.9.9.9.9.v.k.k.9.9.k.k.v.v.v.v.v.v.v.v.G.G.G.H.G.v.H.b.v.b.v.b.v.v.c.c.c.c.c.c.c.c.c.c.c.k.c.k.k.k.7.7.7.7.7.7.7.7.1.7.:.:.;.-.;.*.E P x 3 = $ $ $ $ + = > = = $ $ $ $ $ $ = % = $ % = $ $ $ $ $ $ $ = = = = ; - ; , : 3 < : < 3 4 3 3 4 e e e e q q 4 e e e 3 : : : : ; : : : : : 2 : : = = = = ; ; ; = = $ = ; = + ; ; ; ; ; ",
"D.F.D.j.D.j.j.x.j.h.h.h.4.4.3.3.3.<.<.<.<.<.<.<.=.=.=.=.=.=.<.;.$.*.&.*.=.=.*.*.*.*.*.*.&. . . . .&.&.E E E &.&.&.E &.&. . .&.E E E &.&. .E E E  .E E E E E E E E E E E E E R Y Y Y R R R T R T T T T Y Y E E Y R E E Y Y E  .&.&.&.=.=.=.q.@X4X4X7X7X7X7X7X7X7X4X4X4X4X7X7X7X4X4X7X7X4X4X4X4X3X2X2X2X2X2X2X3X<X<X<X<X<X<X,X$X$X#X$X#X#X#X@XOXOXOXOX X X{.]._.S.S.V.~ J l 2 w u m U K D D J Q / ) _ p.V._ ' -X5X5X:X|.[.[.{. X{.[.[.{. X+X#X,X,X+X,X,X,X,X,X,X,X,X,X6X6X7XcXmXmXmXVXmXmXmXcXcXzX7X|.` ` ` ~ ` _ s.`.|.|.|.-X-X,X,X,X,X6X7X7X7X7XlX:X8 Q eX*XqX*X%XoXXXXXXXXXXXXXI.I.I.L.L.L.K.K.K.K.H.H.H.H.G.v.v.v.k.k.k.k.k.v.v.9.9.9.9.9.9.9.9.k.k.9.k.k.9.k.9.9.k.k.k.v.v.v.v.v.v.v.k.v.G.H.H.H.H.H.H.H.v.v.H.H.v.b.b.c.c.c.c.c.c.c.k.c.c.k.k.k.k.k.k.h.h.7.7.h.7.1.:.:.:.:.;.%.%.-. .E L q = = # $ $ + $ = = % $ + $ $ % % % $ = % $ % % $ $ = $ $ + $ $ + = ; = = , , , < < : : 3 3 3 3 4 e e 4 3 < < 4 e e q < < : : : : : : : : : 2 : : = $ $ ; ; = = = $ = = = ; ; = > ; ; ",
"F.F.D.j.j.j.j.x.j.h.h.y.4.4.3.3.<.<.<.<.<.<.<.=.=.=.=.=.=.=.;.=.&.&.&.&.*.*.&.*.*.*.&.*.&. . . . .E E E E E E &.&.E E &.E E E E E E E &.E E E E E Y E E E E Y E E E E E R E R Y Y Y T T R R R R R R R T Y E E E E Y Y Y R E ..&.&.&.=.=.=.q.<X4X4X7X7X7X4X7X7X7X4X4X4X4X7X7X4X4X4X7X7X7X4X4X4X3X3X2X2X2X<X2X2X<X<X<X<X<X<X<X$X$X$X$X#X#X#X@XOXOXOXOX X X{.].'._.A.A.p.D w 1 2 r l J U J N N K ~ ) _ r.V.p._ _.-X-X-X[.[.[.[.[.[.{. X X X+X+XOX+X+X+X#X,X,X,X:X:X6X6X6X7XcXmXCXmXcXmXmXmXcXcX7X|.' ` ) ` ` ` s._.`.|.|.+X-X:X,X,X,X,X6X6X7X7X7X7XlX7Xl z eXqXqX*X%XoXXXXXXXXXXXI.L.I.I.L.L.L.L.L.K.K.H.H.H.G.G.v.v.v.v.v.k.9.9.9.9.9.9.9.9.9.9.9.9.k.k.9.9.9.9.k.9.9.k.v.v.v.v.v.v.v.v.v.v.v.H.H.H.H.H.H.H.H.b.H.H.H.H.H.H.c.c.c.v.v.c.c.k.c.c.k.k.k.k.k.k.k.k.7.7.7.7.7.:.:.7.:.;.;.%.%. .E T x : = + $ $ + $ $ = = $ $ + $ $ = = % % $ $ = = $ $ $ $ = + + + $ = - - = : : , < 3 3 < < 3 3 3 4 4 4 4 3 3 < 3 4 q e 4 3 < : : : : : : : : : ; : ; = = = * + + = $ = = ; ; = ; > ; ; ",
"D.D.D.D.j.k.F.F.j.h.j.y.4.4.y.3.<.<.=.<.<.<.<.<.;.<.<.=.=.<.=.=.=.*.*.=.&.&.*.&.*.&.&.&.&.&. . .&.&. .&.&.&.&.&.E E E E E E E &.&.E Y E E E E Y E Y E E Y Y Y E E E E E T R E T Y T T T T R R E T T R Y Y E E E E Y R R E E ..&.&.&.=.<.=.a.1X4X2X4X4X7X7X4X4X2X4X7X4X4X4X4X7X7X7X4X7X7X7X7X4X2X4X2X3X3X3X2X2X<X<X<X<X<X<X<X,X$X$X$X$X#X@X@X@X@XOXOX X X{.{.].`.S.A.V.D 2 2 > 8 y l U U N N J ~ / ) t.p.a.p.p.C._.`._._._.`.[.{. XOX X{.OX X[. XOXOXOX+X+X+X+X,X6X6X7XcXmXCXmXmXmXmXmXmXcX7X|.` ` ` ` ` ' _.`.|.|.+X-X:X:X,X,X,X6X6X6X7X7X7X7X7X7XzXQ q &XeX*X*X%X%XXXXXXXXXI.I.I.I.I.L.L.L.L.L.K.H.H.H.H.G.G.G.v.v.v.v.v.v.k.9.9.9.k.v.9.9.9.9.k.v.v.9.9.9.k.9.9.9.v.v.v.v.v.k.v.v.v.v.v.H.H.G.v.v.G.v.b.b.H.H.v.v.H.b.b.b.b.H.H.c.c.c.c.j.c.c.j.k.k.k.h.k.k.7.7.7.7.7.7.7.7.:.;.:.%.$.o. .E P e - = = $ $ $ # + $ $ = + $ $ $ = $ $ $ $ = = $ + $ = = = + + $ $ $ = = = ; , 2 : 3 3 < < 3 3 4 3 3 4 q 4 3 3 3 4 e e 4 3 3 3 < : : : : : ; = = = = = $ + + = = + + + = ; ; ; ; ; ; ",
"F.D.D.j.j.j.F.k.j.h.j.y.4.4.3.<.<.<.<.<.<.<.<.<.<.;.=.&.&.=.=.=.=.*.=.=.&.&.*.&.&.&. . .&.&.&. .E E E E  . .&.&.E E E E E E &.&.&.E E E E E E Y E E E E Y Y E E E R T E E E E T T T T E T Y E R T T Y Y Y E E E E R E E E  ...&.&.&.=.=.=.A.4X4X4X4X4X4X7X4X4X4X7X7X4X4X4X4X7X7X4X7X7X7X4X7X4X3X2X3X4X2X3X2X2X<X<X<X<X<X<X,X$X$X&X$X$X$X#X@X@X@XOXOX X X X{.{.]._.S.A./ r w 1 1 r u m Q J N N K ~ / _ p.a.r.p.V.V.S._.S._.`.{. XOXOX X[.{.{.{.[.{.{.{.[.|.+X+X,X2XzXmXZXCXmXmXmXmXcXmXcX,X`.) ( ` ` ' _.`.|.|.|.|.+X,X,X,X,X,X6X6X6X7X7X7X7XlX7X7XcXp.: d.eX1XqX%X%XXXXXXXXXXXI.I.I.I.L.L.L.K.K.K.K.H.H.H.G.G.G.v.v.G.v.v.v.v.k.k.k.9.k.9.9.9.9.9.k.k.9.9.9.9.9.9.9.v.v.v.v.v.v.v.G.G.v.v.G.H.v.v.v.v.v.H.H.b.H.v.H.b.H.H.c.c.b.v.v.c.c.c.c.c.k.j.c.k.k.k.k.k.h.7.7.7.7.7.1.4.4.:.;.%.$.o.|  .T c , ; = $ $ $ $ + + = = $ $ = $ $ $ # $ = = % $ $ $ $ $ = $ + $ $ $ = = = ; : : : 3 3 3 3 3 3 3 4 3 3 e e 4 3 3 4 q e e 4 4 3 3 < < : : : ; ; = = = = $ + + = + + + + $ = ; ; ; ; ; ",
"F.D.D.j.j.j.F.F.j.h.j.y.4.4.3.<.<.<.<.<.<.=.=.<.<.;.=.&.$.&.&.*.*.&.&.=.*.*.*.$.&.&. .&.&.&. . .E E E E &.&.&.&.E E &.&.E E E &.&.E E E E E E Y E E E E E E E Y Y Y T E E E R T T T T R Y T E R R R R E Y E E E E E E E E  .&.&.*.=.=.w.=._.4X4X7X4X3X4X3X4X4X7X7X7X7X4X4X4X7X7X7X7X7X7X4X7X4X4X2X3X4X3X3X2X2X<X<X<X<X<X<X$X$X$X&X$X$X$X#X#X@X@XOXOXOX X X X{.[.'.Z.S.C.D 8 w 1 1 u l J U K m D U / / t.a.a.r.a.C.V.C.S._.].{.{.OX X{.[.{.[.[.[.[.[.[.[.|.OX#X2XiXmXmXmXCXCXmXmXmXmX7X|.` ` ` ` ` ' ' `.|.|.-X-X+X,X,X,X,X,X6X6X7X7X7X7XlXlXlXlXlXcX+X0 ! eX1X*X%X%XXXXXXXXXXXI.I.I.I.L.L.L.L.K.K.K.H.H.H.G.G.G.G.G.v.v.k.G.v.k.k.9.k.k.9.9.9.9.9.9.9.9.9.9.9.k.9.9.k.v.k.k.v.v.v.v.G.v.v.H.H.v.v.v.v.v.H.H.v.v.v.v.H.H.H.c.c.H.G.c.c.c.c.k.c.k.j.j.j.k.k.k.h.k.k.7.7.7.7.7.7.4.:.;.;.%.-.| | R L 0 = = $ + + $ $ + = % $ $ $ # $ $ $ $ % $ $ $ $ $ $ $ + $ $ $ $ $ = = = = ; : : < 3 3 3 3 < < 4 3 3 4 q 4 4 4 4 4 4 e e 4 4 3 3 < : : , ; ; = = $ $ + + + + + + + $ = $ $ ; ; = = ",
"D.D.F.D.k.D.F.F.j.h.j.y.4.4.3.<.<.<.<.3.3.<.=.;.;.<.<.;.&.&.&.*.&.$.&.*.*.&.&.$.&.&.&.&.&.&. . .E E E E E &.E E  .E &.&.E E E &.&.E E E E Y E E Y E E E E E E Y Y E E R E E R Y T T T T T R R T R R T E Y E E E E E E E E  .&.&.*.=.=.=.=. X7X4X4X4X3X4X7X7X7X7X7X7X7X7X4X4X4X7X4X4X4X4X4X4X4X4X2X4X4X3X3X2X2X<X<X<X<X<X<X$X$X$X&X$X$X$X#X#X@X@XOXOXOX X X X X{.].S.A.A._ l 8 8 ; 2 y m Q K D m D Q / _ p.a.a.a.a.a.a.S.].{.{.{.{.{.'.'.'._._.`._._.[.{.+X,X7XcXmXmXmXmXCXCXmXmXcX,Xp.) ) ` ` ` R._.}.|.|.|.:X,X,X,X5X5X5X6X6X6X7XlX7XlXlXzXlXlXlXcX7Xz N eX1X*X%X%XXXXXXXXXI.I.I.I.I.L.L.L.L.L.L.K.H.H.H.G.G.G.v.G.v.v.k.v.v.k.k.9.9.k.9.9.k.9.9.9.9.v.k.k.9.9.9.9.9.9.k.9.k.v.k.v.v.v.v.G.H.H.v.G.v.v.H.b.v.v.v.H.H.H.H.H.b.H.v.v.v.c.c.c.c.k.k.k.k.k.k.k.j.k.k.7.7.7.7.7.7.1.:.:.:.-.-.-.o.E ! g = ; % $ + + $ + # # # $ $ + $ $ $ = $ $ $ % $ $ $ $ $ $ # $ + + * = = = = ; : : : 3 3 3 < < 4 4 4 3 4 q 4 4 4 4 4 e e 4 q 4 3 < : : , : ; * + $ $ + + + + = + + $ = $ $ $ = = ; ",
"F.F.F.j.x.c.c.F.j.x.x.h.4.4.:.<.4.4.3.4.4.<.*.;.;.;.;.;.*.%.$.&.&.&.&.=.&.&.&.&.&.&.&.&.&. . .Y E E Y Y R  . .&. . .&.E  .E E  .&.E E E E E E E E Y Y Y Y Y E Y Y Y E T R E R Y Y T E Y Y Y T T Y Y Y E E R R Y  .E E | | &.&.&.&.;.*.=.r.+X7X4X7X4X4X4X7X7X7X7X7X7X7X4X7X7X7X7X4X2X4X4X4X2X4X4X4X4X4X3X2X4X3X2X<X<X<X<X,X<X<X$X$X$X&X$X#X#X@X@XOXOXOX.X.X X{.].].'.S.S.V.U 2 9 > 7 y p D K J N N K ~ _ p.a.a.V.V.C.S._.'.].{.].'.'.]._._._.C.V.C._.{.OX,X7XmXmXmXmXmXmXmXmXmXcX|.` ) ) ` ` ' Q.}.|.|.-X-X-X,X,X5X6X6X6X6X7X7X7X7X7X7X7XlXlXlXzXzXcXmX~ r @XeX*X%X%XXXXXXXXXI.I.L.I.L.L.K.L.K.L.K.K.H.H.H.G.G.G.G.v.v.v.v.v.v.v.v.k.9.9.k.9.9.k.k.k.9.9.9.v.k.9.9.k.k.k.v.k.9.9.v.v.v.c.v.v.G.H.H.v.H.b.v.b.v.v.H.H.v.H.H.H.b.H.v.v.H.c.k.k.k.k.k.k.k.k.k.k.j.k.k.k.7.7.7.7.:.7.4.:.;.-.-.-.o.E T B , = > % # X X + # X # $ $ + $ $ $ = $ $ = $ + = $ $ $ $ = = + + + = $ = = = ; : : : 3 3 3 3 3 3 4 4 4 4 4 4 4 4 4 4 q q 4 q 4 3 < : : : : = = = $ + + * = $ + + = ; = $ $ = = = ",
"F.F.F.j.j.x.F.F.x.j.j.h.4.4.<.<.4.4.4.4.<.<.:.<.<.;.;.-.*.$. .&.$.$.&.&.&.&.*.&.$.&.&.&.$.R Y R  .R Y Y R  . . . . . .E E E  . . . . .R E  . .E E E Y Y Y Y Y Y Y Y Y Y Y Y I Y Y Y E Y Y Y E Y Y Y Y E  .E E E E E E &...*.&.&.&.;.<.<.r.$X7X4X7X4X4X4X7X4X7X7X7X4X4X4X4X7X4X7X4X4X4X4X4X7X4X4X4X3X3X3X2X3X2X<X<X<X<X<X$X$X,X$X$X$X$X$X#X#X#X@X@XOXOXOX X X X{.].'.].S.S.p.l 1 8 1 9 y l D J B N G U ~ _ p.a.C.C.A._._.].'._._._._._.S.V.V.V.V.A._.{.,XiXZXCXmXmXmXmXmXmXmX7X`.` ) ` ` ' ' _.}.|.-X-X:X,X,X,X,X6X6X7X7X6X7X7X7X7X7X7X7XlXlXcXcXcXcXZX{., `.tX*X*X%XXXXXXXXXXXI.I.I.I.L.L.L.K.L.K.K.H.H.H.G.G.G.G.v.9.v.G.v.v.k.9.k.9.k.k.9.9.9.k.k.9.k.9.9.9.9.9.9.k.k.v.v.v.9.k.v.v.v.v.v.H.H.H.v.v.v.c.v.c.c.v.H.v.H.H.b.H.H.H.H.H.G.c.k.c.c.k.k.k.k.k.k.c.j.c.k.7.7.7.7.:.1.1.:.-.-.-.-.*.E R P d ; > % % + X + # # $ % % $ # $ = $ $ $ % $ $ = $ $ $ $ $ $ + + + = $ = = = ; : : : 3 3 3 3 3 < 3 4 4 4 e s 4 4 < 4 4 4 4 4 4 4 3 : : : : : ; = + + * + $ + X + = ; $ $ $ $ = ; ",
"F.F.x.j.c.x.F.F.j.j.j.j.h.4.4.4.y.y.y.4.<.<.<.1.<.<.;.-.*.$.$.$.&.&.&.$.&.&.&.&.&.$.&.&. .R Y R R Y Y R R  . . . . . .E Y E  . . .E  . . .E  . .E R Y Y Y Y E Y Y Y Y E Y I I Y Y Y Y E Y Y E Y Y Y Y Y  .E  . . . . .&.&.&.*.*.=.=.<.q.d.<X7X2X4X4X4X4X7X4X7X7X7X4X4X4X4X2X4X7X4X4X4X4X4X4X4X3X3X2X2X3X2X3X2X2X<X<X<X<X$X$X<X$X$X$X$X$X$X#X#X#X@XOXOXOX.X X X{.{.].].S.S._.~ w 8 1 1 9 p D U J N G J ~ ) r.a.V.V.A.S._.'.S.S.S.S.S.S.V.V.p.V.A._.[.2XmXCXCXmXmXmXmXmXmXcX,Xp.` ` ` ` _ _.`.|.|.|.-X:X,X,X,X6X6X6X7XlX7X7X7X7X7XlXlX7XlXcXcXcXcXcXcXmXiXp Q eXqXqX%X%XXXXXXXXXI.I.I.L.L.L.L.K.L.K.H.H.H.H.G.G.G.G.v.v.v.v.v.v.9.k.k.k.k.v.9.9.9.k.9.9.k.9.9.9.9.v.k.9.v.v.v.v.9.k.k.v.c.v.v.G.v.v.v.c.v.H.b.H.b.c.v.b.H.H.b.H.b.H.H.G.G.v.k.c.c.k.k.k.k.k.k.k.k.k.7.7.7.7.7.:.:.:.:.:.;.<.-.*. .R P x , = % % $ + + + + # $ # % $ $ $ + $ $ = $ $ $ $ $ $ + + + $ + + = + $ = = = = = , 3 3 3 3 3 < < 4 4 4 3 4 s s 4 4 4 4 4 4 4 4 4 3 3 : * : ; ; ; ; = * + + + + = = $ $ $ $ = = ",
"F.F.F.F.F.F.x.x.j.j.j.j.h.4.4.4.y.j.y.4.4.<.;.<.<.<.:.-.-.$.$.$.$.*.*.*.=.=.*.&.*.&.$.&. . .R Y Y Y Y Y R  . . .&. . . .E  . .&. . .&. . . . .E R Y E Y Y E E E Y Y R E Y Y Y Y Y R R E E E E Y R E Y Y E E  .E  . . .| &.&.&.=.=.=.<.q.d.4X7X2X4X4X4X7X7X4X4X4X4X4X4X7X7X4X4X7X4X4X4X4X4X4X4X4X4X3X3X2X2X4X3X<X<X<X<X<X,X<X<X&X$X&X&X$X$X$X#X#X@X@XOXOX X X X X{.{.].S.S.S.V.D 1 9 1 9 y l K U D D G Q ) _ a.V.a.V.A.A.A.A.A.S.S.A.V.p.V.V.S.S.OXiXNXmXmXmXmXmXmXmXmX6X|.` ` ` ` ` ' `.|.|.-X-X-X,X,X6X6X6X7X7X7X7XlXlXlXlX7X7XlXlXlXcXcXcXcXmXmXmXmXZXQ k 1XqX*X%X%XXXXXXXXXI.I.I.I.L.L.L.H.K.L.K.H.H.H.G.G.G.v.v.G.G.9.9.v.k.v.v.9.9.k.9.9.9.k.k.k.v.9.9.k.k.v.9.9.9.v.k.k.9.9.9.k.c.v.G.G.v.v.v.k.c.b.b.b.b.v.H.H.H.H.H.H.b.H.b.k.v.G.k.F.F.k.k.k.k.k.k.h.7.7.7.7.7.7.7.7.:.1.1.:.;.<.-.*. ...I L , = > % $ + + + + + + $ $ = # + # $ $ = % = = + $ = $ + $ $ + + $ + = = = = - ; : : 3 3 3 3 3 3 3 4 4 4 4 4 s s q 4 4 q 4 4 4 4 q 3 < : : ; ; , , ; = = = = = = = % $ $ = $ $ ",
"F.F.F.F.F.F.x.F.F.x.j.j.h.4.4.y.h.h.y.y.4.4.4.1.<.1.<.;.;.*.$.$.*.*.*.*.=.;.;.=.=.&.&.&.$. . .R Y Y R Y R  . . . . . . . .&. . .$. . . . .&. .R R  .E E Y E  .E E E R Y Y Y Y Y Y Y Y E E E E E Y Y Y E R E  . . . . . .| &.&.*.=.=.=.q.'.4X4X4X7X7X4X7X7X4X4X4X7X7X7X4X4X2X4X4X4X4X7X7X7X7X4X4X4X3X3X3X2X2X2X<X<X<X<X<X<X<X<X&X&X$X$X$X#X#X@X#X#XOXOXOXOX X X X{.{.].'.S.S._._ u 9 1 1 r u m Q K D D U / t.t.t.p.p.V.V.V.V.A.S.A.r.p.V.Z.S._.#XfXmXmXmXmXmXmXmXmXcX,XQ.` ` ` ` _ Q.`.|.|.-X-X:X,X,X6X6X6X7X7X7X7X7X7XlX7XlX7X7XaXlXcXcXcXcXmXmXZXZXCXJX,Xq  XeX*X%X%XXXXXXXXXI.I.L.K.L.L.L.L.K.K.H.H.H.H.G.G.G.v.v.v.v.v.v.k.v.v.v.v.k.9.9.k.k.9.9.v.k.k.9.9.k.k.9.9.9.9.k.9.9.9.v.v.v.v.k.v.v.H.H.v.c.v.v.v.H.v.H.b.b.v.c.v.v.v.v.c.v.v.G.F.F.k.k.k.k.k.c.j.k.h.7.7.7.7.7.7.:.1.1.:.:.<.-.o.o...R W d + % % $ # + + + # + # # $ # $ $ $ $ = $ $ = $ $ $ $ $ + $ ; $ + + + + = = = = = = : : 3 3 3 3 3 3 4 4 4 4 s s s q 4 4 4 4 4 4 4 3 3 3 , : ; ; : : ; = = = $ = $ $ = $ = ; = ",
"F.F.F.F.F.F.F.F.F.j.j.h.h.4.4.y.h.y.4.4.4.4.4.<.<.4.<.<.<.;.*.%.;.;.;.;.;.<.:.;.;.=.*.*.&.&.$. . . . . . . . . . . . .&.&.&. .| &. . . .|  . . . . .| &.E E  .R E E E Y Y Y R R Y Y Y Y Y R E  .E Y E E E E  . . . .| &.&.&.*.*.=.<.q.q.].4X2X7X7X7X4X4X7X4X4X4X7X7X7X4X4X2X4X4X4X4X4X7X4X7X4X4X3X3X3X3X2X2X2X<X<X<X<X<X<X<X<X&X&X$X$X$X$X$X@X@X@XOXOXOXOX X X X{.{.].].'.S.S.S.U 3 1 > 1 p l J Q G N J ~ _ t.t.p.p.a.V.V.V.V.a.r.r.V.V.V.].<XbXBXmXmXmXmXmXcXmX7X|.' ` ` ` ` p.`.|.|.|.-X-X,X,X,X5X6X6X7X7X7X7XlXlXlXlXlXlXaXcXcXcXcXmXmXVXCXCXZXZXZXFXmXS ) eX%X%X%X%XoXXXXXI.I.L.K.L.K.L.L.K.K.H.H.H.H.H.G.G.G.G.v.v.v.v.k.v.k.v.k.9.k.9.9.9.9.9.k.9.v.k.9.9.9.k.v.v.v.v.k.9.v.v.v.k.k.k.v.v.v.G.v.v.H.v.b.H.b.b.v.b.v.v.v.b.v.v.v.b.v.k.F.F.k.k.k.k.k.c.k.k.7.7.h.7.7.7.7.:.4.1.1.1.:.-.*.o...E T N * # % $ $ + + + X + X $ = = = % $ $ = $ $ = $ $ $ $ $ + + $ ; ; + + = $ = = = = - = : : < 3 3 3 3 3 4 4 4 a s q q 4 4 4 4 4 4 4 3 3 3 3 : ; * ; , ; ; = = ; ; $ $ ; $ ; ; ; ",
"J.F.F.F.F.F.F.F.F.j.j.h.h.y.y.h.h.h.4.4.4.4.4.;.<.4.4.;.;.;.*.;.;.;.;.:.;.<.<.<.<.;.*.*.*.$.$.$.$. .|  . .$. . . .$. . .&. . . . .$.&.&. . . . .$.$.*.&. . . .E E  .E R Y Y E R E R Y Y R  .|  .R R E E  . .&.|  . .| *.&.&.*.=.=.w.q.q..X7X4X4X7X7X4X4X7X4X7X7X4X7X7X4X4X7X4X4X4X7X4X7X4X4X4X4X3X3X3X2X2X2X2X<X<X<X<X<X<X<X,X$X&X$X$X$X$X$X@XOX@XOXOXOXOX X X X{.{.{.].].'.S.S.V.n 1 9 > 2 g B U U D m G / t.t.r.p.p.p.p.r.r.t.r.V.A.C. XyXnXmXcXmXmXmXmXmXcX,X`.` ` ` ` ' Q.`.|.|.|.-X-X,X,X,X6X6X6XlX7XlX7XlXlXlXlXlXlXlXcXcXcXcXmXCXCXCXZXZXZXZXZXZXJX` c eX*X*X%XoXoXXXXXI.I.L.K.L.L.L.L.K.K.H.H.H.H.H.H.H.G.G.G.v.v.v.k.v.k.9.9.9.9.9.7.9.9.9.k.k.k.9.9.9.9.9.v.k.v.k.k.k.v.v.v.k.k.k.v.c.c.v.v.v.v.v.v.H.b.b.c.H.H.v.v.H.b.c.c.v.c.k.c.c.k.k.k.9.k.j.j.k.h.h.7.7.7.7.7.:.4.1.1.1.1.-.*.o.o. .T L , o % # + + X X X X o + % ; $ $ $ $ % % $ $ $ $ $ $ $ $ + + ; ; $ $ = = = = ; ; - = : : : 3 3 3 3 3 4 4 4 4 4 4 4 q 4 4 4 4 4 4 3 4 4 3 3 : ; ; : ; ; ; ; ; ; ; ; > = ; ; = ",
"K.F.F.F.F.F.F.F.F.F.j.h.h.h.j.j.j.y.y.j.y.y.4.1.4.4.4.:.<.<.<.<.:.;.:.:.;.;.;.<.<.;.*.*.*.$.$.$.$.$.$.$.$.$.$.$.$.&.&.&.&. . . . .$.&. . . . .&.&.$.|  . . .E E E  . .R R R  .R  . .R R R  . . .R E  . .E E | | &. . .&.&.*.=.=.=.w.q.r.&X7X4X4X7X7X7X4X4X7X7X7X4X4X4X4X4X4X4X7X4X7X4X4X4X7X4X4X4X3X2X2X<X2X2X<X<X<X<X,X<X<X$X$X&X$X#X#X#X$X@X@X@XOXOXOXOX X X X{.{.{. X].'.S.Z.Z./ w 2 1 u K ) _ r.) ~ U ) t.t.t.p.t.r.t.t.t.r.V.A.S.$XfXNXNXvXmXmXmXmXcX7X|.` ` ` ` ' ' _.`.|.|.-X-X,X,X5X6X6X6X6X7XlXlXlX7XlXlXlXcXcXcXcXcXcXcXmXmXZXZXZXZXZXZXZXZXZXJX2Xg ].eX%X%XoXXXXXXXI.I.K.K.L.L.L.L.H.H.H.H.H.H.H.G.G.G.v.v.v.v.v.k.v.9.9.9.9.9.9.9.9.7.9.v.9.v.k.9.k.k.v.k.9.k.9.9.k.k.k.k.k.k.k.c.c.c.c.H.H.v.b.v.H.b.c.c.H.v.v.v.v.v.v.v.b.c.k.c.c.k.c.9.7.9.k.k.k.k.k.7.7.7.7.7.7.4.1.1.1.1.-.*.*.o. .R P e o # $ # O + + + + + + + $ $ $ + $ = % $ $ $ + $ $ $ $ $ + + $ $ + + * = $ ; ; = = ; : : 3 < 3 3 3 4 e 4 4 4 4 q s s q s e s 4 4 4 4 3 3 3 : ; ; : ; ; ; ; ; ; > > = ; ; ; ",
"K.J.F.F.F.F.F.F.F.F.j.j.h.h.h.h.j.y.4.h.h.4.4.y.4.4.4.4.4.3.4.4.4.:.<.<.:.:.:.3.<.<.;.;.;.*.*.%.%.*.%.*.*.*.$.$.$.&.*.&.*.$.&.&.$.$.| $.$. .$.$.&.$. . . . . . . .&.| |  . . . . . .E E  . . . .R  . . . . .| | &.....*.*.*.*.=.-.<.q.a.2X4X4X7X7X7X4X4X4X4X7X4X4X4X4X4X4X4X7X7X4X7X7X4X4X4X4X4X4X4X2X<X2X<X<X<X<X<X<X,X,X$X&X&X$X$X$X$X$X$X#X#X#XOXOXOXOX X X X{.{.{.{.{.].S.S.Z.C.K N _ {.#X$X$X#XOX XC.r.t._ t.t._ / / _ r.A.C.{.3XcXmXmXcXcXmXcXcX7X,XQ.` ` ` ` ` V._.|.|.|.-X-X,X5X6X6X6X6X7X7XlXlXlX7XlXzXlXcXcXcXcXcXcXcXmXZXCXZXZXZXZXZXZXZXZXZXFXZXW / eX%X%XXXXXXXXXXXI.K.K.L.K.K.K.H.H.H.H.H.G.G.G.G.G.v.v.v.v.v.k.k.k.k.k.k.k.9.k.9.9.9.9.k.k.9.9.9.9.k.9.9.9.9.9.v.v.v.v.v.k.k.k.k.k.c.v.v.G.v.H.H.v.v.v.v.c.c.v.b.v.v.c.c.c.k.c.c.k.k.k.k.k.k.h.h.7.7.7.7.7.7.7.7.1.1.1.1.:.:.-.*.o.| E I x * + $ $ $ # $ $ + + o X + $ % $ $ $ $ $ # # $ $ $ $ $ $ $ + + $ + $ $ $ $ = = = = = = : : < < 3 3 3 4 4 4 4 4 4 s s a 4 e s s 4 4 4 3 3 3 3 : : ; ; ; ; ; ; ; ; > = ; ; = ",
"J.J.F.F.F.F.F.F.F.c.j.j.h.h.h.j.j.h.4.h.h.h.h.y.h.y.h.h.4.4.4.4.4.3.<.4.<.4.1.4.3.;.;.:.:.;.;.%.-.;.-.;.-.-.*.*.*.*.-.*.*.$.$.$.*.&.$.&.$.&.&.*.*.$.&.|  .E  . . .&.&...| |  . .| |  . . . .|  . . . .E  .&...&.*.*.*.*.*.=.=.=.<.<.q.A.fX4X4X7X7X7X4X4X4X3X4X4X4X4X4X4X4X4X4X4X7X7X7X7X4X4X4X2X2X2X2X<X2X<X<X<X$X<X<X&X$X$X$X$X$X$X$X$X$X#X@XOXOXOXOXOX X X X X X{.{.{.{.{.].].S.C.S.OXrX<X$X@X@XOXOX@XOX{.V.t._ ) / / / r.a.S.#XcXmXmXmXmXmXcXcXcX7X|.` ` ` ` ` _ V._.|.|.-X-X-X,X,X5X6X6X7X7XlXlXlXlXlXcXcXcXcXcXcXcXcXcXmXCXCXZXZXZXZXZXFXFXZXFXFXZXZXJX!.F *XqX%XXXXXXXXXXXP.K.K.L.K.K.K.K.H.H.H.H.F.G.G.G.v.v.v.v.v.v.v.9.v.9.9.9.9.9.k.9.9.9.9.k.k.9.9.9.9.9.9.k.k.9.9.k.v.v.v.k.k.9.k.k.9.k.k.k.v.v.v.c.k.v.v.c.c.v.v.H.H.b.v.v.c.k.c.v.c.k.k.k.k.j.k.k.7.7.7.7.7.7.7.7.7.1.:.:.:.:.-.*.*...| R C < X o $ % + + + X X X X o + # % $ # $ % # # % = $ $ $ + $ $ $ # $ $ $ $ = = = - = = * ; : < < 3 < : < 4 4 4 4 4 4 s a 4 4 4 4 4 4 4 4 3 3 < 2 , : ; : , ; ; ; = ; = ; ; ; ",
"J.J.K.F.J.F.F.F.F.F.j.j.j.c.j.c.j.j.j.j.h.h.h.h.h.h.h.h.h.4.4.h.h.4.:.<.<.:.4.4.4.:.;.:.<.:.:.;.;.;.;.*.-.;.;.;.-.*.-.*.*.*.*.*.*.*.&.&.*.&.=.*.&.$.*.&. . . . . . . . . .| | | | | |  . . . . . . . .E E | *.*.*.&.*.&.*.=.*.=.<.w.q..XBX7X4X7X4X4X4X4X4X4X4X4X4X4X4X4X4X7X4X4X4X7X7X7X4X4X2X2X2X2X2X<X2X<X<X<X<X<X<X$X#X$X$X$X#X$X$X#X#X#X@XOX@X@XOXOXOX X X X X X X X X{.].].].{.$XrX3X$X@XOXOXOX X X@X$X XC._ / / t.r.p.C.<XnXNXmXcXcXmXmXcXcX2X_.) ` ` ` ` ' _.`.|.|.-X-X:X,X,X5X6X6XlXlXlXlX7X7XlXzXcXcXcXcXcXcXcXmXCXCXCXZXZXZXZXZXZXZXFXZXFXZXFXZXJXiXz '.eX%XXXoXXXXXXXI.K.K.I.K.K.K.H.H.H.b.H.G.G.G.G.G.v.v.v.v.v.v.k.v.k.9.9.k.9.k.9.9.9.9.9.9.9.9.9.9.9.9.9.9.9.9.9.k.v.v.k.k.9.k.k.k.k.c.k.v.c.v.k.v.v.c.v.v.c.v.v.H.H.H.b.v.k.v.c.k.k.k.k.k.k.k.k.k.h.7.7.7.7.7.7.7.1.:.:.:.:.-.=.*.*...R P d + o + $ # + + # # + X o X + $ $ # $ % $ $ $ = $ $ $ # + + + # $ % $ $ $ = = = = = = : : 3 < < < < < < 3 4 a 4 4 e 4 4 4 4 4 4 4 e 4 4 3 < 2 2 , : , , ; > > ; ; = ; > ; ",
"J.J.J.K.F.F.F.F.F.c.c.c.F.F.F.c.j.h.j.j.h.h.h.h.h.h.h.h.j.h.4.y.h.4.<.4.4.<.4.4.4.:.;.:.4.<.:.:.;.;.;.;.;.;.;.;.;.*.;.*.-.-.*.*.-.=.&.&.=.=.=.=.&.*.*.&.| *.*. .| &.&...&.| | |  . .| |  . . . .| |  . . ...| &.*.*.*.=.*.=.=.=.<.w.q.rXJXvX3X4X4X4X3X4X4X4X4X4X4X4X3X4X4X7X4X4X4X4X4X4X2X4X4X4X2X<X<X<X2X<X<X<X<X<X<X$X$X$X$X#X$X$X$X$X$X$X#X@XOXOXOXOXOX X X X X X X X X{.{.{..X&X<X4X&X@XOX@XOXOXOX XOXOX@X XV._ t.p.p.].4XvXcXmXmXcXcXcXcXiX+X_ ( ) ` ` _ ' _.|.|.|.-X-X:X,X5X6X6X7X7XlXlXlXlX7XlXlXzXzXcXcXcXcXmXCXCXCXZXZXZXZXFXZXZXZXZXZXFXFXFXFXFXFXJX) / eX%XoXoXXXXXI.P.K.K.K.K.J.H.H.H.H.c.G.G.G.G.G.v.v.v.v.v.v.k.9.v.v.k.k.v.9.v.9.k.k.9.k.9.9.k.9.9.9.9.k.9.k.9.9.9.v.v.c.k.9.k.k.k.k.k.c.k.k.v.k.v.v.k.v.b.b.v.v.b.b.v.v.v.v.v.v.k.k.9.k.k.k.h.k.k.h.7.7.7.7.7.7.7.7.1.1.:.:.:.-.=.*...R Y x * X + $ $ + + + + # + X X X + $ # # $ $ $ $ % $ $ $ $ $ $ $ $ $ $ $ $ $ = = = = ; ; ; : : : < 3 3 < < < 4 4 4 4 4 s s 4 4 4 4 4 4 4 4 4 4 3 , : : : ; ; > > > > ; > > ; ",
"K.F.J.J.F.F.F.F.F.k.j.j.j.j.F.c.j.j.j.j.h.h.h.h.h.h.h.j.j.h.h.y.h.4.4.4.4.4.4.4.4.:.;.:.4.4.4.:.;.:.<.<.<.;.;.;.;.=.;.-.-.-.-.-.;.-.*.*.=.=.=.-.*.*.*.| | &.*.| *.*.*.*.*.| | .. .| ..|  . . . . . . . . .&.&.&.*.*.*.*.=.=.=.=.<.w.q.bXPXZXyX3X4X3X2X4X4X4X4X4X4X4X2X3X4X4X3X4X4X4X4X4X3X3X4X4X2X<X<X<X2X<X<X<X&X<X<X$X$X&X$X$X$X$X$X$X$X#X#X#X@X@XOXOXOXOXOX X X X X X X X XOX&X&X1XrX&X#XOX@X@XOXOXOXOXOX@X#X{.V.p.a.OXiXmXcXcXcXmXmXcXcX7X|.` ) ) ` ` ` ' `.|.|.|.-X-X,X,X,X6X6X7X7X7X7XlXlXlXlXlXlXcXcXcXcXmXVXCXZXZXZXZXZXZXZXFXFXZXZXZXFXZXZXZXFXFXZXJX+XN <X*XoXoXoXoXK.K.K.K.K.K.K.H.H.H.H.c.H.G.G.G.G.G.v.v.v.v.v.v.k.v.9.9.9.9.9.v.k.v.k.9.9.9.9.9.9.9.9.9.9.9.9.9.9.k.k.v.v.k.k.k.k.k.k.k.v.c.v.c.k.c.v.c.v.b.v.v.v.v.c.v.v.v.v.v.k.k.k.k.9.k.k.k.k.j.k.k.h.7.7.7.7.7.7.7.1.:.:.:.-.-.*.o.| E C < X + $ $ $ + + + + X X X X + $ $ $ $ $ $ $ $ % $ $ $ $ $ $ $ + $ $ # $ $ $ = = ; ; ; ; : : 3 3 < 3 3 < < 4 4 4 e s s s 4 4 4 4 4 4 4 q q 3 2 , : , ; ; ; > > > > > > ; ",
"K.K.K.J.J.J.F.F.c.c.j.h.h.j.j.x.c.j.j.j.j.h.h.h.h.h.j.j.j.h.h.h.h.4.4.4.4.4.4.4.<.:.;.:.4.4.4.4.:.<.<.<.<.<.<.<.<.;.<.<.-.;.<.<.<.;.;.;.*.=.;.;.;.=.*.*.*.$.$.$.*.=.=.=.*.&.&.&.&.&...&.| &.&. . . . .|  .&.*.*.*.*.&.*.*.=.=.=.=.q.t.DXPXJXNX7X4X2X2X2X4X4X3X4X4X3X4X4X4X4X4X4X4X4X4X4X4X4X4X2X2X2X<X2X<X<X,X,X&X&X&X$X$X$X$X$X$X#X#X$X#X#X#X$X@X#X@XOX@XOXOXOX X XOX X X XOX&X&X$X4X4X&X#X@X@X#X@XOXOXOXOXOX@X#X X_.#XfXvXfXcXcXcXmXmXzX,Xs.) ) ) ) ` _ _.`.|.|.-X+X,X,X,X,X,X6X7X7X7X7X7XlXlXlXlXcXlXcXcXcXcXCXCXZXZXZXZXZXZXZXZXZXZXZXZXFXZXFXZXZXZXZXZXFXmXH a.qX%XoXoXoXJ.K.K.K.K.J.H.H.H.F.H.H.H.G.G.v.v.G.v.v.v.v.v.v.v.v.9.9.9.9.9.9.9.9.9.7.9.7.7.9.9.9.9.k.9.9.9.k.k.k.9.k.k.v.v.k.c.k.k.v.v.v.v.k.k.k.k.v.v.c.c.c.v.c.c.v.c.v.v.v.c.k.c.v.k.k.k.k.k.h.k.k.h.7.7.7.7.7.7.7.1.:.:.-.-.*.o.o.|  .P s X X + $ $ $ + $ + + # # # + + $ $ $ $ $ = $ = = $ # # $ # + $ $ $ $ $ $ $ = = = : ; : : : < 3 < 3 3 < 3 3 4 4 s 4 4 e s 4 4 4 4 4 4 3 3 3 3 2 ; , : ; > ; > > > > > > ",
"K.J.J.J.J.H.F.F.F.F.F.c.j.c.c.c.F.j.j.j.h.h.h.4.h.j.j.x.j.j.j.j.h.y.4.y.4.4.4.4.4.4.<.4.4.4.4.4.4.4.4.4.4.4.4.<.<.<.<.<.;.<.<.<.<.<.<.;.;.;.<.<.;.-.-.-.*.*.*.*.*.-.<.=.=.*.*.*.&.&.&.&.&.&.&. .| &.| ..| *.*.*.*.*.*.&.*.=.=.=.<.=.p.JXPXJXFXdX2X3X4X4X4X4X3X3X4X4X4X4X4X4X4X4X4X3X3X4X4X4X4X2X2X4X2X<X<X<X<X<X<X<X&X<X<X$X$X$X#X#X#X$X$X#X#X$X@X@XOXOXOXOXOXOX X XOX XOXOX<X1X&X1XrX3X$X#X@X@X@XOXOXOXOXOXOXOX@XOX#XyXbXvXvXcXcXcXcXiX+X_ ) ~ ) ` ) p._.`.|.|.-X:X,X,X,X,X,X6X7X7X7X7X7X7XlXlXlXcXcXcXcXmXmXCXZXZXZXZXZXZXZXZXZXZXZXZXZXFXFXFXFXZXZXZXZXZXZXJX`.L qXoXoXXXoXJ.K.K.K.J.J.F.H.F.F.F.F.G.F.G.v.k.G.v.v.G.G.v.v.v.v.k.9.9.9.9.k.9.k.9.9.9.8.9.9.9.9.9.9.9.9.9.k.k.k.9.k.k.k.k.k.k.k.k.k.v.v.v.c.k.c.v.v.v.v.c.c.c.c.k.c.c.v.v.H.G.v.k.k.k.k.k.k.k.k.h.7.h.k.7.7.7.7.7.7.1.1.:.:.-.*.*.*.| | Y c $   + + $ % $ + X + + + + X + # # + # # % ; # $ $ $ $ + + $ $ $ $ $ + $ $ $ = = ; ; ; : : : : : < 3 < < 4 4 4 4 4 4 4 s s e e 4 e 4 3 4 3 : 2 : ; , ; ; > ; > ; ; > > ",
"K.J.K.J.J.J.F.F.F.F.F.F.c.F.F.F.F.F.j.j.h.7.h.j.F.F.j.x.F.j.x.j.j.h.h.h.y.4.4.4.4.4.4.4.4.4.4.4.4.y.y.y.y.4.4.4.4.1.<.<.<.4.1.1.<.<.1.<.<.<.<.<.<.;.-.;.*.*.*.=.;.=.;.<.=.=.*.*.*.*.&.*.&.&.&. .&.&...&...*.*.*.*.=.=.*.*.*.=.=.q.=.'.PXJXJXJXBX4X3X4X4X2X3X4X3X4X3X3X4X4X3X3X3X3X3X<X3X2X<X3X2X2X2X<X<X<X<X<X<X,X<X<X<X<X$X$X$X$X#X$X$X$X$X$X$X#X@XOXOXOXOXOXOX.XOXOXOX#X&X3X<X3X4X4X<X#X@X@X@X@X@XOXOXOX XOXOXOX#X@X#X4XvXcXcXcXcX,X`.) ~ ) ` _ _ p._.[.{.|.+X+X,X,X,X6X6X6X7X7X7X7XlXlXlXlXzXcXcXcXcXmXCXCXZXZXZXZXFXFXFXFXZXFXFXZXFXFXFXFXZXZXZXFXFXZXZXZXJXzXG '.qXoXXXJ.J.K.J.J.K.J.H.H.H.c.F.c.c.F.v.k.k.v.v.k.v.G.v.v.k.k.9.9.9.k.k.k.9.9.9.9.9.9.9.9.9.9.9.k.9.9.9.k.k.k.9.v.v.v.v.k.c.k.k.c.v.v.v.c.k.v.v.v.v.v.c.c.v.c.c.c.c.v.v.v.v.c.k.k.c.c.k.k.k.k.k.7.k.k.h.7.7.7.1.7.1.1.:.1.-.-.=.-.| | E P 9   X X # $ % + o X X + + + + $ $ # # # $ % $ $ $ $ $ + + + $ $ $ $ $ $ + + $ = = ; ; : : : : : : < < < 4 4 4 4 4 4 4 4 s e s e q 4 3 3 , , 2 : : , ; > > ; ; ; ; > ; ",
"K.K.J.F.J.J.J.H.H.F.F.F.F.F.F.F.F.F.F.F.j.j.j.x.c.j.h.j.x.j.F.j.j.h.h.h.h.4.4.4.4.h.4.4.4.4.4.4.4.y.y.y.y.4.4.4.4.y.4.1.4.y.4.4.1.1.1.1.<.<.<.<.<.<.<.<.;.-.*.-.;.-.-.<.=.=.=.*.*.*.*.&...*.&.&.&.&.| &.*.*.*.*.*.=.=.*.=.=.=.<.=.q.OXPXJXJXJXFXfX4X4X4X4X3X3X3X4X4X2X4X4X3X3X3X3X3X3X3X3X3X3X2X2X2X<X<X<X<X<X&X$X$X$X&X$X$X$X$X$X$X$X$X$X$X$X$X#X#X@XOX@XOXOXOXOXOXOXOX$X<X3X3X3X4X4X1X$X#X@X@X#X@XOXOXOX XOXOXOX@X@X@X<XrXfXiX3X[._ ) ) ) ) _ p.C.`.[. XOX+X+X:X,X,X6X6X7X6X7X7X7XlXlXlXlXzXcXcXcXmXmXCXZXZXZXZXZXZXZXZXZXFXFXFXFXFXZXZXFXFXFXFXZXZXZXZXZXZXZXJXs.! qXoXoXJ.J.J.J.J.J.F.F.F.c.k.k.c.k.k.k.9.9.v.v.9.9.v.v.k.k.9.k.9.9.9.9.9.9.9.9.9.9.9.9.9.9.9.9.9.9.9.9.k.k.k.k.k.k.k.k.k.k.k.k.k.v.v.v.k.k.c.k.k.v.v.v.c.c.v.c.v.c.v.v.v.k.k.k.c.v.v.k.k.k.k.k.k.k.k.7.h.h.7.1.1.1.1.1.:.-.*.-.-.$.| E T l X $ + + + $ $ X X O + X X X # # # # X + # % % $ # $ $ $ + $ $ $ % % % $ $ $ $ * ; ; : : : : : : < < < 3 4 4 4 4 4 4 4 4 4 e e e 4 3 3 : 3 : : , ; ; ; ; ; > ; > = = ",
"K.K.J.F.K.J.F.H.H.F.F.F.F.c.F.F.F.F.F.F.c.x.j.j.j.c.j.j.c.j.c.F.c.h.h.j.j.h.h.4.h.h.h.4.4.4.4.4.4.4.4.4.4.4.4.4.4.4.4.1.1.1.4.4.4.4.4.1.1.<.<.1.1.1.1.<.<.<.<.<.<.;.<.<.-.=.*.*.=.*.*.*.*.$.&.$.&.&.| *.*.*.*.*.*.&.*.&.=.=.=.<.w.q. XZXFXZXFXFXmX7X4X3X3X4X4X4X4X7X4X4X4X7X3X4X4X4X4X4X4X4X2X<X2X2X2X2X2X2X<X<X$X$X$X&X$X$X$X$X#X#X$X&X$X$X$X$X#X#X@X@X@X@X@X@X#X@X@XOX<X3X3X3X4X4X4X3X&X@XOX@X#X@XOXOXOX XOX X XOXOXOX$X<X<X<X_._ p.A._.A.a.C.'.OX@X@XOXOX+X+X,X,X,X7X7X7X7X7X7XlXlXlXzXcXcXcXmXmXmXBXZXZXZXZXZXFXZXZXFXFXFXFXFXFXZXZXZXZXFXFXFXFXFXZXZXZXZXZXJX2XF oXoXoXoXK.K.J.F.F.J.F.c.F.c.c.c.k.k.k.9.9.9.k.k.k.9.9.k.k.9.9.k.9.7.9.9.9.9.9.9.9.9.9.9.9.9.9.9.9.9.9.k.9.9.k.k.k.k.k.k.k.k.k.k.k.v.k.k.c.c.c.c.v.v.k.k.k.v.v.k.k.v.k.c.k.c.k.k.c.c.k.c.k.k.h.h.k.h.7.8.7.7.7.1.1.1.1.1.:.-.-.-.$.| |  .C : X @ O # o + # X X # # O O # # + + # # + $ % $ $ $ $ $ # $ + # ; % % $ + $ = + = ; , : * = : : : < : 3 4 4 4 4 4 4 4 4 4 s s e 4 4 3 < : : : > ; ; ; ; ; ; ; ; ; % ",
"K.K.K.H.J.F.F.F.F.F.F.F.F.F.F.F.F.F.F.F.c.x.c.F.F.F.c.c.c.j.j.c.c.j.h.j.h.h.h.h.h.h.h.4.h.y.4.4.4.4.h.4.4.4.4.4.y.y.y.4.4.4.y.4.1.4.4.4.1.1.1.1.1.4.4.4.1.1.<.<.<.<.<.<.-.=.*.=.-.*.*.$.$.| | $.&.| | &.&.*.*.&.&.&.*.*.=.=.*.=.q.r.A.2XmXvXfXiXyXyXiXfXiX7XiX7X7X7X4X4X4X4X4X3X4X4X3X2X3X3X2X2X3X2X2X<X<X,X,X&X$X$X$X$X$X$X$X$X$X$X$X$X$X$X$X$X$X#X@X#X#X@X@X@X#X@XOX@X1X1X<X1X3X4XrX4X<X$XOXOX@X@XOXOXOXOX X X XOXOXOX#X$X$XOX{.{.@X#X#X@X#X@X$X&X&X$X@X#X$X$X,X,X2X7X7X7X7X7X7X7XlXlXcXcXcXmXCXCXCXZXZXZXZXZXZXFXZXZXFXFXFXFXFXFXFXZXZXZXZXZXFXFXFXFXZXZXZXFXDX<XW u.qXoXoXoXK.J.J.J.J.F.F.c.F.F.F.c.k.k.9.9.9.9.k.k.9.k.9.9.k.9.9.9.7.9.8.8.9.9.9.7.9.9.8.9.9.9.9.9.9.7.9.9.9.9.9.k.k.k.k.k.k.k.k.k.k.k.v.k.k.v.v.v.v.v.v.k.v.v.v.v.v.k.c.c.c.c.j.k.c.k.k.k.k.k.k.7.k.k.7.7.7.7.7.1.:.1.:.:.:.-.-.$.| |  .Y s X o O # o + # o o % % O X # # + # # # # # $ % $ $ $ $ $ % # + $ O # # # $ $ + = ; : : = : : : : : : < 3 3 3 < < 3 4 4 4 s s e 4 4 4 < : : ; ; ; ; = = ; ; = ; ; % ",
"K.K.K.K.J.H.F.F.F.F.F.F.F.F.F.F.F.F.F.c.c.c.c.F.F.F.c.F.F.j.j.j.j.h.h.j.j.h.j.h.j.j.j.h.h.h.4.4.4.4.y.4.4.4.4.h.h.h.h.y.4.y.y.y.1.4.4.4.4.4.1.4.4.4.y.y.y.4.<.<.<.<.<.<.-.=.=.=.*.*.*.*.*.*.| $.$.&.*.*.*.*.*.*.&.*.=.=.=.=.=.=.2.a._.[.2XfXiX4X$X$X,X<X<X4XiXdXfXfXyX7X7X4X4X4X4X4X4X4X3X4X7XyXrX4X3X<X<X<X<X<X<X<X<X<X$X$X&X&X&X&X$X$X$X$X&X$X$X$X#X#X#X@X#X@X@X@X$X&X<X&X<X<X<X3X4X4X<X$X@X@X@XOXOXOXOX X X X XOXOXOX@X@X#X#XOXOX@X.X@X@XOXOX@XOX@X@X@X#X$X$X#X,X<X2X7X7X7XiX7XlXzXcXcXcXmXCXZXZXZXZXZXZXZXZXZXFXZXFXZXFXFXFXFXFXFXZXZXFXZXFXFXZXZXFXZXZXFXmX+Xq.! W oXoXXXoXJ.J.J.J.J.F.F.c.k.c.c.k.k.k.9.k.9.9.k.9.9.k.9.9.k.9.9.9.8.7.8.9.8.8.9.7.9.7.9.9.9.9.9.9.9.7.9.9.9.9.9.k.k.k.k.k.k.k.k.k.k.k.G.k.c.c.c.v.v.v.v.v.k.v.k.k.k.c.c.c.c.k.k.c.c.c.k.9.k.k.7.7.7.8.7.7.7.7.7.1.1.1.1.:.:.;.;.-.$.|  .E B * X o o o X # X X o # # O O # + + # # + + # $ $ $ $ # $ % $ + + X + + $ $ $ + = = = ; : : : : : : : < < 3 3 4 4 4 4 4 4 4 e s e 4 4 3 : : ; ; ; ; ; = ; = = ; ; % ",
"K.F.F.K.K.J.F.H.F.F.F.F.F.F.F.F.F.F.F.c.c.c.F.F.F.c.j.j.c.j.F.j.j.h.h.j.j.h.j.j.j.j.j.h.h.h.4.4.4.h.h.h.4.4.4.h.h.h.h.y.4.4.y.h.4.4.4.4.4.4.4.4.4.y.y.4.1.1.<.<.<.;.<.<.-.*.*.-.*.*.*.*.&.*.*.*.*.$.&.*.&.*.*.*.*.*.=.=.=.=.=.=.r.a.'.`.[.<XiX4X$XOXOXOXOXOX,X2X4X4X7X7X7XiXyX7X4X3X4X3X4XiXiXiXiX4X2X<X<X<X<X<X&X<X<X<X&X&X<X<X<X<X&X$X$X$X&X$X$X$X#X#X#X#X#X#X#X&X$X&X$X&X<X<X1X3X4X4X<X$X@X@XOXOXOXOXOX X X X X XOXOXOX@X@XOX XOXOX.XOXOX@X@X@X@X@X@X@X@X@X$X$X$X,X,X7X7X7XiXiXcXcXcXmXCXZXZXZXZXZXZXZXZXFXZXZXZXZXZXFXFXFXFXFXFXZXZXZXFXZXFXFXFXZXZXFXZXzX`.! W ! T u.XXoXJ.J.J.J.J.J.J.c.F.D.F.F.k.k.9.9.9.9.9.9.9.9.9.9.9.9.9.9.7.7.8.8.9.8.8.7.7.9.7.8.9.8.8.8.9.9.9.k.9.9.9.9.9.k.9.k.k.k.9.k.k.c.k.v.v.k.v.v.v.v.v.k.k.k.v.v.k.k.c.k.k.c.k.k.k.c.c.k.k.j.k.k.k.k.7.7.7.7.7.1.1.1.1.1.:.:.;.;.-.*.o.|  .T 3 . o X o o X X o o # # o o X + # # # # + + $ $ + # # + % $ # + O # + + $ $ + = ; = = : : = : : : : : < < 4 4 4 4 3 4 4 e 4 4 4 4 4 4 3 : : : ; ; ; ; ; ; ; ; ; ; ",
"K.F.F.H.J.J.F.F.F.F.F.F.F.F.F.F.F.F.c.c.F.F.F.F.F.F.j.j.F.F.F.j.j.h.j.k.j.h.h.h.j.j.h.h.h.h.h.4.h.h.h.y.y.4.4.y.y.4.4.y.y.4.4.4.y.4.4.4.4.4.4.4.4.y.y.y.4.1.1.<.;.<.<.<.-.-.-.-.*.*.*.*.&.&.=.*.*.&.&.*.=.*.*.*.=.=.=.=.=.=.*.=.q.a.'.[.[. X$X$X+XOXOXOXOXOXOX$X,X<X<X<X2X4X4X4X7XiXyXyXiXiXiX4X<X$XOXOXOXOXOXOXOXOXOX@X#X#X$X$X<X<X<X<X<X<X<X&X&X$X$X<X<X<X<X&X&X<X$X&X&X$X&X<X<X1X3X4X3X&X#X@X@XOXOXOXOXOX{.{. X X XOX@X@X@XOXOXOXOX@X@XOX@X@X@X@X@X#X$X#X@X@X#X$X$X$X,X7XiXiXcXcXmXmXCXZXZXZXZXZXZXZXFXZXFXFXZXFXZXFXFXFXFXFXFXFXFXZXZXZXFXFXZXFXFXFXCX:X' Q ! T T ! =.oXoXoXJ.J.J.J.J.F.c.c.k.D.k.k.k.9.9.9.9.9.9.9.9.9.9.9.9.9.7.7.7.7.9.8.8.9.7.7.7.7.8.8.8.8.8.9.9.9.9.9.9.9.9.k.k.k.k.k.k.k.k.k.k.k.k.v.v.k.v.v.k.k.k.k.k.v.v.v.k.c.c.c.c.c.k.c.c.c.c.k.j.k.k.h.7.7.7.7.7.7.1.7.1.1.1.1.:.:.;.-.$.*.|  .E x X X X o o o # X o o X X X X + + + # # + + + + X # + # + + # $ # + X $ $ + $ $ = = = : ; : : : : : : : : < 3 3 3 4 4 4 4 4 4 4 4 3 4 4 3 2 : = ; ; ; = $ % ; ; $ ",
"L.J.F.H.J.H.F.F.F.F.F.F.F.F.F.c.c.F.c.F.F.F.F.F.F.F.F.c.F.F.F.j.k.j.j.j.j.j.h.h.h.h.h.h.h.h.h.y.h.h.h.y.h.4.y.4.4.4.y.y.y.y.y.y.y.4.4.4.4.y.4.4.y.y.y.y.y.4.1.<.<.<.<.<.<.-.-.*.*.*.*.&.*.*.=.*.=.=.&.*.=.*.*.=.=.=.=.*.=.=.*.*.=.A.].[.[.[.[.[. X X X X XOXOX+X$X,X$X$X$X&X<X<X2X4X4XyXyX7X3X&XOXOXOXOXOXOXOXOXOXOXOXOXOXOXOX@X#X$X$X&X<X3XrXyXfXyXrXrXrX4X3X<X<X&X$X$X$X$X$X&X<X<X1X4X3X&X$X@X@XOXOXOXOXOX{.{. X X XOXOX@X@X@X@X@XOX@X@X@X@X@X@X@X@X$X$X$X@X@X@X#X#X#X+X,XfXcXvXmXmXmXZXZXZXZXZXFXZXZXZXZXZXZXZXFXFXFXZXFXFXFXFXFXFXFXFXFXZXFXJXFXcX,X!.( W W W T ! =.&.d.oXoXoXJ.J.J.n.F.c.c.k.k.k.k.k.9.k.9.9.9.9.9.9.9.8.8.9.8.8.8.8.8.8.8.8.8.9.8.8.8.8.8.7.8.7.7.9.9.9.k.k.9.k.k.9.9.k.k.k.k.k.k.k.k.k.c.v.k.c.v.k.k.k.k.c.c.c.k.v.c.c.c.c.k.k.c.H.c.c.c.j.k.j.h.7.7.7.7.7.7.7.7.7.1.1.:.:.:.;.-.*.*.o. .E C < X o o X X X # o o X # # X + X + + + + + + + # $ $ $ $ + # $ $ # o $ $ + + $ $ + = ; : : : ; : : : 3 : < 3 3 3 4 4 4 4 4 4 4 4 4 4 4 4 4 : * ; = = = $ $ = ; $ ",
"K.K.J.J.J.H.F.F.F.F.F.F.F.F.F.F.F.F.c.c.F.F.F.F.F.F.F.F.F.F.F.c.F.k.j.j.j.j.j.j.j.j.h.h.h.h.h.y.h.j.h.h.h.4.y.4.h.h.h.h.h.h.h.h.h.y.4.y.y.y.4.y.y.y.y.y.y.4.1.1.1.<.<.<.<.=.*.*.*.*.*.*.*.*.=.*.=.=.*.=.*.*.*.=.=.=.=.=.=.;.=.*.q.A.].[.[.{.{.[.[.[.[.[.[.{. XOX+X#X#XOXOXOXOXOX#X$X<X2X3X<XOX X X X X XOXOXOX X X XOXOX X XOXOX@X#X#X#X$X<X4XyXiXrX4X3X1X1X<X&X&X&X$X#X#X$X$X&X&X<X<X3X3X<X$X#X@XOXOXOXOX X X X X XOXOX@X#X@X#X#X#X@X@X@X@X@X@X@X@X@X$X$X@X@X@X#X$X$X#X$X,X7XcXNXmXBXZXZXZXZXZXFXFXZXZXFXZXFXFXZXFXFXFXFXFXFXFXFXFXFXFXFXZXFXJXZX,X' Q W W W P T ! =.q.&.u.oXoXJ.J.J.J.J.J.c.c.k.k.k.k.k.k.k.9.9.7.9.9.9.9.9.8.9.8.8.8.8.8.8.8.8.8.8.7.8.8.8.8.7.7.7.7.9.9.9.9.9.7.9.k.k.k.k.k.k.k.k.k.k.k.k.v.k.k.k.c.v.c.v.v.c.c.c.c.v.c.c.c.c.k.k.c.H.c.c.k.k.c.k.k.k.k.7.7.7.7.7.7.7.1.1.:.:.:.:.;.-.*.o. .R I h + X O X   o # # X o X X O X o o X + + # # # + $ + $ $ $ + + $ $ o + $ + X + = + = = ; : : : : : < 3 < : 3 3 4 4 4 4 4 3 4 4 e e 4 4 4 4 3 : = = * = $ $ ; ; $ ",
"K.K.K.J.H.H.F.F.F.F.F.F.F.F.c.c.c.F.c.F.F.F.c.F.F.F.F.F.F.F.c.x.F.F.j.j.j.j.c.j.j.j.h.h.h.h.h.h.h.j.h.h.h.y.y.y.y.j.h.j.j.j.h.h.j.h.y.y.h.h.y.y.h.h.h.y.y.y.4.y.1.<.<.<.-.=.=.*.*.=.-.=.*.*.=.*.&.=.*.*.&.*.&.=.=.*.=.*.=.=.=.=.q.S.'.[.[.[. X[.[.[.[.[.[.[.{.OXOXOXOXOXOXOXOXOXOXOX#X$X#X X[.].{.{.{.{. XOX{.{.{. X X X X X XOXOXOXOXOX#X<X<X<X<X&X&X<X<X<X<X&X&X$X@X#X$X#X$X$X&X&X<X4X4X<X$X#X@XOXOXOXOXOX X{.{. XOXOX@X#X#X@X#X#X@X@X@X@X@X@X@X@X#X#X@X@X@XOXOX#X$X$X$X+X,XiXBXBXZXZXZXZXZXZXFXFXZXFXZXZXFXZXZXFXZXFXZXFXFXFXFXFXFXFXZXZXFXiX!.Q L W W P P v P E ..! ! ! J.oXJ.J.J.J.F.c.c.c.k.k.k.k.k.9.9.9.9.9.9.9.7.7.9.9.9.7.7.7.8.8.8.8.7.7.7.7.8.8.8.8.8.8.8.8.9.9.9.9.9.8.9.k.c.c.k.k.k.k.k.k.k.k.k.c.k.9.k.k.v.v.c.v.v.v.v.v.c.c.c.c.c.k.k.c.c.c.c.j.j.k.h.k.j.j.7.7.7.7.7.7.1.1.1.1.:.:.:.-.;.=.o.|  .Y V :   @ X X o X O # o o o O + X o X o X + + + + # X + # + + # X + o + $ + + + + + = = ; : ; ; : : : < : : 3 3 3 4 4 4 4 3 3 4 4 4 4 4 4 3 3 3 ; ; ; = $ $ = ; $ ",
"K.K.K.J.J.H.H.H.F.F.F.F.F.c.c.F.F.F.c.c.F.F.F.c.F.F.F.F.F.F.c.c.F.F.x.x.x.x.c.x.j.j.j.j.j.j.h.y.h.j.h.h.h.y.h.y.h.j.h.j.j.j.j.j.j.h.y.h.h.h.y.y.y.h.y.y.y.y.y.y.4.1.<.<.-.-.-.-.-.-.-.*.*.*.*.*.=.=.*.*.*.*.=.=.=.=.=.=.=.=.=.=.r.S.`.`.[.[.[.[.[.[.[.[.[.].].{. X X{.{.{. X X XOXOXOXOX{.].].{.{.{.{.]. X X{.{.{.{. X X X{. X X XOXOX XOX$X$X#X$X$X&X<X<X<X<X&X$X@X@X#X#X#X$X$X&X&X<X3X4X1X&X$X@XOXOXOXOX.X X{.{. XOXOX#X#X#X@X#X#X@X@X@X@X@X@X@X@X$X$X@X@X@X@X@X$X&X&X,X$X+X$XvXBXBXZXZXZXZXZXFXZXZXZXZXZXZXFXFXJXJXFXFXFXFXFXZXFXZXFXJXZX,X) U W W T P c V j V ! I P C C q.oXJ.J.J.J.J.J.c.c.k.k.k.k.j.7.7.7.9.9.8.9.9.7.9.9.9.9.7.7.8.8.8.7.7.7.7.7.8.7.8.8.8.8.8.8.9.9.9.9.9.7.9.9.k.k.k.k.9.k.k.k.k.k.k.k.k.k.k.k.c.v.c.c.k.k.k.v.c.c.c.c.k.c.c.c.c.c.k.k.k.k.k.k.k.7.7.7.7.7.7.7.7.1.1.1.:.1.:.-.;.-.$.$.| R I s   o @ X o o X # # X X O + X o X o X X # # # # + X + X # # + # + # $ $ $ + + + $ = ; : : ; ; : : : : < < < 3 4 4 3 4 4 3 4 4 4 4 4 4 4 4 4 : : ; = + = ; ; ; ",
"K.J.J.J.H.H.J.J.J.J.F.F.F.F.F.J.F.F.F.c.c.c.F.F.c.c.F.F.F.c.c.c.c.c.F.c.c.c.j.x.c.j.j.j.j.j.j.j.y.j.h.h.h.y.h.h.j.h.h.h.j.j.x.j.j.h.h.h.x.y.y.y.y.y.y.y.h.y.y.y.1.1.1.<.-.-.<.=.-.*.=.=.=.=.=.-.-.-.-.-.-.-.-.-.=.=.-.-.<.<.=.=.d.'.[.'.`.`.'.[.[.[.[.[.[.'.'.].{. X{.{.{.{.{.{. X X{.[.'.{.{. X X X{.`.{.OX X{.{. X X X{. X X X X X XOXOXOXOXOXOX$X$X&X<X<X<X&X#X#X#X#X@X@X#X$X$X&X&X<X3X3X&X$X#XOX.X.X X X X X X X X#X$X#X#X$X#X$X#X@X#X@X#XOX@X#X$X#XOX@X@X@X@X&X&X&X$X#X+X X<XiXiXiXvXBXZXZXZXFXZXFXFXZXFXFXJXJXJXFXFXZXFXFXZXFXJXFXcX`.W P R T T T V s j j V =.C V C V T oXoXJ.J.J.J.J.c.j.c.k.k.k.k.j.9.9.9.8.8.9.9.8.7.7.8.8.8.7.7.7.7.7.8.8.7.7.8.8.8.7.8.8.8.8.9.8.8.9.9.9.9.7.9.9.9.9.9.9.9.k.k.k.k.k.k.k.k.k.k.v.v.k.k.k.k.k.F.k.k.k.k.k.k.k.k.k.k.k.k.k.k.k.9.k.h.7.7.7.7.7.7.7.4.:.1.1.:.-.-.-.-.*.o.R Y M * X @ o o o o X # o o X o # X . o X # # # + X X X + # # + $ # + + # $ # # + + $ $ = ; > ; ; : : : < < < < 3 4 < < 3 3 4 4 4 4 4 4 4 4 4 3 3 3 : ; + ; = $ ; ",
"K.K.J.J.H.H.J.J.J.F.F.F.F.F.J.F.F.F.c.c.F.F.F.F.c.F.F.F.F.c.c.c.F.c.F.c.c.c.x.j.x.j.j.j.j.j.j.j.y.j.y.y.h.h.h.h.j.j.h.h.j.j.j.j.j.h.h.h.h.y.y.4.4.y.y.y.y.y.y.y.1.1.<.<.-.-.-.*.-.=.-.-.-.-.-.-.-.-.-.-.=.-.-.-.-.-.-.;.-.<.=.=.d.'.[.'.`.`.[.[.'.[.[.[.[.`.`.'.].[.].{.].{.{.{.{.{.'._.'.{.{.{. X{.{.].{. X{.{.{.{. X X X X X X{.{.{.{.].].[.[. XOXOX$X&X<X&X$X#X#X#X#X#X#X#X$X$X$X$X<X3X3X<X$X#XOXOXOX.X X X X{. X.X@X$X#X#X#X#X$X#X@X@X@X#X@X#X$X#X@XOX@X@X$X$X$X$X$X+XOX XOX#X$X@X$X,XiXDXZXZXZXZXFXZXZXFXFXFXFXZXZXZXZXZXZXJXZX7X{.) U T T T R =...V s s j j I C j v V V u.oXJ.J.J.F.F.c.c.c.k.k.k.j.j.7.7.9.8.9.9.9.8.8.8.8.8.8.7.7.7.7.7.8.7.7.7.7.8.8.7.8.8.8.7.9.7.8.9.9.9.9.9.9.9.9.9.9.9.9.9.k.k.k.k.k.k.k.k.k.k.c.c.k.c.k.k.k.k.k.k.k.k.k.k.k.k.k.k.k.k.9.k.k.k.7.h.h.h.7.7.7.7.4.4.4.4.:.-.-.-.-.-.| | R P q X o . X X X o # o o . X # # X o X X # # + X X X + + + # % $ # + + $ # # X + + $ $ $ ; ; : : : : : : < 3 < < < 3 3 < 3 3 3 4 4 4 4 4 4 4 3 3 : > ; ; ; $ $ ",
"K.J.H.J.J.F.J.J.J.F.F.F.F.J.J.F.F.F.F.c.F.F.F.c.c.F.F.F.c.c.c.c.F.c.F.c.c.c.x.x.c.j.j.j.j.j.j.j.j.j.j.h.h.h.h.h.j.h.h.h.j.j.j.j.j.j.j.j.j.y.y.4.4.y.y.y.h.y.4.4.1.1.<.<.<.;.<.<.<.=.-.-.=.-.=.=.-.-.-.-.-.-.=.-.=.-.-.;.-.=.=.q.a.].[.'.`.[.[.'.`.[.[.[.[.'.`._.`.'.`.'.`.].].'.`._._._.'.].{.{.{.{.{.[.].{. X{.{. X X{.{.{.{.{.{.{.]._._._._._.'.{. X@X&X&X$X$X#X#X#X#X#X#X@X#X#X$X$X<X3X3X<X$X$X@XOXOX.X X X X X X X#X$X#X#X$X#X$X#X@X#X#X@X@X$X$X@XOXOX@X@X@X@X@XOXOXOXOX@X$X$X@X@X@X+X,XcXFXZXZXZXZXFXFXFXFXFXFXFXFXZXZXFXJXmX+X) U L P I T T ..w.=.Z f s j s j I c c V V ..oXoXJ.J.J.J.c.c.c.c.k.k.k.j.8.8.8.8.7.9.9.7.8.8.7.8.8.7.7.7.:.:.7.7.7.7.7.7.7.7.9.9.7.7.9.7.7.9.9.9.9.8.9.9.9.9.9.9.9.9.k.k.k.k.k.k.k.k.k.k.v.c.k.v.k.k.k.k.k.k.k.k.k.k.c.k.k.k.c.k.9.9.9.7.k.k.h.h.7.7.7.7.7.4.4.4.:.:.:.-.-.-.-.o. .R x X . . o X . o # O O o X X # X o o X # # # X X X O X X # # # # X X # O O o + + $ $ + ; ; , : : : : : < 3 < 3 3 3 3 3 3 < < 4 4 4 4 4 4 3 3 < : ; > ; ; $ ; ",
"K.J.J.J.J.J.J.J.J.F.J.F.F.F.F.c.F.F.c.c.c.F.F.F.c.c.F.F.F.F.F.F.F.F.F.F.F.F.c.c.j.j.j.j.j.j.j.y.j.j.j.h.j.h.h.h.h.h.h.h.j.j.j.j.j.j.j.j.j.y.y.y.y.y.y.y.y.y.1.1.1.<.<.<.<.<.<.<.<.=.=.=.-.=.=.-.-.-.-.-.-.-.*.=.-.-.;.;.-.<.=.q.A.].[.[.'.[.[.'.`.[.[.'.`.'.'._._._._.`._.`.`._._._.S._.`.].[.{.{.{.{.{.`.[. X{.{.{. X{.{.{.[.{.{.`._._._._._._._._.[.OX$X&X$X$X$X@X#X#X@X#X@X@X@X#X$X&X1X4X1X&X$XOX.X.X X X X X{. X X#X$X#X#X#X#X$X#X@X@X@X@X#X$X$XOXOXOXOXOXOX XOXOX@X$X@X&X&X$X@X@X+XOX{.+XBXFXZXFXFXZXFXFXFXFXFXFXZXFXFXJX7Xp.W P T T Z c V T ..=.=.I f s j s s V C c V c P d.oXJ.J.J.J.F.F.c.c.k.k.k.j.8.8.8.8.9.7.7.7.7.7.7.8.8.7.7.7.%.:.7.7.7.7.7.7.8.8.8.9.7.7.8.9.9.9.9.9.8.7.9.8.7.8.9.9.9.9.k.k.k.k.9.k.k.9.9.k.k.c.c.v.k.k.k.k.k.k.k.9.k.k.k.c.F.c.c.k.k.k.7.k.k.k.7.7.7.7.7.7.7.4.4.1.1.1.:.-.-.-.-.| | R P 3   . o o o o o o O o X . . o o o o X # # X O X X o X # o X # # # # # # X X + + + + = ; , : : : : : : 3 3 3 3 < < 3 < : : 3 4 4 4 e e 3 3 3 : : , ; $ $ $ ",
"K.K.K.J.J.J.J.J.H.J.J.J.F.F.F.c.c.c.c.F.c.F.c.c.c.c.c.F.F.F.J.F.F.F.c.F.c.F.c.c.c.j.j.j.j.j.j.j.j.j.j.j.h.y.h.h.h.h.h.h.h.j.j.j.j.j.j.h.y.y.y.y.y.y.y.4.1.4.1.1.1.<.<.<.<.<.<.<.-.-.<.-.-.-.-.<.;.-.;.-.=.=.=.=.-.<.;.-.<.1.=.q.S.[.[.[.].[.[.[.[.'.`.'.[.`.`.`._._._._._._._._.S._.S.S._.{.{. X{.{.{.{.`.[. X X{.{. X X{.{.[.{.'.S.S.`.`._._._._.'.'.OX$X$X$X#X#X#X#X#X@X@X@XOX#X#X$X$X<X4X1X&X$XOX X X X X X X{.{.@X#X#X$X$X$X#X$X#X@XOXOX#X$X&X$XOX X X X XOXOX@X@X$X&X&X&X&X@X+X@X+X X{.[.7XFXFXZXZXZXZXFXZXFXZXZXFXJXCX:X) W T Y Y P C j j E E I I Z j s a a a f V V v v v =.J.J.J.J.J.F.c.c.j.k.k.k.j.8.9.9.8.8.8.8.8.8.7.8.7.7.7.7.:.:.7.7.7.7.7.7.7.7.8.8.8.8.8.8.8.8.8.7.7.7.7.9.9.8.8.9.9.9.9.9.9.k.9.k.k.k.9.7.9.k.k.k.v.k.c.k.k.F.k.k.7.7.7.7.k.F.k.k.k.k.k.k.k.k.7.7.h.7.7.7.7.7.7.4.1.1.:.:.;.-.-.-.| | | T x +   o o o o X X X o o o X o X o o o o # # # # O o O # # # # # # # X o O O O + + # $ ; > : 2 : : : : < < 3 3 < < < 3 3 3 3 4 4 4 s s 4 4 4 : ; > ; ; ; $ ",
"K.J.J.J.J.J.J.H.H.F.F.F.F.F.F.F.F.c.c.c.c.c.c.x.c.x.x.F.F.F.F.F.F.c.c.c.c.c.c.x.c.x.c.x.j.j.j.j.j.j.h.j.h.h.h.h.h.h.h.h.h.j.j.j.j.j.h.h.y.y.h.y.y.h.y.y.4.4.4.4.4.1.<.1.<.<.<.<.-.-.-.-.<.-.-.-.=.<.-.-.-.=.=.-.=.-.;.-.<.<.=.r.S.[.[.[.[.[.[.[.[.[.'.'.`.'.'._._._._._._._.A.C.C.C.A._.`.[.{. X{.{.{.{.`.[.{. X{.{.{.{.{.{.'._.A._._.'.'.`._._._.`.'.OX$X$X$X#X#X$X#X#X#X#X#X@X#X#X$X$X<X4X1X<X$XOX X X X X X X{. XOX#X$X$X$X$X#X$X#X@X@X@X$X$X&X@X X{.{. X X@X@X$X&X&X&X&X&X&X@X@X+X X{. X`.+XZXFXZXZXZXZXFXZXZXFXFXCX6XQ.( ! E  .R E V h s h E E V V V V f a a a s x C c x c I J.J.J.J.J.c.c.c.c.c.k.k.k.j.k.9.8.8.8.8.8.8.7.8.7.7.7.7.:.:.7.7.7.7.7.7.7.8.9.8.8.8.8.9.8.8.8.7.7.8.7.9.9.9.9.9.9.9.9.9.9.k.9.9.k.9.9.9.9.k.k.k.k.k.k.k.F.c.k.k.k.7.%.%.:.k.k.k.k.7.9.k.7.7.7.k.k.7.7.7.7.7.7.7.4.1.:.:.;.-.-.-.$.| |  .P 3 X o o X X X o X X o o o o # X o O o O # # # # o o O # $ $ # # # # O # X O O + # $ = ; : : : : : : : : 3 3 < < < 3 3 3 3 3 4 4 4 4 4 4 4 3 2 2 > ; $ $ ",
"K.J.J.J.H.H.J.H.J.F.F.F.F.F.F.F.F.c.c.c.c.c.c.x.c.x.x.F.F.F.F.c.F.c.c.c.c.F.c.x.c.j.x.j.j.j.j.j.j.h.h.j.h.h.h.h.j.h.h.h.h.j.j.j.j.h.h.h.h.h.h.h.y.h.y.4.1.y.1.1.1.<.<.<.<.<.<.<.-.=.<.-.<.-.-.-.-.<.-.<.-.=.-.-.<.<.<.<.-.<.=.r.'.'.[.[.{.[.[.[.[.[.`.`.`.'.'.`._._._._.S.S.A.C.C.C.A._.`.[.{. X X{.{.[.'.[.{. X{.{.{.{.[.[.`.`.'.'.'._.'.'.'.'._.`.'.OX$X#X#X#X#X$X@X@X#X@X#X#X@X#X$X$X<X3X1X<X&X@X X X X X X X{. X@X#X$X$X$X$X#X$X#X#X#X$X$X&X$X X].].{. XOX$X&X&X&X<X&X&X&X$X@X@XOXOX]. X'.`.cXFXZXZXZXZXZXZXJXZX2Xi.Q Q ! ....| *.=.V a s s C I C V V C j s a a a s v C j c V w.J.J.J.F.c.c.c.c.c.c.j.j.h.7.8.8.9.7.8.8.7.7.7.7.7.7.7.:.:.7.7.7.7.7.7.7.7.7.7.7.9.7.7.7.8.8.7.7.8.8.7.7.7.8.9.9.9.9.9.9.k.9.9.9.k.k.k.k.k.k.k.k.k.k.k.c.c.k.9.k.k.:.%.:.9.k.k.k.k.k.7.7.7.7.k.k.7.7.7.7.7.4.7.4.1.:.:.:.-.>.-.$.$.| | ..x + . o X o . X O X X o X o X X o O o o # o O # o o o O # # O O # O o X o X O O # + $ ; ; ; , , : : : : < < 3 < : 3 3 3 < < 3 3 3 4 3 4 3 3 2 : > ; ; ; ",
"K.K.K.J.H.J.J.J.H.J.F.F.c.c.F.F.F.c.c.F.c.F.F.c.c.c.c.c.F.c.F.c.F.c.x.c.F.F.c.c.c.j.j.j.j.j.j.j.j.j.j.j.j.y.h.h.h.j.h.y.h.h.j.h.h.y.y.h.h.y.y.y.y.y.y.y.4.y.1.1.1.<.<.<.<.-.=.<.-.-.-.-.<.<.<.<.-.<.-.-.-.=.=.<.-.<.<.<.-.=.=.u.].[.[.[.[.[.{.[.[.`.`.].[.`.`._._._._.S.S.A.C.C.C.C.A._.`.{. X X X{.{.].'.[.{. X{.[.[.].'.].`.].[.'.'.'.].].'.'._.`.`.OX$X#X#X#X#X#XOXOX@X@X#X#X@X@X#X#X&X1X3X<X&X@X X X X X X X{.{.OX@X#X$X$X$X$X$X$X#X$X$X$X$X@X{.'.{. XOX@X$X&X&X&X&X*X&X&X$X@X@X@XOX X{._.`.fXFXZXZXZXZXFXJXcX`.Q L W ! T R ..*.q.=.C s s s f V C V c c M s a a a a f P v v c T J.J.J.F.c.c.c.x.c.k.k.k.j.8.8.8.7.9.8.7.7.7.7.7.7.7.7.:.7.7.7.7.7.7.7.7.8.7.7.7.7.7.7.7.8.8.8.7.8.8.7.7.7.7.9.9.9.9.7.9.9.9.9.9.k.c.k.k.k.k.k.k.k.k.k.k.k.k.k.k.k.7.7.:.7.9.k.k.7.7.7.9.k.7.7.h.h.7.7.7.4.4.4.7.1.:.:.:.:.-.-.$.$.$.| ..T 0 . X . o . o # # o X o o o o o o o o o o O # o o o O # # # o O o o o o X X O # + $ $ = : ; ; : : : : : 3 3 3 : : 3 3 < < 3 < 3 3 < 3 3 : , > ; ; $ $ ",
"K.J.J.J.H.J.J.J.J.J.J.F.F.F.c.c.x.c.x.c.x.c.c.c.c.c.F.F.F.F.F.c.c.j.x.F.c.c.c.x.c.c.x.j.j.j.h.h.h.h.h.y.j.j.j.h.j.j.h.y.h.h.h.h.4.1.4.h.y.y.y.y.1.y.4.1.1.4.1.<.<.<.<.;.;.;.-.-.-.=.;.<.<.-.<.-.-.-.-.<.-.-.-.-.-.=.;.<.=.=.=.d.].[.[.].[.{.{.{.[.[.'.'.`.'.'._._._._.A.A.A.C.C.C.C.A._.'.'.{. X X{.{.[.'.].'.].].].].].'.'.'.'.{.'.].{.'.'.'.'.'.'.{.OX#X@XOXOXOXOXOXOX@X@X@X@X@X#X#X@X$X<X3X<X&X#X X{. X X X X]. X@X#X$X$X$X$X$X$X$X#X$X&X<X$X X'.'.{.{.OX#X$X&X&X&X&X&X&X&X&X&X@X@X@X@X@X{.`.iXFXZXZXFXFXZX6X' W U W U P c V ....=.&.C a a s a j V V c j v j a a a a a V T V v V u.I.F.c.F.x.j.c.k.j.j.j.j.8.8.9.9.8.7.8.7.7.:.7.7.7.7.7.7.7.7.8.7.9.8.7.8.7.:.7.7.7.7.8.8.8.8.7.7.7.7.8.8.8.7.9.9.k.k.k.k.k.k.k.k.k.k.k.k.k.k.k.v.k.k.9.k.k.k.k.k.k.k.7.9.9.k.k.k.k.k.k.k.k.h.7.7.h.7.7.7.7.7.7.7.1.:.:.:.;.;.$.$.-.| o.| M + o . . o X o @ o o o o o o . o o o o o . # o o o o O o O o o o O o o X o X + # + $ = = = ; : , : : : : < < : : < 3 3 3 < < 3 3 3 : : 3 , ; ; = ; = ",
"K.K.H.J.J.J.J.J.J.F.J.J.F.F.J.c.c.c.x.x.c.x.x.x.c.c.c.F.F.F.c.c.c.j.c.F.c.c.x.x.c.c.j.j.j.j.h.y.h.h.y.y.h.h.h.h.h.y.y.y.h.j.h.y.1.:.4.y.y.y.y.y.1.y.1.1.1.1.1.<.<.<.<.;.;.;.;.;.;.*.;.<.-.=.-.-.=.-.<.<.-.-.<.<.-.=.=.;.<.<.q.a.{.[.].].[.].{.].].].'.`._.'.'.'.'._._.A.A.C.C.a.C.A.A._.'.'.{. X X{.{.[.].'.'.'.'.].{.[.[.[.].'.{.{.{.{.].].'.'.'.'.{.OX@XOXOXOXOXOXOXOX@X@X@X@X#X#X#X@X@X&X1X<X&X$X X{. X X{.{.'. X@X$X$X&X$X$X$X$X$X$X$X<X<X#X{.`.'. XOX$X$X&X&X&X&X&X<X&X&X&X&X@X@X@X@X&X&X X2XBXDXZXZXcX|.( W Q W U V j j j ..E R Y Z s a a a s j C c c v V f 4 a a s f V P v v =.K.J.F.F.F.x.c.c.j.j.j.7.8.7.9.8.7.7.7.7.7.:.7.7.7.7.7.7.7.7.8.8.9.7.7.7.7.7.7.7.7.7.7.7.8.7.7.7.7.9.8.8.8.7.9.9.9.9.9.7.9.k.k.k.k.k.k.k.k.k.k.k.k.9.k.k.k.k.9.9.9.9.k.k.k.k.k.k.k.k.k.j.k.k.7.7.h.7.k.7.7.7.7.7.7.1.:.:.;.;.-.-.-.o.o.| T 3   # . . X o @ o . o o o o . o O O o o o # o o o o o o o O O o o o o o o X O + X # = = = ; : : : : : : < : : : : < 3 3 < : < 3 4 3 : : : ; ; $ ; = ",
"J.J.J.J.H.H.J.F.J.F.F.F.F.F.F.c.c.F.c.x.c.c.x.x.x.c.c.c.c.c.c.c.c.x.c.F.c.c.x.x.c.x.j.j.j.j.h.h.h.h.h.h.h.h.y.y.h.h.y.h.j.h.h.4.1.;.1.4.4.y.y.4.1.y.1.1.1.<.<.<.<.<.<.;.<.<.;.;.;.=.;.-.=.=.=.-.-.-.-.-.-.-.-.<.;.;.=.;.=.<.q.a.{.[.{.{.{.].'.'.].'.`.`._._._._._.S.A.A.C.a.a.a.a.A.A._.'.].{. X X{.[.[.].'.'.'.].[.[.{.{.{.{.[.{.{.].].{.{.'.'.'.'.'. XOXOXOXOXOXOXOXOX@X@X@X#X#X#X#X@X@X$X<X<X&X&XOX{. X X{.{.]. X@X#X$X$X&X&X&X$X&X&X&X&X&XOX'.`.{.@X$X&X$X&X&X&X&X&X<X&X&X&X&X&X&X&X&X&X&X@X$X<X7X2X{.p.Q Q Q W ! ! c s s j Y Y Z C C j a a a a a V C j v c V s 4 a s < s C V c R x.J.F.F.J.c.F.c.j.j.7.7.8.8.8.7.7.7.7.7.7.7.7.8.7.7.7.7.7.7.7.7.7.7.:.7.8.7.7.7.7.7.7.7.7.7.7.7.8.9.8.8.7.7.9.8.9.9.9.9.9.k.k.k.k.c.k.k.v.k.k.k.k.k.k.k.k.k.k.k.k.k.k.k.k.k.k.k.9.k.9.h.j.k.h.h.7.7.h.7.7.7.7.7.1.1.:.:.;.;.-.;.-.| o.|  .B X X . . o o o o o o o o o o o # o O O o o o o o o O o o O O o o o o X o O O O X # $ = ; ; ; : : ; : : : : : 2 3 3 3 3 3 3 3 : 2 2 : ; > ; ; ; $ $ ",
"J.J.J.J.J.J.J.J.J.J.F.F.F.F.F.c.c.c.c.c.x.c.c.j.x.c.c.x.x.c.x.c.c.c.c.F.F.c.c.x.x.j.j.j.j.j.j.j.j.h.h.h.j.h.y.h.h.h.y.y.h.y.y.4.1.1.4.1.1.4.y.4.1.1.1.<.<.<.<.-.;.<.<.<.<.<.;.-.-.*.;.-.=.=.-.-.=.=.<.<.-.-.-.<.<.<.=.=.=.=.=.d.{.[.{.{.{.'.'.'.'.].'.'._._._._._.A.A.A.A.a.a.p.a.C.S._.'.{.{.OX X[.].].'.'._.'.'.].].{.{.].].].{.].'.{.{.{.{.].{.{.'. XOXOXOXOX@XOXOXOX#X#X#X#X$X#X$X#X@X$X<X<X<X&X@X X{. X X X]. X@X#X$X&X&X$X&X&X&X&X&X$X#X X_.'. X$X&X<X&X<X<X<X<X<X&X&X&X&X&X&X&X&X&X&X@X$X&X$X@XOX[.a.! ! ! ! &.^ j s s s V Z C V M V s a a a a s C v j j V j a a s < a j C c C w.n.J.x.F.c.F.j.h.j.h.7.7.8.7.7.7.8.8.7.7.7.7.7.7.7.7.7.7.7.7.7.7.7.7.7.7.7.7.7.7.7.7.7.7.7.8.8.8.8.7.8.7.7.9.8.8.9.9.9.9.k.k.k.k.k.k.k.k.9.k.k.k.9.9.k.k.k.k.k.9.9.k.k.k.9.k.k.k.k.9.7.j.k.k.7.7.h.h.7.7.7.7.7.1.1.1.1.:.:.-.-.-.-.o.|  .E 4   o . . . X o . o o o o o o O o o o o . o o o o O o O o o o # # O X o X X X X # + $ = = = ; > ; : ; ; ; : : : : : : 3 3 : : 2 2 : : > ; ; ; $ $ ",
"J.H.H.H.H.F.H.F.J.F.F.F.F.c.c.c.x.x.c.c.c.c.x.j.j.j.x.c.x.x.x.c.c.c.j.c.c.c.F.c.c.x.j.j.j.j.j.j.h.j.h.j.h.h.h.h.h.h.y.y.y.4.4.1.1.<.<.<.<.<.1.1.1.1.1.1.1.<.<.<.<.<.<.;.<.<.;.;.;.-.;.-.=.-.<.-.-.-.-.<.<.-.<.<.<.=.=.=.=.=.=.d.'.{.{.{.[.'.'.'.'.'.'.'.'._._._._._._.S.A.C.a.p.a.A.A._.'.{. X XOX{._._.`.`.'.'.].[.[.{.].'.[.{.{.{.{.{.{.{.{.'.{.{.{. X X XOXOXOX@XOX@X@XOX#X#X#X#X$X$X#X#X<X<X<X<X$X X X X X{.'. X@X$X&X&X<X<X<X<X<X&X&X$X@X]._.{.OX&X&X<X<X<X&X<X<X<X<X&X&X&X&X&X&X&X&X*X&X&X&X@X@X$X@X.XZ.=.^ =.<.&.j a s s j V V c j j j a a 4 a a c C j j v V s a s < < < B V x ! u.J.x.c.c.c.x.j.h.7.7.7.7.7.7.7.7.7.7.7.7.7.7.7.7.7.8.7.7.7.7.7.7.7.7.7.7.7.7.7.7.7.7.7.7.9.8.8.7.7.:.7.7.9.8.8.8.9.9.k.k.k.k.c.k.k.k.k.k.9.k.k.k.k.k.k.k.k.k.9.9.9.9.9.9.9.k.k.9.k.h.k.k.k.h.7.7.7.7.7.7.7.7.7.7.1.1.1.;.;.-.-.-.$.| |  .V * X . . . . o o o o o o o o o o o o o o . . o o o o o o o O O O # o o X X X X + + # $ $ $ = ; ; ; ; ; ; : ; ; ; : : : : : : : > ; ; ; = $ $ $ $ ",
"J.F.F.F.F.F.F.F.F.F.F.c.c.c.x.x.c.x.c.c.c.x.x.x.x.j.x.c.c.j.c.c.x.x.x.x.c.c.c.c.x.c.x.x.j.j.j.j.h.j.h.j.h.y.h.h.h.h.h.y.y.4.<.;.;.-.-.;.;.<.<.1.1.1.1.<.<.<.;.<.<.<.;.;.<.<.;.;.;.;.;.;.-.;.-.<.<.<.-.-.<.<.-.<.;.=.=.=.&.=.=.d.'.{.{.[.[.'.'.`.`._._.].'._._._.S.A.A.A.A.C.a.p.a.A.A.S.'.{. X XOX{._._._.'.].].].[.[.{.{.'.{.{.'.{.{.{. X{.{.].'.'.'.{. X{.OXOXOX#X@X@X@X@X#X$X$X$X$X$X$X#X$X<X<X<X#X X X X X{.]. XOX$X$X&X<X&X<X<X<X<X&X&X XA.'.OX$X&X&X<X<X<X<X<X<X<X<X<X&X&X&X&X&X&X&X&X&X&X&X&X@X@X@XoXoX.Xu.2.=.^ V a s s a j V c j c c j a a a 4 s V M j c C j h s 4 4 X f W c P q.x.J.D.c.c.x.x.h.7.7.4.4.7.7.7.:.:.7.7.:.7.7.7.8.7.8.8.7.7.:.7.7.7.7.7.7.7.7.7.:.7.7.7.7.8.7.8.7.7.:.7.7.9.7.8.8.9.k.k.k.k.k.c.k.k.k.k.9.9.k.k.k.k.k.k.c.k.k.k.9.9.9.9.k.9.9.k.9.9.k.k.k.k.k.h.7.7.7.7.7.1.7.7.:.:.:.:.;.:.;.-.-.%.*.| R E g   o . . o . o o o . o o o o o o o o o o . O o o o o o o O o o O o o o X X X + O O $ $ $ $ = ; ; * + * ; ; ; ; ; : : , , , ; ; ; = = = $ $ = $ ",
"J.H.F.H.F.F.J.F.F.F.F.c.c.c.c.x.c.x.c.c.x.x.x.c.c.x.c.c.x.j.x.x.c.c.F.c.c.c.c.c.c.x.j.j.j.j.j.j.h.h.h.h.j.j.y.h.j.y.y.4.4.1.;.;.-.-.%.-.;.<.<.<.1.1.1.<.<.<.<.<.<.<.;.;.<.<.=.=.;.-.;.;.-.-.<.-.-.<.-.<.<.<.-.<.<.=.;.=.=.=.&.r.{.{.{.{.[.'.`.`._.`.`.'.'._._._.A.A.A.A.A.a.p.p.a.A.S.S.'.{.{. X X{._._._.`.`.'.].].].[.[.{.[.{.{.{.{.{. X{.{.{.{.'.'.{.{. XOXOXOX@XOXOX#X$X#X#X$X$X$X$X#X#X$X&X&X<X&X X{. X X{.'.{.@X$X$X&X&X&X<X<X<X<X&X$X'.A.{.$X&X<X<X<X<X<X3X1X<X<X<X<X&X&X&X&X&X&X&X&X&X&X&X&X&X&X&X#X@X%XoX].u.&.C s a a 4 a M M j c v c s a 4 a a j V j j v v c s s 4 X : U U c ! u.J.J.c.c.c.x.h.4.4.4.4.7.7.7.:.:.:.:.:.7.7.7.7.7.7.7.7.7.:.:.7.7.7.7.7.7.7.7.7.7.7.7.7.7.7.9.8.8.7.7.7.7.7.7.7.9.k.k.9.k.k.k.k.k.k.k.k.9.k.k.k.k.9.9.9.k.k.k.k.k.k.9.k.9.k.k.k.k.k.k.k.k.k.h.7.7.7.7.7.7.7.7.:.:.:.:.:.:.;.-.-.-.$.$. .E P :   o . o o o o o o . o o o o o o o O o o O o O o o O o o o o # # O O # X X # O o O + + $ $ ; = = = = ; ; ; ; ; ; ; > > > ; ; $ $ = $ $ $ $ $ ",
"H.F.H.H.F.F.F.F.F.F.F.c.c.c.x.j.x.j.x.c.x.j.j.x.j.j.x.c.j.j.j.c.c.x.x.x.x.c.c.c.c.c.j.j.j.j.j.j.h.y.h.y.j.j.h.h.h.4.4.4.4.1.1.;.;.;.-.;.;.<.<.<.<.1.<.<.1.<.;.<.<.<.<.<.<.<.=.=.-.-.=.=.<.-.-.<.<.-.<.-.-.-.-.-.-.=.=.=.*.*.E q.{.{.{.{.[.`._._._.`.`.].'._._.'._.A.A.C.a.p.p.a.a.C.A._.'.{.{.{.OX{.`._._._.`.'.].'.].[.{.{.[.{.{. X{. X X X X{. X{.'.{. X{.OXOXOX@XOX@X@X@X@X#X#X$X&X$X#X@X$X<X<X<X*XOX]. X{.].'.].@X$X&X&X<X<X1X<X<X<X<XOXC._.OX&X<X<X1X3X3X1X4X3X1X<X1X1X&X&X&X&X&X&X&X<X&X&X&X&X&X&X&X&X#X@X*X*XoXZ.=.V s s 4 4 s M j j j V j < 4 s a 4 j V j j c V c s 4 * * h T c P w.x.J.c.c.c.x.h.4.4.4.4.4.4.4.:.:.:.:.4.:.:.:.7.:.7.7.7.7.7.7.:.:.7.7.7.7.7.7.7.7.7.7.7.7.7.7.8.8.8.8.7.7.7.7.7.7.k.k.9.k.k.k.k.k.k.k.k.k.c.k.k.k.9.7.9.9.9.k.k.k.k.k.k.k.k.9.9.k.k.k.k.k.k.7.7.7.7.7.7.7.7.7.1.:.1.4.:.:.;.;.-.-.$.*.$.Y E x X . .   o o o o o . o o # O o o o o # o o o o o o # O o o o O O O O o o o # o o O + O + + + + + $ $ $ ; = $ $ = ; ; ; > ; % $ $ = $ + $ $ + ",
"F.F.F.F.F.F.J.J.J.F.F.c.c.c.j.j.j.j.x.x.x.j.j.j.j.j.j.x.j.j.j.c.x.x.j.x.c.c.c.c.c.x.x.x.x.j.j.j.j.y.y.y.h.y.y.4.4.4.4.4.4.4.1.<.<.;.;.;.;.;.<.<.<.<.<.<.<.<.;.;.<.<.<.<.<.;.=.-.-.-.=.-.-.-.<.-.-.-.-.-.-.-.-.-.=.&.=.&.&.&.T r. X{.{.[.[.`.`.`._._._.].'.A.C.C.C.C.a.p.p.a.a.a.C.C.A._.'.{.{.{.OX X'.S._._.`.'.'.].].].[.{.{.{.{.{.{. X X{.{.{.{.].'.{.{. XOXOXOX@X@X@X@X@X$X$X$X$X&X$X#X@X#X&X<X<X<X@X'.{.{.].'.{.@X$X&X<X<X<X<X<X<X<X&X'.C. X@X&X<X<X1X1X<X1X3X1X<X<X<X<X<X&X&X&X&X&X&X&X&X<X&X&X&X&X&X$X$X$X#X@X%X%X.X2.x s 4 4 4 s c j j j M s 4 s 4 < a M c c j V L s 3 : * : B U c &.u.x.c.c.c.x.y.4.4.4.:.:.1.:.:.:.:.:.:.:.:.:.7.:.:.:.7.7.:.:.7.7.7.:.7.7.7.:.:.:.7.7.7.7.7.7.8.8.7.8.8.8.7.7.7.7.9.9.k.k.k.k.k.k.k.k.9.9.k.k.9.9.9.9.9.9.9.k.k.k.k.k.k.k.k.9.9.k.j.k.k.k.k.7.7.7.7.7.7.7.7.7.1.1.1.1.:.:.:.;.;.%.%.$.$.|  .P 4   . . . o o o o o o o o O o o o o o o o o o o o O o o o . . o o o o X X X o O # $ O O O + + + $ $ $ ; = + + $ = ; ; ; ; ; $ $ % + + $ + + ",
"J.J.J.F.F.F.F.F.J.F.c.c.x.j.x.c.x.c.c.c.c.x.c.j.j.j.x.x.x.j.c.x.j.c.x.x.c.c.x.c.D.x.x.c.x.x.j.j.j.h.y.j.j.j.y.y.y.y.y.y.y.y.4.1.1.1.1.<.<.<.<.<.<.<.<.<.<.<.<.<.<.<.;.;.;.*.-.;.=.=.;.;.=.;.<.=.=.=.*.*.-.-.-.=.=.=.=.&.&.E C p.{.{.[.[.[.'.`._._._._.`.'._.A.A.A.C.C.C.a.a.a.a.C.S.A.S.'.{.{.{. X X'.S.S._.`.].].'.].'.'.[.{.{.[.{.{.{.{.{.{.{.{.[.[.[.{. X XOXOX#X#X#X#X#X$X&X$X$X$X$X$X@XOX$X&X<X1X$X'.]. X].'.{.OX$X&X<X<X<X<X<X<X<X#XC.`.@X&X<X<X3X3X1X1X3X3X1X<X<X&X<X<X&X&X&X&X<X<X&X&X<X<X<X&X&X&X*X&X%X&X#X@X#X@X.X/ s s 4 4 4 j M x x V j a s 4 < : f V j j c I B 3 3 * * 4 U B T u.u.x.x.x.u.y.4.4.:.:.:.:.:.;.;.:.:.:.:.:.:.:.:.:.:.:.:.1.:.:.7.7.:.:.:.7.7.:.:.:.7.7.1.7.7.8.7.7.8.9.9.9.7.7.9.7.9.9.9.9.9.9.9.9.k.9.9.9.k.k.k.k.9.7.9.k.9.9.k.9.k.k.k.k.8.7.k.h.j.h.h.h.h.9.9.7.7.7.7.7.7.7.7.7.1.:.:.:.;.;.%.%.%.&. .|  .M X . .   o X X X X o . . O o o o O o o o . . o o o o o o o X o . o o o o o o # # # # # o o # # + $ $ % % + $ $ $ ; $ $ $ $ % # $ # $ + O + ",
"F.J.F.F.F.c.J.F.F.F.c.c.c.x.j.x.j.x.c.x.x.j.x.j.j.j.j.j.j.j.j.x.x.x.c.j.c.c.x.c.x.x.x.x.j.j.j.j.j.j.y.h.j.j.y.y.y.y.y.y.y.y.4.1.1.1.1.1.1.<.1.<.<.<.<.<.<.<.<.<.<.<.<.<.;.-.-.;.-.-.;.-.-.-.;.;.;.<.;.-.-.-.;.=.=.=.=.&.&.T n p.{.{.{.[.[.`._._._._._.`.'._._.S.A.A.C.C.C.a.a.a.C.A._._.'.'.{.{. X X[.A.A._._.'.'.'.].].].{.{.{.{.{.{.{.{.{.{.{.{.{.].{.{. X XOXOX@X#X#X$X$X$X&X$X&X&X&X$X#X@X$X&X<X1X&X X].{.'.'.'.OX&X&X<X<X<X<X<X<X<X{.C.{.$X<X3X1X1X3X4X3X3X3X1X<X<X1X1X1X&X&X&X&X&X<X<X<X<X<X&X&X&X&X&X&X&X&X&X#X@X#X%X XQ s a 4 4 s V x x c c j s s q * < P c j v P L h q : * * z U V =.u.x.c.u.u.y.4.4.1.1.:.:.:.;.-.;.;.:.:.:.:.:.:.:.:.:.:.:.1.:.4.7.:.:.:.:.7.7.7.7.7.7.7.7.7.7.7.7.8.8.8.8.8.7.9.9.9.9.9.9.9.9.9.9.k.9.9.k.k.9.9.k.k.k.9.k.9.9.9.7.k.8.k.k.8.7.k.j.k.k.h.7.7.7.7.7.7.7.7.7.7.7.7.7.7.:.:.:.;.;.%.%.%.$.| |  .Y s   . . o . . X o o . . o o o o o # O o . o o o o o o o o o o o o o o o o o o o o O O # @ # # + # # # # X + + + $ # # + + # + O # # $ # # ",
"F.J.J.J.F.F.F.F.F.F.c.c.c.x.x.x.x.c.c.c.c.x.c.j.j.j.x.j.j.j.c.c.x.j.x.j.c.x.j.x.x.x.x.F.j.j.j.x.x.j.h.y.h.h.y.y.y.y.y.y.y.y.y.4.1.1.<.<.<.<.1.<.<.<.<.<.<.<.<.<.<.<.<.<.;.;.*.-.;.;.=.=.;.*.;.-.;.<.<.;.=.-.-.=.=.=.=.*.&.C M A. X{.{.[.`.`._._._._._.'.`._._._.A.A.A.A.C.a.a.C.C.A._.'.'.'.{. X XOX XS.S._.`.'.].'.].`.].[.{.{.{.{.{.{.{.{.{.{.{.{.'.{.{. XOXOX@X@X#X$X$X$X&X&X&X<X<X<X&X#X@X#X$X<X1X*X X'.].'.'.'.OX&X<X<X<X<X1X<X<X&X_._.#X&X1X3X1X<X<X1X3X1X1X1X<X<X1X1X<X<X&X&X&X<X<X<X<X<X<X&X&X&X&X&X&X&X&X&X%X#X#X.X@X].B 4 4 s 4 j M j c M c j h s : X h U c j c P c 4 3 * * : F U ! w.u.c.u.u.y.4.1.<.;.;.;.;.;.;.;.:.;.:.:.:.:.:.:.:.:.:.:.7.:.:.7.7.:.:.:.1.7.7.7.7.7.7.7.7.7.7.7.7.7.8.8.7.9.9.9.9.9.9.9.9.9.9.7.7.9.9.k.k.9.9.k.k.k.9.k.k.k.9.7.9.8.k.k.8.7.k.h.j.k.h.7.7.7.7.h.k.h.7.7.7.7.7.1.:.:.:.:.:.;.;.%.%.$.$.| |  .C :   . o . . o o o o . o o o # o # o o o o o . . o o o o o o o o o o o o o # o o o O # o O # X X X X O o O + + + + + + O + + O $ O $ # # ",
"J.J.F.F.F.c.c.F.F.c.c.c.x.j.j.x.j.x.c.c.x.j.x.j.j.j.j.c.c.j.c.x.x.j.x.j.x.x.x.x.c.x.x.x.x.j.j.x.x.j.j.h.j.j.j.y.y.y.y.y.y.y.y.4.1.1.<.1.<.<.<.<.<.<.<.<.<.<.<.<.;.;.;.;.;.-.*.=.;.;.-.*.;.*.-.-.-.;.<.;.=.=.=.=.*.*.*.$.Y s B '. X{.[.'._._._._.S._._.`.`._.'._._.A.A.C.a.a.C.C.A.A._.'.'.{.{.{.{.OX X_._.`.'.`.'.'.'.'.].{.{.{.{.{.{.{.{.{.{.{.{.{.].{.{. XOXOX#X@X#X$X$X&X&X&X<X<X<X<X&X#X@X@X$X<X1X1X X'.].'.'.'.OX$X<X<X<X1X3X<X<X$XS.[.&X<X1X3X<X1X3X1X1X3X<X<X<X<X1X1X<X<X&X&X&X<X<X<X<X&X&X&X&X&X*X*X&X&X&X&X%X#X%X@X@X@Xd.s 4 s 4 a M c c V j c h q , * : L V h j C L h 0 , ; ; k F N q.u.x.x.u.y.3.1.<.;.-.;.;.;.;.;.;.%.:.:.:.:.:.:.1.:.:.:.1.:.:.7.7.:.:.7.7.1.:.:.7.7.7.7.7.7.7.7.7.8.8.8.8.7.7.7.7.7.7.7.7.9.9.9.9.9.9.9.k.k.k.k.k.k.k.k.9.k.k.k.k.k.k.k.7.7.k.k.k.k.k.k.k.h.h.h.h.h.7.7.7.7.7.7.1.1.:.:.:.:.;.%.-.%.%.$.$.|  .B X . o . . . o o X o o . o # O o o o o o o . . o o o o o o . o o o o o # # o o o O O o o O X o o o X o O O O O O $ # O + # # $ o O O O ",
"F.F.F.F.F.F.c.c.c.c.c.c.j.j.j.c.j.j.j.j.j.j.j.x.j.j.h.j.x.j.x.j.c.x.c.c.x.c.c.c.x.x.x.x.j.j.j.j.j.j.j.j.j.h.y.y.y.y.y.y.y.y.1.1.1.1.1.1.1.1.<.<.<.<.<.<.<.<.<.<.<.;.;.;.;.-.=.-.=.=.-.;.;.*.*.-.;.-.;.;.=.=.<.=.*.&.=.&.C a /  X{.{.{.].'._._.S.S._._._.'.'._._.A.A.A.A.A.C.C.C.A.S._.'.'.{.{.{.{.OXOX'.A._.`._._.`.`.`.[.{.{.{.{.{. X X{.{.[.{.{.{.].{.{.{.OXOX@X$X$X$X$X&X<X&X&X<X1X<X&X$XOX#X$X<X1X1X.X'.].'.'.].OX$X<X<X<X1X<X<X<X@XS.OX$X<X1X1X1X3X4X3X3X1X<X<X<X<X1X<X<X<X&X<X1X<X&X&X&X&X&X&X&X&X&X<X<X&X&X&X&X&X&X&X@X@X.XQ s s 4 a s B c c j M c 4 3 : * e P x h x V L t w t p y w 0 U r.u.u.u.u.y.1.<.<.;.-.-.%.%.$.%.%.:.:.:.:.:.:.:.:.:.:.:.:.:.:.:.:.:.:.:.:.7.1.1.7.7.7.7.7.7.7.7.8.7.8.8.7.7.9.7.7.7.7.9.9.9.9.7.9.9.9.k.9.k.k.9.k.k.k.9.k.k.k.k.k.k.k.k.9.k.k.k.k.k.k.k.h.j.k.h.7.7.7.7.7.7.7.7.7.:.:.:.;.:.;.-.%.%.%.%.|  .E 4   o .   o o o o o o . . . o o o o o o . . . . . o o O o o o o o o o O o o o o o o o O X X o o o o X X O O O # $ O O O O # $ O # O O ",
"F.c.c.c.c.c.c.c.x.c.c.c.x.j.j.j.j.j.j.j.j.j.j.j.j.j.j.j.j.j.x.j.x.j.j.x.j.x.c.c.x.x.x.j.j.j.j.j.j.j.x.j.j.y.y.y.y.y.y.y.4.y.4.4.4.1.1.1.1.<.<.<.<.<.<.<.<.<.<.<.;.-.;.;.=.=.=.;.*.*.;.;.;.-.*.=.=.=.*.=.-.=.;.=.*.*.*.R j h Z..XOX{.{.].'.`._.A._.A._.`.[.]._._.S.A.A.A.A.A.C.C.A._.'.'.'.{.{.{. XOXOX].A._._._._._.`.`.].{.{.{.{.{. X X{.{.{.{.{.{.].{.{.{. XOX@X$X$X&X&X&X<X&X&X<X1X<X&X$X#X$X$X&X1X1X@X'.'.'.'.].OX$X<X<X<X<X<X<X<XOX`.#X<X<X<X<X1X3X3X3X1X1X1X<X<X<X1X1X1X1X<X<X<X<X&X<X&X<X&X&X&X&X<X&X*X<X&X&X&X&X&X$X@X@X@XA.B h 4 a : f C x j V T h 3 : * = N L z z c L z p p r 7 > % w / d.d.u.u.w.<.<.;.-.-.-.%.%.$.%.;.:.:.%.%.%.:.:.:.:.:.:.:.:.:.:.:.:.1.7.7.7.7.:.:.7.7.7.7.7.7.7.8.7.8.8.7.8.8.8.7.7.9.9.9.7.9.7.9.9.k.k.k.k.9.7.7.k.9.k.k.k.9.k.k.8.8.7.8.k.k.h.7.7.h.k.h.k.k.h.h.h.7.7.7.7.7.7.7.1.:.:.:.;.:.:.%.-.-.%.%.| R C * X o . o . . . . . .   . o o o o o o . . o o o o o o o . o o o o o o o o o o o o o o O o o o o o o o X o o O O O O O O # $ # $ O O ",
"c.x.x.x.x.c.c.c.x.c.c.c.c.x.j.j.j.j.j.j.j.j.j.h.j.j.j.x.j.j.j.j.j.j.j.j.j.j.x.c.x.x.x.x.x.x.j.j.j.j.x.j.j.y.h.y.y.y.y.y.y.y.1.y.y.1.1.1.1.1.1.<.1.1.<.<.<.<.<.-.;.-.;.;.;.=.=.=.=.=.-.-.;.;.-.=.;.;.*.-.-.-.=.*.&. . .Y s C  XOXOX{.{.'.'.`._.S.S.A.S.`.[.{.'._.S.A.A.A.A.C.C.A.A._._.'.'.{.{.{. X XOX{._._._._._._._._.'.[.{.{.{.{. X X{.{.{.{.{.[.[.{. X XOXOX@X#X$X$X&X&X<X<X<X<X<X<X&X$X$X$X&X<X1X1X&X].'.'.'.'.OX&X<X<X<X<X<X<X<X X{.&X1X1X<X1X3X1X3X3X1X1X1X<X&X<X1X<X<X1X<X1X<X*X<X<X<X<X<X&X&X<X<X&X1X1X1X*X&X&X&X&X&X@X@X@X/ h s s X 3 L c c c C B 4 3 = = , G c h c F D p > % & % # o k t.d.d.u.w.<.=.-.%.%.%.%.%.%.%.;.%.%.%.%.%.-.:.:.:.:.:.:.:.:.:.1.1.7.7.7.7.1.:.:.7.7.7.:.7.7.7.7.7.8.7.7.7.7.7.7.7.7.9.9.9.9.7.9.k.9.9.9.9.9.9.9.k.k.9.k.k.7.k.k.8.7.7.7.j.k.k.k.k.k.k.j.k.k.j.h.h.7.7.7.7.7.7.7.1.:.4.:.;.:.:.-.-.-.-.%.|  .Y z X o o . o o   . . . . . o o o o o o o o o o o o o . o . o o o o o . o O O o o o o o o o o o o o o O o o o o o O o O # # $ # # O O ",
"j.j.c.x.c.x.x.x.x.x.x.x.x.x.j.j.h.j.h.j.j.x.j.j.j.j.j.j.j.j.x.j.x.j.h.j.j.j.j.x.x.x.x.x.j.j.j.j.h.j.j.j.h.h.y.y.y.y.y.y.y.1.1.4.y.1.<.1.1.1.1.<.1.1.<.<.<.<.;.;.;.;.;.;.-.=.=.;.*.*.;.*.;.<.;.=.-.-.*.-.-.*.=.*.| R Y C j r.@X.X X{.{.'.'._._.S._._._._.'.].'._._.A.A.A.A.C.C.C.S._.'.'.'.{.{.{. XOXOX{._._._._._._._._.'.].{. X{.{.{. X X{.{.{.{.{.{.{.{. XOX@X#X$X$X&X<X<X<X<X<X<X<X<X&X$X#X$X&X<X1X1X&X X'.'.'.'.OX&X<X<X<X3X<X<X$X{.OX&X1X3X<X1X1X3X4X3X3X1X<X<X<X<X1X1X1X1X1X<X&X<X<X&X<X<X<X<X<X<X<X1X1X1X1X1X1X1X&X&X$X@XOX@XS.L z s * : B P j j j C h e , = = g K z c k w > # # # # @ . o U s.d.u.u.<.;.-.%.%.%.%.$.%.%.%.%.%.%.%.%.%.:.:.%.:.-.-.:.:.:.:.1.:.:.:.:.:.:.7.:.7.:.7.7.7.7.7.7.7.7.7.7.7.7.7.7.9.9.9.9.9.7.9.9.9.7.7.9.k.k.k.k.9.k.k.k.k.k.8.k.k.k.k.k.k.k.k.h.k.k.h.k.k.h.h.h.7.h.7.7.7.7.7.4.:.:.:.:.:.;.-.-.,.-.%.%.| R T e X o . o o . . o . . . o o o o o o o o o . o o . o o o o o o o o . o # o o o o o O o o o o o o o @ # o o o o o o # # O O O O O O ",
"j.j.k.c.c.c.j.j.j.j.c.j.j.j.j.j.x.j.x.j.j.j.j.j.j.j.j.j.j.j.j.x.j.j.j.j.x.j.j.j.x.x.x.x.j.h.h.j.h.h.j.y.y.y.y.y.y.y.y.4.1.4.4.4.y.4.4.1.1.<.<.<.1.<.<.<.<.<.<.<.<.;.;.-.;.-.-.-.-.=.-.=.<.;.<.=.=.*.=.=.=.=.*.*. .Y Z c U {.@XOX X{.{.].'.`._.S.A._._.`.].].'._.S.A.A.C.A.A.C.C.S._._._.'.[.{.{. X XOXOX]._._._.S._._._.`.].{.{.{.{. X X X{.{.{.{.[.[.{.{. XOXOX#X$X&X&X<X<X<X<X<X&X&X<X&X$X@X#X&X<X<X<X&X{.'.].'.].OX&X<X<X3X3X<X<X#X{.#X<X1X1X1X1X1X3X3X3X3X<X<X<X<X<X<X<X<X<X<X<X<X&X<X&X<X&X<X<X<X1X1X4X3X1X1X1X<X<X<X&X&X$X@XOXOXS./ B 4 * 4 P c j c C V e 0 > % 7 z l r 6 % # # @ @ . . @   r _ d.u.w.=.=.*.%.$.$.$.%.$.%.%.%.%.%.%.%.;.:.:.:.:.:.:.:.:.:.:.:.:.:.:.:.:.1.:.7.7.:.:.7.7.7.7.7.8.7.7.7.7.7.7.7.7.8.7.9.9.9.9.9.9.9.7.7.k.9.9.k.k.9.9.7.7.k.k.7.k.7.7.k.k.9.7.7.7.7.7.9.k.k.k.k.7.7.7.7.7.7.7.7.1.:.:.:.:.;.;.;.:.-.$.%.| |  .C : . .   X X . . . . . o o o o o o o o o o o o o . . . o o o o o . o o o o o o o o o o o o o o # # o o # O o o O O O O O O O # # ",
"j.h.j.j.j.j.j.j.j.j.j.j.h.j.j.x.j.x.x.j.j.j.j.j.j.j.j.h.h.j.h.h.x.x.x.x.x.j.x.x.j.x.j.x.j.j.j.x.j.j.j.j.y.y.y.y.y.y.y.4.1.4.4.4.4.4.4.4.1.1.1.1.<.<.<.<.<.<.<.<.<.;.;.-.-.-.-.-.-.-.-.=.=.=.=.=.=.*.=.=.*.&.&. .R Z V P S.@X XOX X[.[.[.[.`._.S.S.S._.`.].[.].`._.S.C.C.C.A.C.C._._._._.'.[.{.{. X XOXOX{._._._._.S._._.`.'.[.{. X X X X{.{.{.{.{.{.{.{. X XOXOX#X$X&X&X<X<X<X<X<X<X<X<X<X&X#X$X&X<X<X<X&X X'.].'.].OX&X<X1X1X1X<X<X@X X$X<X3X3X1X3X3X3X1X1X1X<X<X<X<X<X<X<X<X<X<X<X<X&X<X<X<X&X<X<X1X1X3X4X4X1X1X1X<X<X<X<X&X&X@X XOX@X@X'.) z * s P j j V P x 3 9 6 7 i r & % # @ @ . . . . @ . # K r.u.w.<.<.-.*.%.%.$.%.$.$.%.%.%.%.-.%.-.;.-.:.:.:.:.:.:.:.:.:.:.:.:.:.:.:.:.:.:.:.:.7.7.7.7.7.7.7.7.8.7.7.7.8.7.8.7.9.9.9.9.9.9.9.9.9.9.9.7.7.9.9.9.7.8.k.k.8.k.k.k.k.8.8.9.7.7.7.8.8.k.k.k.k.9.7.7.7.7.7.7.7.:.:.:.:.:.:.:.:.:.%.%.%.$.| | Y z o   # o X . . . . o o o o o o o o o o o . o . . . o o . o o o o o o . o o o o o o o o o o O O # # O O o O O O o # # # # # # # ",
"y.y.h.h.h.h.h.h.h.j.j.x.j.j.j.j.j.j.j.j.j.j.j.j.j.j.h.h.y.h.h.y.x.x.j.x.x.x.x.j.j.x.x.x.x.x.x.x.y.y.j.y.y.h.y.y.4.y.y.y.4.y.y.y.y.4.1.4.1.1.1.1.<.<.;.<.<.;.<.<.<.<.;.=.-.-.-.-.-.-.-.=.=.=.=.=.=.*.=.=.=.&. .Y Y V C Z.#XOXOXOX{.[.[.[.`._._.S._._._.`.'.[.].`._.S.S.A.A.A.A.S._._._.`.'.[.{.{. X XOXOX{._._._._._._._._.'.[.{.{.{. X X X{.{.{.{.{.{.{.{. XOX@X#X$X&X&X<X<X<X<X<X<X<X<X<X&X$X$X<X<X<X<X<XOX'.].].].OX<X<X<X3X1X<X&XOXOX<X<X3X3X1X3X1X1X1X1X1X<X<X<X<X<X<X<X<X<X<X<X&X&X&X<X<X<X1X1X1X3X4X4X4X1X1X1X<X<X1X1X&X&X@XOX X.X@X@X@X X) z M V c c C L u r i r 9 1 # # # . . .     . . @ . > ! d.w.=.=.=.-.*.-.$.$.$.$.%.$.%.%.%.%.%.;.%.:.:.-.-.:.:.:.:.:.:.:.:.:.:.:.:.:.:.7.:.7.7.7.7.7.7.7.7.7.7.7.7.7.7.7.7.7.9.9.7.7.7.7.9.9.9.9.7.7.7.7.9.7.k.k.k.8.k.7.7.7.7.8.k.k.7.7.8.8.j.k.9.k.9.7.7.7.7.7.7.1.1.:.:.:.:.:.:.:.;.;.%.%.%.$.|  .T e X o . . o . . . . . . . . . o . o o o o o . . o o o . . o o o o o o o o o O o o o o o o O o o O o o # # o O o O # # O O # # ",
"1.4.y.y.y.y.y.h.y.x.j.l.h.h.j.j.x.j.x.h.x.h.x.x.h.h.h.h.h.h.h.y.j.j.j.j.j.j.h.h.x.x.j.j.j.h.j.j.y.y.y.y.y.y.y.y.y.y.y.y.y.4.4.4.4.4.1.3.4.1.1.1.<.<.<.<.<.<.<.<.<.<.;.=.-.=.-.=.-.-.-.=.*.=.=.*.=.*.*.*.$.&.Y I V C r.@X+X XOX{.[.[.`.[.`._._.S._._._.`.].[.].`._._._.A.C.A.C.S._._._.`.].{.{.{. XOXOXOX{.`._._.S.S._._._.'.[.{. X X X X X X{.{. X{.{.{.{. XOX#X$X$X&X&X<X<X<X<X<X<X<X<X&X$X$X$X&X<X1X<X<XOX'.].].'.OX<X1X1X1X1X<X&XOX@X<X<X<X1X3X3X3X3X1X1X1X<X&X<X&X&X<X<X<X<X<X<X<X&X&X<X<X<X3X3X4X4X4X4X3X1X<X&X&X<X<X1X&X&X@XOX X.X@X@X@X@X%XA./ I V C V G m r i 9 & # # @ @   .           . @   w ) r.=.*.-.*.$.%.$.$.$.$.$.$.$.%.%.%.%.%.%.;.:.%.%.:.:.:.:.:.:.:.:.:.:.:.:.:.:.7.:.7.:.:.7.7.7.:.:.7.7.7.7.7.7.7.7.9.9.9.9.7.7.7.9.9.7.9.9.8.9.9.9.7.8.k.k.7.8.8.7.8.8.k.8.8.k.9.8.7.8.8.8.8.9.7.7.7.7.7.7.7.7.7.1.1.:.:.:.:.%.%.%.%.%.$.| |  .I < X .   o . . . o o o o . . . . o . o o o o o o o o o o o o o o o . o o o o o o o o o o o o o o o O # # O O O O # # O O # # ",
"<.<.4.1.1.4.y.y.h.j.x.h.h.h.h.h.h.x.h.h.h.h.h.j.x.x.x.h.j.h.h.y.j.j.j.j.h.j.j.j.j.x.x.x.j.y.j.j.y.y.y.y.y.y.y.y.y.y.y.y.y.y.y.4.y.4.3.4.<.4.1.4.4.1.<.<.<.<.<.<.;.;.-.=.=.=.-.-.-.-.-.=.*.*.*.&.*.&.&.&. .Y Y C L a.@XOX+XOXOX X{.[.`.`.`._._._.S._._.`.'.{.{.'._._._.A.A.A.S.S._._.`.'.].{.{. X X XOXOX X]._._._._._._._.`.].{.{.{. X X X X X{. X X{.{.{. XOX#X$X$X&X&X<X<X<X<X<X1X1X<X<X&X$X$X&X1X1X1X1X$X].{.{.].OX<X1X1X1X<X&X$XOX$X<X<X<X1X3X3X1X3X3X1X1X<X<X<X<X<X<X<X<X<X<X<X<X<X<X<X<X1X4X4X4X4XrX4X3X1X<X<X&X<X1X1X<X&X@X.X X@X@X@X@X@X@X%X.Xr.P c M N m r 9 5 # # # @ .         . .     @   . z t.=.=.o.$.$.*.$.$.$.%.$.$.$.%.%.%.%.%.%.;.%.%.%.:.:.:.:.:.:.:.:.:.:.:.:.:.:.7.:.:.:.7.7.7.7.:.:.7.7.7.7.7.7.7.7.7.7.9.7.7.7.7.9.9.9.7.9.9.k.9.9.k.k.k.k.k.k.k.k.k.k.8.8.8.8.9.7.7.7.8.8.7.7.7.7.7.7.7.7.7.7.7.7.7.1.:.:.:.%.%.;.%.%.$.$.| |  .c = o   . . . . o o o o o o o o o o o o o . . o o o . o o o o o o o o o o o o o o o o o o o o o O # o o O O o o # # # # # # ",
"<.1.4.4.1.4.4.y.y.y.y.y.y.y.h.h.h.h.h.y.h.h.h.h.j.j.h.h.h.h.h.h.j.j.j.y.y.y.h.j.j.j.j.x.j.y.j.y.y.y.y.y.y.y.y.y.y.y.y.y.y.y.4.4.4.1.4.y.<.1.<.1.1.<.<.<.<.;.<.<.;.;.=.*.=.=.=.-.*.*.=.*.*.*.*.*.&.&. . . .Y V L a.@X+X+XOXOX X X{.[.[.`._._._.A.A._._.'.[.{.{.].`.`._.A.S.C.S._._.`.'.].[.{.{. X X X XOXOX[._._._._._._._._.'.[.{.{. XOX X{. X{. X{.{.{.{.{.OX@X#X&X&X<X<X<X<X<X<X<X1X<X<X<X$X$X$X1X1X1X3X&X{.]. X{.OX&X1X1X3X<X&X$XOX$X&X<X1X3X1X1X<X1X3X3X1X1X<X<X<X<X<X<X<X1X<X<X<X<X1X<X1X4X4X3X4X4X4X4X4X1X1X<X<X1X1X1X1X&X@X.XOX@X@X&X@X@X#X@X%X.Xq.V B B y 9 7 # # @ @ . . .       . .   . @ @ . # Q q.=.*.*.*.*.| | $.$.$.$.%.%.%.%.%.%.-.;.%.:.:.:.:.:.:.:.:.:.:.:.:.:.:.:.:.:.:.:.7.7.7.7.7.7.:.:.:.:.7.7.7.7.7.7.7.7.8.8.7.9.9.9.9.9.7.9.9.7.7.k.9.7.k.k.k.k.k.k.k.7.8.7.7.7.7.7.8.k.8.7.7.k.8.7.7.7.7.7.7.7.7.1.:.:.:.:.;.;.;.%.%.%.$.| | | Y g X   . X . . o . o . . o o o o o o . . . . o o o o o o o o o o o o o o . o o o o o o o o O O o o o O # o o o o O # # # O ",
"u.3.<.4.4.3.1.4.4.4.y.y.y.y.y.y.y.y.h.y.h.h.h.h.j.h.h.x.x.h.h.h.y.h.j.j.j.j.y.y.j.j.j.j.h.h.h.h.y.y.y.y.y.y.y.y.y.y.y.y.y.4.4.4.1.1.4.1.<.<.<.1.1.<.<.;.<.;.;.-.=.*.*.=.*.*.*.*.*.*.=.*.*.*.*.*.&.&. . .E C U A.@X@X+XOXOXOX X{.{.[.`.[._._._.A.A.A._.'.{.{.{.[.'.`._.S.S.S.S._._.'.'.'.].{.{.{.{. X XOXOX[._._._._._._._._.'.[.{.{. X X X X X X X X{.{.{. XOX@X#X&X&X<X<X<X<X<X<X1X3X<X<X<X$X$X$X<X<X1X1X&X{.{.{.{.OX<X<X<X3X1X<X#X@X&X<X1X3X4X4X1X<X<X<X4X3X<X<X<X<X<X<X<X<X<X<X1X1X1X3X3X3X4X4X4X3X4X4X4X1X1X<X<X<X<X1X<X<X$X@X@X@X@X@X@X$X&X#X#X@X@X.Xq.L g 3 1 % # @ @ @ . . .         . . @ @ @ @ . w ) =.=.=.*.$.| | | | | $.%.%.%.%.%.%.%.-.%.%.-.:.:.%.:.:.:.:.:.:.:.:.:.:.:.%.:.:.:.:.7.7.7.:.:.7.7.:.7.7.7.7.7.7.7.7.8.8.7.9.9.9.7.7.7.8.9.7.7.7.7.7.7.9.8.k.k.k.k.k.8.8.7.k.k.7.k.8.8.8.7.8.8.7.8.7.7.7.7.7.7.7.:.:.:.:.:.;.;.;.%.-.%.$.| | E P 3 . X X . o . o . . . . o o . o o o . o o o . . o o o o o o o o . o o o o o o o o o o o O O o O o O O O o o O O O o # O ",
"eX%XJ.w.<.<.1.y.4.3.y.4.y.y.y.y.y.y.y.y.y.y.h.j.j.j.h.h.j.y.h.h.y.y.y.y.j.j.h.j.x.j.j.y.h.j.j.j.u.y.y.y.y.y.y.y.4.y.4.4.y.4.3.1.1.1.4.<.1.<.<.<.<.<.;.;.;.;.-.;.*.*.*.*.*.$.*.*.$.| *.&.&.&.&.&. .&.E Y T ^ A.@XOX+X+XOXOX X{.{.{.[.[.[._._.A.C.A._._.'.{.{.{.[.].`._._._.S.S._.`.'.'.].[.{.{.{.{. X XOXOX{._._._._._._._._.'.[.{.{. X X X X X X XOX X{. XOX@X#X$X&X&X<X<X<X<X<X<X<X3X<X<X&X$X$X$X<X<X<X3X<X X{.{. X#X<X<X1X4X1X<XOX#X<X<X1X4X4X4X3X1X<X<X3X3X1X1X<X<X<X<X<X<X<X3X4X3X3X3X4X4X4X3X4X4X4X4X4X1X1X<X1X1X1X<X<X&X@X@X.X@X@X$X@X$X&X&X&X#X@X@X.X/ u 1 % # @ . . . . . .       . . . @ @ @ @ & $ B q.=.*.$.*.$.| $.$.$.$.$.%.%.%.%.%.%.%.%.%.:.:.%.%.%.:.:.:.:.:.:.:.:.:.:.:.:.:.:.:.:.:.7.7.7.7.7.7.7.7.7.7.7.7.7.7.7.7.7.7.7.7.7.7.7.7.9.7.7.7.7.7.8.8.7.7.7.k.k.8.8.8.k.k.k.k.k.k.8.8.7.8.8.8.k.h.7.7.7.7.7.7.7.:.:.:.:.:.;.;.;.%.%.%.$.| | Y V * X . . o X . . . o o o o o o o o o . . o o o . o . o o o o o o o o o o o o o o o o o # # o O o o o o o O # o o o O o ",
"hXAXgXeXoXZ.y.3.3.w.3.4.w.1.y.y.4.4.1.y.y.y.y.y.h.h.y.y.y.y.y.y.y.y.y.y.y.y.u.u.j.h.y.y.y.h.y.j.y.y.y.y.y.y.y.y.y.4.4.4.4.4.1.1.1.<.1.<.1.<.<.<.<.<.<.;.;.;.-.=.*.*.*.*.*.o.o.*.$.o.$.| | |  . .E E Y T r..X$XOX+X+XOXOX X X{.{.{.[.`.'.`._.A.C.A._.`.].{.{.{.{.].'.`._._._._._.`.'.'.'.].{.{.{. XOXOXOX@X X_._._._._._._._.'.[.[.{.{. X X X X X X X X X{. XOX#X$X&X&X<X<X<X<X<X<X<X1X<X<X&X&X&X&X<X<X<X3X3XOX{. X X#X<X<X3X4X1X&XOX#X<X<X1X4X4X3X1X3X1X<X<X1X3X1X1X<X<X<X<X<X1X3X4X4X3X4X4X3X3X1X4X4X3X4X4X1X<X<X<X1X1X<X<X&X@X@X@X@X@X$X@X&X&X&X&X&X&X@X%X.XD # & # .     . . . . .   . . . . @ @ @ % & 1 3 ~ =.=.*.o.| | $.$.$.$.$.%.%.%.%.%.%.%.%.%.-.:.%.%.%.%.:.:.:.:.:.:.:.:.:.:.:.:.:.:.:.:.:.:.7.7.:.:.7.7.7.7.7.7.7.7.7.7.7.7.7.7.7.7.7.7.9.9.9.9.7.7.9.9.7.9.k.k.8.8.8.8.k.k.k.k.k.k.8.8.7.7.7.8.k.j.7.h.7.7.7.1.1.:.:.:.:.:.:.;.;.%.%.%.*.$.$.| R j X   o . . .   . . . . . . o o . . . . o o o o o o o o o o o o o o o o o o o o O # o # O o O O o o o o O O O o o # o ",
"nXbXNXNXnXgX*X.Xd.2.<.<.4.1.4.:.1.y.1.4.y.1.4.4.4.y.y.y.y.y.l.y.y.y.y.y.u.u.u.u.y.y.y.y.y.y.y.y.y.y.y.y.y.4.4.4.4.4.1.1.1.1.1.1.<.<.<.<.<.;.;.<.;.;.<.=.=.=.*.*.*.&.=.*.*.&.&.*.&.&.&.&. .|  .R T I =.S.@X$X@XOXOXOXOXOX X{.{.{.{.`._.`._._.A.A.S._.'.[.{.{.{.{.{.].'.'._._._.`.'.'.'.'.].{.{. XOXOXOX@XOXOX_._._._.`._._._._.'.'.].{.{.{.OX X X{.{.{. X{. XOX#X&X&X<X<X&X<X<X<X1X<X3X4X3X<X$X&X&X<X1X4X1X3X$X{. XOXOX&X1X3X3X<X$XOX$X<X<X1X3X4X3X1X<X<X1X1X<X3X1X3X<X&X<X<X1X3X3X4X4X4X4X3X3X3X3X3X4X3X4X1X<X&X&X&X<X1X<X<X&X@X@X@X@X@X&X$X&X*X&X&X&X&X&X%X*XC.2 # . .                 . . . # # % & & & 1 1 D r.=.*.o.o. . .$.| | | | $.%.%.%.%.%.%.%.;.;.%.;.%.;.-.-.:.-.-.:.:.:.:.:.:.:.:.:.:.:.:.:.:.7.7.7.7.7.7.7.7.7.8.7.7.7.7.7.7.9.7.7.7.7.8.9.9.9.9.9.k.9.9.k.k.9.8.8.7.7.7.k.8.7.7.7.8.k.7.7.7.7.7.7.7.7.8.7.7.:.:.:.:.:.:.:.:.%.%.:.%.%.$.| $.| | Z a   .     .     . . . o . . . . . o o o o . . . o o o o o o o . o o O o O o O o O O O o o O # O o o o o o # o o O O ",
"bXbXbXfXnXvXgXdXeX%XJ.u.w.<.<.1.y.4.<.1.1.<.<.4.4.4.4.y.y.y.y.y.y.y.y.y.y.y.y.y.y.y.y.y.y.y.y.y.y.y.y.y.4.4.4.1.4.4.1.1.1.1.1.<.<.<.<.<.;.;.;.;.;.;.<.=.=.=.*.*.$.*.*.*.*.*.&.| &. .&.| |  .R I ! d.@X&X@X@XOXOXOXOXOX X X{.{.{.{.`._.`._._.S.A._._.`.].{. X X{.{.{.].'.`.`._.`.'.].].].[.{. X X XOXOX@XOXOX_._._._.`._._.`.`.'.].[.{.{. XOX X XOX X X{.{. XOX#X$X&X&X<X<X&X<X1X3X1X3X3X1X<X&X&X&X<X1X1X<X4X&X{. XOX@X$X<X1X1X<X$XOX&X<X<X1X4X4X3X1X3X<X<X<X<X<X1X1X<X<X<X<X3X3X4X4X4X4X4X3X4X4X3X3X4X3X3X1X<X&X&X<X<X1X<X<X&X&X@X@X@X&X&X&X&X&X&X*X*X&X&X&X#XOXK # @ .       . .         # % & & 7 7 7 1 1 2 l Q =.*.=.$. . .$.| | $.$.$.%.%.%.%.%.%.%.%.%.%.;.%.:.%.%.-.%.-.:.:.:.:.:.:.:.:.:.:.:.4.:.:.7.7.7.7.7.7.7.7.8.7.7.7.7.7.7.7.7.7.7.7.7.7.9.9.9.7.9.9.9.9.k.k.k.7.7.8.8.k.k.k.k.k.8.8.7.7.7.7.7.8.7.7.7.7.7.7.:.7.:.:.:.:.:.:.;.;.;.%.%.%.%.$.| | | C : X o . .     . . . . . . . . . o . o o o . o o o o o o o o o o o o o o o o o o o o o o o O o o o o o o o o o o o ",
"fXbXhXhXgXfXbXfXdXgXgXtX*X.XZ.w.<.w.4.4.4.:.1.3.3.<.3.4.y.y.y.y.y.y.y.y.4.y.y.y.y.y.y.y.y.y.y.y.y.y.y.4.4.y.y.y.y.1.1.4.<.<.<.<.<.<.<.<.;.;.;.;.-.;.=.&.&.&.*.&.| &.*.&.&.&.&. . . . . . .T ! r..X&X@X@X@XOX XOXOXOXOX X X{.{.{.{.'._.`._._.S.A._._.'.[.{.{. X{.{.[.].].].`.`.`.'.].[.{.{. X X XOXOXOXOX@XOX'._._._._._._.`.'.'.].[.{.{.{.OX X XOXOX X{.{.OXOX#X$X&X<X<X<X&X<X3X3X1X1X1X1X<X<X&X&X<X<X<X<X4X<X X XOX#X&X<X3X3X<X$X@X<X<X<X3X4X3X3X3X3X3X<X<X<X<X<X<X<X<X&X<X<X1X3X4X4X3X3X4X3X4X3X3X4X3X1X1X<X&X<X<X1X1X<X<X&X$X@X@X&X&X&X&X&X&X&X&X&X&X&X&X@X$X_ % . .           . . . # & 5 & 5 7 7 7 1 7 1 8 x E | *.| |  .| | | | $.$.%.$.%.$.%.%.%.-.%.%.-.%.;.%.%.-.%.%.:.:.:.:.:.:.:.:.:.:.:.:.:.:.:.7.7.7.7.7.7.7.8.8.7.7.7.7.7.7.7.7.7.7.7.7.7.9.9.9.9.k.9.9.k.k.9.8.8.8.7.8.k.8.8.8.8.8.8.8.7.8.8.9.8.7.7.7.7.7.7.7.4.:.4.:.:.:.:.:.;.%.%.%.$.%.$.| | R j : X . . . . o . . . . . o o . o . o o o o o o o o o o o o O o o o o o o o o O O O O o o # O o o o o o o o o o o ",
"fXgXdXfXfXdXbXfXvXuXgXgXnXNXeX%XP.u.y.y.4.4.4.4.4.<.<.1.1.1.4.y.4.4.y.4.y.y.y.y.y.y.y.y.y.y.4.1.y.y.3.3.3.4.3.3.3.4.<.1.<.<.<.<.<.<.<.<.<.=.=.=.=.;.=.&.&.&.&.&. .| | | | |  . . .E R R T q.'.@X@X@XOXOXOX@XOXOXOXOXOX X{.{.[.[.[.]._.'.`._.A.A.S._.`.[.{.{.{.{.[.[.].].'.`.`.'.].].{.{.{. XOXOXOX@X@X@X@XOX]._._._._._.`.`.'.'.[.[.{.{.{. X{.{.OXOX X X{. XOX#X&X&X&X<X&X<X<X3X1X1X3X<X1X<X<X&X&X&X<X3X1X3X<XOX XOX$X<X<X3X4X<X$X@X<X<X1X3X4X1X1X1X3X3X1X<X1X<X<X1X<X<X<X<X<X1X4X4X4X3X4X4X4X4X4X4X4X3X1X3X<X&X<X1X1X3X1X*X&X@X@X@X$X&X&X&X&X&X&X&X&X&X&X&X@X&X`.9   . .   . . . # % % & 5 5 5 7 7 7 > 5 1 & 1 e P &.$.o.o. .$.| | $.| $.$.$.$.$.%.%.%.%.%.%.%.%.%.-.:.:.-.-.:.:.:.:.:.:.:.:.:.:.:.:.:.:.:.7.7.7.7.7.7.7.7.8.8.7.7.7.7.7.7.7.7.7.7.7.9.9.9.9.9.9.9.7.9.9.k.8.8.8.8.7.8.7.7.8.8.8.k.8.7.7.8.9.9.7.7.7.7.7.7.7.7.7.:.:.;.;.:.:.;.%.%.%.%.%.%.$.| | Z s X X @ . . o . . o . . o o o o o o . o o o o . o o o o o o o o o O o o o o o o o o o O O o o o o o o O o o O O ",
"dXfXfXfXdXfXfXfXuXiXdXiXfXgXnXgXuXuXoXP.u.y.<.3.4.<.4.1.1.1.4.4.3.4.y.y.y.4.4.4.4.y.y.y.4.4.3.4.3.3.3.4.3.<.3.3.1.<.<.1.<.;.;.;.;.<.<.<.<.;.=.;.;.;.=.&.&.&.&.&. . .| | |  . . .R Y E =.A.%X&X@XOX@X@X@X@X@XOXOXOXOXOX X{.{.{.[.[.`._._._._._.S._._.`.[.{.{.{.{.{.{.{.{.].'.`.'.'.{.{.{. XOXOXOX@X#X#X@X@XOX[._._._._.`.'.'.'.].].[.{.{.{.{. X X X X X X{. XOX#X$X&X&X<X<X<X<X1X1X3X3X3X1X<X<X&X&X<X<X1X3X3X4XOXOX@X$X&X<X4X4X<XOX#X1X<X<X3X4X1X1X1X1X1X1X3X4X1X<X1X1X<X<X<X3X4X4XrX3X3X3X3X3X4X4X4X4X3X<X<X<X&X<X1X<X<X<X&X&X@X@X&X&X&X<X&X&X&X*X&X&X&X&X&X@X@X{.p . .     . # # & & 5 5 5 5 & 5 7 7 7 7 1 & 7 0 x &.$.$.|  . .$.| | $.| $.%.%.%.%.%.%.%.%.%.%.%.-.%.%.:.%.%.:.-.-.:.:.:.:.:.:.:.:.:.:.:.:.:.7.7.7.7.7.7.7.7.7.7.7.7.7.7.7.8.8.7.7.7.9.9.9.9.9.7.7.9.k.k.k.9.9.7.7.7.7.7.8.9.8.k.k.8.7.7.7.8.k.8.8.7.7.7.7.7.4.7.7.:.:.:.:.:.:.:.;.%.%.%.$.$.| | Z Z 3 . o @   . o . . . . . . . . . o o o o o o o o o o o . . o o o o o o O # o o o o o o o o o o o o o o # # # # ",
"iXiXiXfXiXdXiXdXyXiXuXuXfXfXfXdXhXhXgXdXqX%XP.u.<.3.3.3.y.4.4.3.y.y.y.3.<.3.4.y.1.4.4.4.4.3.4.4.3.3.3.3.3.3.3.3.1.<.<.<.<.;.;.;.=.;.;.;.<.=.=.*.*.&.&.&.&.&.&. . .R R  . .E E T E =.Z..X#X#X#X@XOX@X@X@X@XOXOXOXOX X X{.{.{.{.{.]._._._._._._.S.S._.'.{.{.{.{.{.{.{.{.{.[.].'.'.].{.{.{.OXOXOXOXOX@X@X@XOXOX[._._._.`.'.`.].].'.].[.{.{.{.{. X XOXOX X{. X XOX#X$X&X<X<X<X<X<X<X<X1X1X3X3X<X<X&X<X<X<X1X3X4X4X@XOX#X$X$X1XrX4X<X@X$X<X1X1X4X3X3X4X3X4X3X1X3X3X<X<X<X<X<X<X1X3X4XrX4X3X3X3X4X4X4X4X4X4X3X<X<X<X<X1X<X<X<X<X&X&X$X$X&X&X&X<X<X&X1X1X1X&X&X&X&X@X@X{.l . .     # & & 7 7 7 7 7 5 & 5 7 & 5 7 5 & 7 1 w U *.$.$. . .$.| | $.$.$.$.$.$.%.%.%.%.%.%.%.;.:.%.%.-.%.%.:.:.-.:.:.:.:.:.:.:.:.:.:.:.:.:.7.7.7.:.:.7.7.7.7.7.7.7.7.7.7.7.7.7.7.7.7.k.7.7.9.k.9.9.k.k.k.7.7.7.9.9.7.8.8.8.8.8.8.j.k.7.7.8.8.8.7.7.7.7.7.7.4.7.7.:.4.:.:.:.:.:.;.%.%.%.$.$.| $.| Y V * o o . . o .   . . . . . . . . o o . o o O o o o o o . o o o O o o # # o o o o o o # o o o o o o o o o # # ",
"dXiXiXdXiXiXyXuXyXiXdXfXdXfXdXdXfXuXfXgXgXgXuXeX%XoXZ.u.u.2.u.3.<.w.3.y.y.3.3.4.3.1.1.1.1.1.1.3.3.<.3.3.3.<.3.<.<.<.<.<.<.;.;.=.=.=.=.=.=.=.=.&.&.$.&.$.&.&. . . .R R  .E R T / d..X%X#XOXOX@X@XOX@X+X+XOXOXOXOX X X X{.{.{.{.[.'._._._._._.A.C.A._.].{.{. X X{.{.{.{.{.{.{.[.{.{. X X XOXOXOXOXOX@X@X@XOXOX[._._._.`.`.'.].].].].[.{.{.{. X{. XOX X X X{. XOX#X$X&X1X1X<X<X<X<X<X<X<X1X3X<X<X<X<X<X<X1X4X4X4X$XOX#X$X&X1X4X3X<X$X$X<X3X3X4X3X4X4X3X4X4X1X1X1X<X<X1X<X<X<X1X3X4XrX4X1X3X1X3X3X3X4X4X4X3X1X&X<X1X<X<X<X<X<X&X&X$X@X&X&X&X&X&X&X&X<X&X&X&X&X$X@X.X].l . . # & 7 7 7 7 7 7 7 7 & 5 5 5 & & & 5 5 5 1 > x &.&.&.&. .| | | | $.| | $.| %.%.%.%.%.%.%.%.%.%.%.%.%.%.:.-.-.:.:.:.:.:.:.:.:.:.:.:.:.7.7.7.:.:.:.7.7.7.7.7.7.7.7.7.7.7.7.7.8.7.7.9.7.9.9.9.9.9.9.k.9.8.8.k.k.8.7.8.8.7.7.7.7.8.k.7.8.7.8.7.7.7.7.7.7.7.7.7.:.:.4.:.:.:.:.;.;.-.%.%.$.$.$.$.$.|  .h + X o o . . . . . . . . o o . . . . o o O . . o . . . . . o o o o O O o o o o o o # o o o O O o o o o O O ",
"dXdXiXdXiXiXiXdXiXuXdXdXuXdXyXuXdXdXdXdXfXdXdXdXgXdXrX1XoX XC.u.3.<.<.3.3.3.3.y.y.<.<.1.1.1.1.1.<.<.<.<.<.<.<.<.<.<.=.<.<.=.=.=.=.=.&.=.=.&.&.&.&.&.&.$.&. .&. .R Y Y E &.q.Z..X#X$X#XOX@X@X@X@X@XOXOXOXOXOXOXOX X X X{.{.{.{.{.'._._._.S.S.A.C.C._.].{.{. X X X X{.{.{.{.{.{.{.{.OXOXOXOXOXOXOX@X#X@X@X@XOX[._._._._.'.'.'.'.'.'.].{.{.{.{.{.{. XOX X{. X XOX@X$X<X<X<X<X<X<X<X<X<X<X3X3X<X<X<X<X<X<X<X3X4X4X&XOX$X&X&X<X3X3X1X#X$X1X3X3X4X4X4X1X<X3X4X3X3X3X<X<X<X1X<X<X<X3X4X4X4X1X3X1X3X3X3X4X4X4X3X<X<X<X<X3X<X<X<X<X&X&X@X@X&X&X&X<X&X&X&X<X&X&X&X&X&X@X.X'.l # 5 7 9 7 7 7 5 & 7 7 7 5 & 5 7 & & & 7 5 5 7 1 4 P &.&.|  .| | | | | | $.$.| %.%.%.%.%.%.%.| $.%.%.%.%.%.:.:.%.-.:.:.%.%.:.:.:.:.:.:.:.:.7.7.7.7.:.:.7.:.7.7.7.7.7.7.7.7.7.8.7.7.7.9.9.9.9.7.7.k.9.9.9.j.8.8.k.9.7.7.7.k.k.8.7.7.7.7.7.k.8.7.7.7.7.7.7.7.7.7.:.4.7.4.4.4.:.:.;.:.;.%.%.%.$.$.%.| | Y s + o o o o X o . . . . o o o . . o o o o . . . . . o . . . o O o o O o o o o O o o o o o # # o o # # O O ",
"uXyXiXdXiXyXyXuXdXfXuXuXiXiXuXdXdXfXdXuXuXyXyXyXiXiXyXdXyXdXtXtX%X.XP.Z.u.w.u.w.1.=.=.1.1.1.<.<.<.<.<.<.<.=.*.=.<.<.;.;.;.;.=.=.=.*.%.$.*.=.&.=.=.*.&. .E E E E &.=.u.S..X@X&X#X#XOX#X@XOXOX@X@XOXOXOXOXOXOXOXOXOXOX X{.{.{.{.[.'._._._.S.S.C.C.A.'.[.{.{. X X{.{.{.{.{.{.{. X XOXOXOXOX@X@XOXOX@X#X#XOXOXOX[._._._.'.'.`.'.].].].[.{.{.{.{. XOX X X X X{. XOX#X&X<X<X<X<X<X<X<X<X<X1X3X3X1X<X<X&X&X<X1X4X4X4X&XOX$X&X&X1X3X4X<X@X$X<X1X4XrXrX4X3X1X1X3X4X3X3X<X<X1X<X<X<X1X3X4X4X4X4X1X1X3X3X4X4X4X4X1X<X<X<X<X3X3X1X1X<X&X$X$X@X$X&X&X&X&X&X&X<X<X&X&X&X&X@X X_.H 7 9 9 7 7 7 7 7 7 7 7 7 5 7 5 & & & & 7 5 & 5 7 , z ..*.*.|  . . . .| | | $.| $.%.%.%.%.$.$.| | %.%.%.%.-.;.;.;.:.%.:.%.:.:.:.:.:.:.:.7.7.7.7.:.:.:.:.:.:.7.7.7.7.7.8.7.7.7.8.7.7.8.7.8.8.7.7.7.9.9.9.9.7.7.7.8.8.8.8.8.9.9.8.9.7.7.7.7.8.8.7.7.7.7.7.7.8.8.7.7.:.7.7.:.:.:.;.;.;.;.;.%.%.%.$.$.| | o.Z < X o o . . . . . . . . o . . . o o o o o . . o o o o o o o o o o o o o o O O O O o o O O o o o O O o o ",
"yXyXdXiXiXyXuXuXuXdXuXiXdXiXiXuXyXdXyXyXtXyXyXrXyXyXiXyXyXyXyXfXyXdXdXdXtXqX%X.XJ.d.u.w.w.q.2.=.<.<.=.=.=.*.=.=.=.=.=.=.<.=.*.&.&.*.$. .&.=.&.&.&.&.^ =.q.r.Z.P.oX%X*X$X$X#X@XOXOX@X@XOXOXOXOXOXOXOXOXOXOXOXOXOX XOX X{. X{.{.].`.`._._._._.C.C.S.'.[.{.{.{. X{. X{.{. X X X XOXOXOXOXOX#X#X#XOX#X$X#XOXOXOX[.S._._.'.`.`.].[.[.[.{.{.{.{.{. XOX X X{.{.{. XOX#X&X<X<X<X<X<X&X<X<X<X<X3X3X1X<X<X&X<X<X3X4X3X4X<X$X$X&X<X1X1X4X<XOX$X<X1X4X4X4X4X3X3X3X3X3X3X1X<X<X<X<X<X<X3X4X4XrXrX4X1X1X3X3X3X4X4X3X1X<X&X<X<X3X3X1X<X&X$X$X#X#X$X&X&X&X&X&X&X<X<X1X&X&X@XOX]._.~ y 9 9 7 7 7 7 7 5 5 & & & 5 5 & & 7 7 & & & & & 1 0 U ..o.| $. .|  . . .| | | $.$.$.%.%.$.| | | %.%.$.%.%.%.-.;.;.%.;.%.:.:.:.:.:.:.:.:.7.7.:.:.:.7.7.:.7.7.7.:.7.7.7.7.7.7.7.7.7.8.7.8.7.7.7.7.8.9.9.8.8.8.9.8.7.7.8.8.8.8.8.9.9.8.8.8.8.8.7.7.8.7.7.7.7.8.7.7.7.:.7.7.:.:.:.;.:.;.%.;.%.%.%.$.$.| | R c + . o o . . . . . . . . . . o . . o o o o o o o o o o o o o o o . o o O o o o O o o # o o o o o o o o ",
"uXuXdXuXuXyXuXuXiXuXuXuXuXiXiXuXiXdXyXyXyXyXyXrXyXyXyXyXrXyXyX4X7XdXyXyXyXdXdXtXuXuXtXeXeX%X.XS.Z.Z.u.u.r.r.r.r.2.2.2.=.=.&.^ ^ ^ &.=.=.q.r.d.A.S.'..X@X*X*X*X*X1X*X$X#X#X@XOXOXOXOXOX@XOXOXOXOXOXOXOXOXOXOXOXOXOXOX X{.{.{.{.[.'._._._.S.S.A.C.S.`.'.{.{.{. X X X X X XOXOXOXOXOX@X#X$X$X$X$X#X$X$X#X@X@XOX[._._._.`.'.'.'.].[.[.{.{.{.{.{. X XOX X X{. X XOX#X&X<X<X<X<X<X<X<X<X1X1X3X1X<X<X<X<X<X<X1X3X3X4X<X$X$X&X<X3X3X4X<XOX$X1X1X4X4X3X3X1X<X3X4X3X1X<X<X<X<X1X<X1X3X4X4X4XrX4X3X3X3X3X4X4X4X3X1X<X<X<X<X3X3X1X<X&X$X$X#X#X$X&X<X<X<X&X&X1X<X1X&X&X@XOX'.`._ l 9 9 7 7 7 7 7 7 7 & & & & 7 & 5 7 7 5 5 & & 7 1 > z ! .. . . . .| | | | | | $.| | $.$.%.%.%.$.%.%.$.%.%.%.%.-.-.%.;.%.:.:.:.:.:.:.:.:.:.7.:.:.:.7.7.7.:.7.7.7.7.7.7.7.7.7.7.7.7.7.8.9.9.8.9.9.9.9.9.9.7.8.9.7.9.7.8.8.9.9.9.8.8.8.8.8.8.8.7.8.7.7.7.7.8.8.7.7.:.4.7.:.:.:.4.:.:.;.;.;.%.%.%.%.| | | | E s X o o . . . X X . . X . . . . o o o o o o o o o o o o o o o o o o o o o o o o o o o o o O # O o o o ",
"uXuXdXuXuXiXdXuXyXuXdXuXdXiXiXuXyXiXyXyXyXyXyX4X4X4XyXyXyX4XrX4X4XyX4X4X4X3X3X4X4XtXyXyXdXyXuXtXtXtXtXtXrX*X*X*X&X%X%X@X.X@X.X.X.X.XoX%X*X*X*X&X*X<X<X1X<X<X$X$X#X$X#X#X#X#X@X@X@XOXOX@X@XOXOXOXOXOXOXOXOXOXOX XOXOX X{. X{.[.[.'.`._._._._.C.C.S.'.[.{.{. X X XOXOXOXOXOXOXOXOX@X#X$X$X#X#X$X#X#X$X#X#X@XOX[._.`.`.'.`.`.].[.{.].[.{.{.{.{. X X X X X{. XOXOX@X&X<X<X<X<X<X&X<X<X1X3X3X1X1X1X<X<X<X<X<X1X3X4X<X$X$X$X<X1X3X4X<X X$X3X3X4X4X3X1X<X<X3X4X4X3X1X&X<X<X<X<X3X4X4X4X4X4X4X1X1X3X3X3X4X4X1X<X<X<X<X1X4X4X3X<X&X$X#X#X$X&X&X<X<X<X&X&X<X<X<X&X&X@X X{.`.`.Q r 9 7 7 5 & 5 7 7 & 5 & 5 5 & & 7 7 5 5 & 5 7 1 1 3 B !  . . . . .|  .| | | | | | $.$.| | %.| $.%.$.$.%.%.%.%.%.%.;.%.;.:.:.:.:.:.:.:.:.:.:.:.:.:.7.7.7.7.7.7.7.7.:.7.7.7.7.7.7.7.7.8.9.8.7.7.8.9.9.9.9.9.9.9.9.9.9.9.k.k.9.9.8.8.8.8.8.8.7.8.8.8.7.8.7.8.7.7.:.:.7.7.:.:.:.:.:.;.;.;.-.-.$.$.| | | | E I : o O . @ . . X X . X o . o . . o o o o . . o o o o o o o o o o o o o o o o o o o o o o O O o o o o ",
"uXdXdXdXuXuXfXuXiXiXiXiXuXiXuXyXyXyXyXyXyXyXyXrX4X4X4X4X4X4X4XrXrXrX4XrXrX4X1X3X3X4X4X4X4X1X4X1X3X4X4X4XrXrXyXyX4X3X4X3X3X3X<X<X1X*X&X*X*X&X&X$X#X$X<X&X&X&X$X$X#X#X#X@X#X#XOX@X@XOXOX@XOXOXOXOXOXOXOXOXOXOXOXOX X X X{.{.{.{.].`.`._._._.S.A.C._.'.[.{.{. XOXOXOXOXOXOX@XOXOX@X#X#X#X#X@X#X#X#X#X#X#X$X#X+X{.`.`.`.'.`.'.].].[.[.{.{.{. X X X X X X{.{. XOXOX@X$X<X<X<X<X<X<X<X<X1X1X1X1X<X1X<X<X<X<X<X1X3X3X1X<X$X&X<X3X4X4X<XOX&X1X1X3X3X3X1X<X<X4XrX4X3X1X<X<X<X<X<X3X4X4X4X4X4X4X1X1X3X3X4X4X3X3X<X<X<X<X1X3X3X<X<X$X@X#X@X$X&X&X&X<X&X&X&X<X<X<X&X@XOX X{.`.{._.n 9 7 5 7 & & 7 7 & & & 5 5 5 & 7 7 & 7 5 7 5 & 1 & e U &. . .|  . .| | | | | $.$.| | | | %.$.$.%.$.$.%.%.%.%.%.%.%.%.%.;.:.:.:.:.:.:.:.:.:.:.:.:.7.:.7.7.:.:.7.:.:.7.7.7.7.7.7.7.7.7.7.8.8.7.9.9.9.9.7.9.9.9.9.9.9.9.9.9.9.8.7.7.9.9.8.7.8.7.7.7.7.7.7.7.8.7.7.7.7.:.:.:.:.:.:.:.;.;.;.%.$.$.$.$.$.| |  .j + + # . . . X . . X o o o . o . o o o . . o o o o o o o o O o o o o o o o o o o o o o o o o . o o ",
"fXgXdXdXuXuXdXuXuXyXyXyXyXyXuXyXyXyXyXyXyXyXrXyX4X4X4X3X4XrX4X4XrX4X4XrXrX4X1X1X1X4X4X1X4X4X1X1X3X3X3X<X2X1X2X<X<X<X<X<X<X<X$X$X$X$X$X&X&X$X&X$X$X$X&X$X$X$X$X#X#X#X#X@X@X@X#X@XOXOX@X@XOXOX@XOXOXOXOXOXOXOXOXOX X{. X X{.{.{.'._.`._._._.S.A.S._._.'.{.{. XOXOXOX@X@X@X#X@X#X$X$X#X#X$X$X#X$X$X$X#X$X$X#XOX{.`.`.`.`.'.].].].].{.{.{.{. X{.{. X X X X{. X XOXOX$X&X<X3X<X<X<X<X<X<X<X1X1X<X<X1X<X<X<X<X1X4X3X4X1X#X$X<X4XrXyX<X#X&X<X1X1X1X3X1X<X<X3X4X3X1X<X<X<X<X<X<X4X4X4X4X3X1X1X1X1X3X1X3X3X<X1X<X<X<X<X1X1X1X<X<X$X@X@X@X$X$X&X<X<X<X&X1X1X&X&X$X@XOX X'.].'.[.` r & 5 7 & & & & 7 & 7 & & & 1 7 & & 7 7 5 5 5 5 1 > N / E  . . . . .| | | | $.| | | $.| | | $.$.$.$.-.;.%.%.%.%.%.%.;.%.;.:.:.:.:.:.:.:.:.:.:.:.:.:.7.7.:.7.7.7.7.7.8.7.7.7.7.7.7.7.8.8.8.8.8.8.9.9.8.9.9.7.7.7.9.9.9.9.9.8.8.7.9.9.9.8.8.7.7.7.7.7.7.7.8.7.7.7.:.:.7.7.7.4.:.:.;.;.;.%.%.%.$.$.| | | | R s X X X o o . . o o o o o o . . o o o o . . o o . o o o o O O o o . . o O O o o o o o O o o O o o "
};
